; generated by Slic3r 1.0.0RC3 on 2014-03-04 at 22:24:32

; layer_height = 0.25
; perimeters = 3
; top_solid_layers = 3
; bottom_solid_layers = 3
; fill_density = 0.2
; perimeter_speed = 50
; infill_speed = 70
; travel_speed = 130
; nozzle_diameter = 0.35
; filament_diameter = 3
; extrusion_multiplier = 1
; perimeters extrusion width = 0.35mm
; infill extrusion width = 0.39mm
; solid infill extrusion width = 0.39mm
; top infill extrusion width = 0.39mm
; first layer extrusion width = 0.70mm

G21 ; set units to millimeters
M107
G28 ; home all axes
G90 ; use absolute coordinates
G92 E0
M82 ; use absolute distances for extrusion
G1 F1800.000 E-1.00000
G92 E0
G1 Z0.350 F7800.000
G1 X59.000 Y52.380 F7800.000
G1 E1.00000 F1800.000
G1 X59.980 Y51.560 E1.03954 F900.000
G1 X78.730 Y38.560 E1.74549
G1 X79.890 Y37.910 E1.78663
G1 X81.170 Y37.510 E1.82813
G1 X82.500 Y37.380 E1.86947
G1 X107.500 Y37.380 E2.64301
G1 X108.830 Y37.510 E2.68435
G1 X110.110 Y37.910 E2.72585
G1 X111.270 Y38.560 E2.76699
G1 X130.020 Y51.560 E3.47294
G1 X131.000 Y52.380 E3.51248
G1 X131.800 Y53.380 E3.55210
G1 X132.390 Y54.510 E3.59155
G1 X132.750 Y55.730 E3.63090
G1 X132.870 Y57.000 E3.67037
G1 X132.870 Y133.000 E6.02191
G1 X132.710 Y134.450 E6.06705
G1 X132.240 Y135.820 E6.11187
G1 X131.480 Y137.060 E6.15687
G1 X130.470 Y138.110 E6.20195
G1 X114.720 Y151.110 E6.83383
G1 X113.440 Y151.940 E6.88104
G1 X112.010 Y152.450 E6.92801
G1 X110.500 Y152.620 E6.97503
G1 X79.500 Y152.620 E7.93421
G1 X77.990 Y152.450 E7.98123
G1 X76.560 Y151.940 E8.02820
G1 X75.280 Y151.110 E8.07540
G1 X59.530 Y138.110 E8.70729
G1 X58.520 Y137.060 E8.75237
G1 X57.760 Y135.820 E8.79737
G1 X57.290 Y134.450 E8.84218
G1 X57.130 Y133.000 E8.88732
G1 X57.130 Y57.000 E11.23886
G1 X57.250 Y55.730 E11.27833
G1 X57.610 Y54.510 E11.31769
G1 X58.200 Y53.380 E11.35713
G1 X58.941 Y52.453 E11.39386
G1 F1800.000 E10.39386
G92 E0
G1 X70.525 Y59.525 F7800.000
G1 E1.00000 F1800.000
G1 X106.975 Y59.525 E2.12780 F900.000
G1 X106.975 Y69.025 E2.42175
G1 X109.025 Y69.025 E2.48518
G1 X109.025 Y59.525 E2.77913
G1 X123.225 Y59.525 E3.21849
G1 X123.225 Y130.475 E5.41377
G1 X115.525 Y130.475 E5.65201
G1 X115.525 Y120.975 E5.94595
G1 X113.475 Y120.975 E6.00939
G1 X113.475 Y130.475 E6.30333
G1 X95.301 Y130.475 E6.86566
G1 X95.000 Y129.836 E6.88752
G1 X94.699 Y130.475 E6.90938
G1 X76.525 Y130.475 E7.47171
G1 X76.525 Y120.975 E7.76566
G1 X74.475 Y120.975 E7.82909
G1 X74.475 Y130.475 E8.12304
G1 X66.775 Y130.475 E8.36128
G1 X66.775 Y69.025 E10.26261
G1 X70.525 Y69.025 E10.37864
G1 X70.525 Y59.619 E10.66969
G1 X71.150 Y60.150 F7800.000
G1 X106.350 Y60.150 E11.75882 F630.000
G1 X106.350 Y69.650 E12.05276
G1 X109.650 Y69.650 E12.15487
G1 X109.650 Y60.150 E12.44881
G1 X122.600 Y60.150 E12.84950
G1 X122.600 Y79.305 E13.44220
G1 X122.299 Y79.382 E13.45180
G1 X122.086 Y79.500 E13.45933
G1 X121.931 Y79.687 E13.46686
G1 X121.871 Y79.838 E13.47189
G1 X121.851 Y80.000 E13.47693
G1 X121.871 Y80.162 E13.48197
G1 X121.931 Y80.313 E13.48700
G1 X122.086 Y80.500 E13.49453
G1 X122.299 Y80.618 E13.50206
G1 X122.600 Y80.694 E13.51166
G1 X122.600 Y109.306 E14.39693
G1 X122.299 Y109.382 E14.40653
G1 X122.086 Y109.500 E14.41406
G1 X121.931 Y109.687 E14.42159
G1 X121.871 Y109.838 E14.42662
G1 X121.851 Y110.000 E14.43166
G1 X121.871 Y110.162 E14.43670
G1 X121.931 Y110.313 E14.44173
G1 X122.086 Y110.500 E14.44926
G1 X122.299 Y110.618 E14.45679
G1 X122.600 Y110.694 E14.46639
G1 X122.600 Y129.850 E15.05909
G1 X116.150 Y129.850 E15.25866
G1 X116.150 Y120.350 E15.55260
G1 X112.850 Y120.350 E15.65471
G1 X112.850 Y129.850 E15.94865
G1 X95.697 Y129.850 E16.47938
G1 X95.569 Y129.577 E16.48871
G1 X95.414 Y129.390 E16.49624
G1 X95.201 Y129.272 E16.50377
G1 X95.041 Y129.242 E16.50880
G1 X94.799 Y129.272 E16.51633
G1 X94.586 Y129.390 E16.52386
G1 X94.431 Y129.577 E16.53139
G1 X94.303 Y129.850 E16.54072
G1 X77.150 Y129.850 E17.07144
G1 X77.150 Y120.350 E17.36539
G1 X73.850 Y120.350 E17.46749
G1 X73.850 Y129.850 E17.76144
G1 X67.400 Y129.850 E17.96101
G1 X67.400 Y110.694 E18.55370
G1 X67.701 Y110.618 E18.56331
G1 X67.914 Y110.500 E18.57084
G1 X68.069 Y110.313 E18.57836
G1 X68.129 Y110.162 E18.58340
G1 X68.149 Y110.000 E18.58844
G1 X68.129 Y109.838 E18.59347
G1 X68.069 Y109.687 E18.59851
G1 X67.914 Y109.500 E18.60604
G1 X67.701 Y109.382 E18.61357
G1 X67.400 Y109.306 E18.62317
G1 X67.400 Y80.694 E19.50843
G1 X67.701 Y80.618 E19.51804
G1 X67.914 Y80.500 E19.52556
G1 X68.069 Y80.313 E19.53309
G1 X68.129 Y80.162 E19.53813
G1 X68.149 Y80.000 E19.54316
G1 X68.129 Y79.838 E19.54820
G1 X68.069 Y79.687 E19.55324
G1 X67.914 Y79.500 E19.56077
G1 X67.701 Y79.382 E19.56829
G1 X67.400 Y79.306 E19.57790
G1 X67.400 Y69.650 E19.87665
G1 X71.150 Y69.650 E19.99268
G1 X71.150 Y60.244 E20.28372
G1 X71.150 Y59.525 F7800.000
G1 F1800.000 E19.28372
G92 E0
G1 X106.319 Y141.552 F7800.000
G1 E1.00000 F1800.000
G1 X106.505 Y141.478 E1.00622 F540.000
G1 X106.700 Y141.428 E1.01244
G1 X106.900 Y141.403 E1.01866
G1 X107.100 Y141.403 E1.02488
G1 X107.300 Y141.428 E1.03110
G1 X107.495 Y141.478 E1.03732
G1 X107.681 Y141.552 E1.04354
G1 X107.858 Y141.648 E1.04976
G1 X108.020 Y141.767 E1.05598
G1 X108.167 Y141.904 E1.06219
G1 X108.295 Y142.059 E1.06842
G1 X108.403 Y142.229 E1.07464
G1 X108.488 Y142.411 E1.08085
G1 X108.550 Y142.602 E1.08707
G1 X108.588 Y142.799 E1.09329
G1 X108.625 Y143.385 E1.11144
G1 X108.555 Y143.385 E1.11362
G1 X108.488 Y143.589 E1.12027
G1 X108.403 Y143.771 E1.12649
G1 X108.295 Y143.941 E1.13271
G1 X108.167 Y144.096 E1.13893
G1 X108.020 Y144.233 E1.14515
G1 X107.858 Y144.352 E1.15137
G1 X107.681 Y144.448 E1.15759
G1 X107.495 Y144.522 E1.16381
G1 X107.300 Y144.572 E1.17003
G1 X107.100 Y144.597 E1.17625
G1 X106.900 Y144.597 E1.18247
G1 X106.700 Y144.572 E1.18869
G1 X106.505 Y144.522 E1.19491
G1 X106.318 Y144.448 E1.20113
G1 X106.142 Y144.352 E1.20735
G1 X105.980 Y144.233 E1.21357
G1 X105.833 Y144.096 E1.21978
G1 X105.705 Y143.941 E1.22601
G1 X105.597 Y143.771 E1.23223
G1 X105.512 Y143.589 E1.23844
G1 X105.450 Y143.398 E1.24466
G1 X105.412 Y143.201 E1.25088
G1 X105.399 Y143.000 E1.25710
G1 X105.412 Y142.799 E1.26333
G1 X105.450 Y142.602 E1.26954
G1 X105.580 Y142.265 E1.28071
G1 X105.705 Y142.059 E1.28817
G1 X105.833 Y141.904 E1.29439
G1 X105.980 Y141.767 E1.30061
G1 X106.236 Y141.597 E1.31013
G1 X106.335 Y141.352 F7800.000
G1 F1800.000 E0.31013
G92 E0
G1 X84.588 Y142.799 F7800.000
G1 E1.00000 F1800.000
G1 X84.625 Y143.385 E1.01815 F540.000
G1 X84.555 Y143.385 E1.02033
G1 X84.488 Y143.589 E1.02698
G1 X84.403 Y143.771 E1.03320
G1 X84.295 Y143.941 E1.03942
G1 X84.167 Y144.096 E1.04564
G1 X84.020 Y144.233 E1.05186
G1 X83.858 Y144.352 E1.05808
G1 X83.681 Y144.448 E1.06430
G1 X83.495 Y144.522 E1.07051
G1 X83.300 Y144.572 E1.07674
G1 X83.100 Y144.597 E1.08296
G1 X82.900 Y144.597 E1.08917
G1 X82.700 Y144.572 E1.09539
G1 X82.505 Y144.522 E1.10162
G1 X82.318 Y144.448 E1.10783
G1 X82.142 Y144.352 E1.11405
G1 X81.980 Y144.233 E1.12028
G1 X81.833 Y144.096 E1.12649
G1 X81.705 Y143.941 E1.13271
G1 X81.597 Y143.771 E1.13893
G1 X81.512 Y143.589 E1.14515
G1 X81.450 Y143.398 E1.15137
G1 X81.412 Y143.201 E1.15759
G1 X81.399 Y143.000 E1.16381
G1 X81.412 Y142.799 E1.17003
G1 X81.450 Y142.602 E1.17625
G1 X81.580 Y142.265 E1.18742
G1 X81.705 Y142.059 E1.19488
G1 X81.833 Y141.904 E1.20110
G1 X81.980 Y141.767 E1.20732
G1 X82.142 Y141.648 E1.21354
G1 X82.319 Y141.552 E1.21976
G1 X82.505 Y141.478 E1.22598
G1 X82.700 Y141.428 E1.23220
G1 X82.900 Y141.403 E1.23842
G1 X83.100 Y141.403 E1.24464
G1 X83.300 Y141.428 E1.25086
G1 X83.495 Y141.478 E1.25708
G1 X83.681 Y141.552 E1.26330
G1 X83.858 Y141.648 E1.26952
G1 X84.020 Y141.767 E1.27574
G1 X84.167 Y141.904 E1.28195
G1 X84.295 Y142.059 E1.28818
G1 X84.403 Y142.229 E1.29440
G1 X84.488 Y142.411 E1.30061
G1 X84.570 Y142.707 E1.31013
G1 X85.129 Y143.027 F7800.000
G1 F1800.000 E0.31013
G92 E0
G1 X108.209 Y145.025 F7800.000
G1 E1.00000 F1800.000
G1 X108.802 Y144.309 E1.02876 F540.000
G1 X108.991 Y144.010 E1.03973
G1 X109.525 Y144.010 E1.05624
G1 X109.525 Y145.025 E1.08766
G1 X108.303 Y145.025 E1.12548
G1 X105.791 Y145.025 F7800.000
G1 X104.475 Y145.025 E1.16620 F540.000
G1 X104.475 Y143.540 E1.21214
G1 X104.674 Y143.483 E1.21856
G1 X105.198 Y144.309 E1.24884
G1 X105.731 Y144.953 E1.27470
G1 F1800.000 E0.27470
G92 E0
G1 X85.525 Y145.025 F7800.000
G1 E1.00000 F1800.000
G1 X84.209 Y145.025 E1.04072 F540.000
G1 X84.802 Y144.309 E1.06948
G1 X84.991 Y144.010 E1.08045
G1 X85.525 Y144.010 E1.09696
G1 X85.525 Y144.931 E1.12548
G1 X81.791 Y145.025 F7800.000
G1 X80.475 Y145.025 E1.16620 F540.000
G1 X80.475 Y143.540 E1.21214
G1 X80.674 Y143.483 E1.21855
G1 X81.198 Y144.309 E1.24884
G1 X81.731 Y144.953 E1.27470
G1 X81.100 Y140.795 F7800.000
G1 X81.100 Y131.100 E1.57469 F540.000
G1 X84.900 Y131.100 E1.69228
G1 X84.900 Y140.795 E1.99227
G1 X84.215 Y140.419 E2.01647
G1 X83.882 Y140.287 E2.02754
G1 X83.534 Y140.197 E2.03865
G1 X83.179 Y140.153 E2.04974
G1 X82.821 Y140.153 E2.06080
G1 X82.466 Y140.197 E2.07189
G1 X82.118 Y140.287 E2.08300
G1 X81.785 Y140.419 E2.09407
G1 X81.182 Y140.750 E2.11537
G1 F1800.000 E1.11537
G92 E0
G1 X75.900 Y131.400 F7800.000
G1 E1.00000 F1800.000
G1 X75.100 Y131.400 E1.02477 F540.000
G1 X75.100 Y121.600 E1.32801
G1 X75.900 Y121.600 E1.35277
G1 X75.900 Y131.306 E1.65311
G1 X105.100 Y131.100 F7800.000
G1 X108.900 Y131.100 E1.77070 F540.000
G1 X108.900 Y140.795 E2.07069
G1 X108.215 Y140.419 E2.09490
G1 X107.882 Y140.287 E2.10596
G1 X107.534 Y140.197 E2.11707
G1 X107.179 Y140.153 E2.12816
G1 X106.821 Y140.153 E2.13922
G1 X106.466 Y140.197 E2.15031
G1 X106.118 Y140.287 E2.16142
G1 X105.785 Y140.419 E2.17249
G1 X105.100 Y140.795 E2.19669
G1 X105.100 Y131.194 E2.49378
G1 X114.100 Y131.400 F7800.000
G1 X114.100 Y121.600 E2.79702 F540.000
G1 X114.900 Y121.600 E2.82179
G1 X114.900 Y131.400 E3.12503
G1 X114.194 Y131.400 E3.14689
G1 F1800.000 E2.14689
G92 E0
G1 X108.400 Y68.400 F7800.000
G1 E1.00000 F1800.000
G1 X107.600 Y68.400 E1.02477 F540.000
G1 X107.600 Y58.600 E1.32801
G1 X108.400 Y58.600 E1.35277
G1 X108.400 Y68.306 E1.65311
G1 X105.900 Y58.900 F7800.000
G1 X102.100 Y58.900 E1.77070 F540.000
G1 X102.100 Y50.115 E2.04252
G1 X102.887 Y50.427 E2.06870
G1 X103.325 Y50.539 E2.08270
G1 X105.900 Y50.865 E2.16302
G1 X105.900 Y58.806 E2.40875
G1 X87.900 Y58.900 F7800.000
G1 X84.100 Y58.900 E2.52634 F540.000
G1 X84.100 Y50.115 E2.79816
G1 X84.887 Y50.427 E2.82434
G1 X85.325 Y50.539 E2.83834
G1 X87.900 Y50.865 E2.91866
G1 X87.900 Y58.806 E3.16439
G1 X69.900 Y58.600 F7800.000
G1 X69.900 Y68.400 E3.46763 F900.000
G1 X66.150 Y68.400 E3.58366
G1 X66.150 Y131.400 E5.53296
G1 X65.350 Y131.400 E5.55773
G1 X65.350 Y58.600 E7.81027
G1 X69.806 Y58.600 E7.94817
G1 X123.850 Y58.600 F7800.000
G1 X124.650 Y58.600 E7.97293 F900.000
G1 X124.650 Y131.400 E10.22548
G1 X123.850 Y131.400 E10.25024
G1 X123.850 Y58.694 E12.49988
G1 X125.275 Y57.975 F7800.000
G1 X125.275 Y132.025 E14.79109 F900.000
G1 X109.525 Y132.025 E15.27842
G1 X109.525 Y142.460 E15.60128
G1 X109.326 Y142.517 E15.60769
G1 X108.802 Y141.691 E15.63797
G1 X108.623 Y141.476 E15.64663
G1 X108.419 Y141.284 E15.65527
G1 X108.193 Y141.120 E15.66393
G1 X107.948 Y140.985 E15.67258
G1 X107.688 Y140.882 E15.68122
G1 X107.417 Y140.813 E15.68989
G1 X107.140 Y140.778 E15.69855
G1 X106.860 Y140.778 E15.70718
G1 X106.583 Y140.813 E15.71584
G1 X106.312 Y140.882 E15.72451
G1 X106.052 Y140.985 E15.73315
G1 X105.807 Y141.120 E15.74180
G1 X105.581 Y141.284 E15.75046
G1 X105.377 Y141.476 E15.75911
G1 X105.198 Y141.691 E15.76776
G1 X104.674 Y142.517 E15.79804
G1 X104.475 Y142.460 E15.80446
G1 X104.475 Y132.025 E16.12731
G1 X85.525 Y132.025 E16.71365
G1 X85.525 Y142.460 E17.03650
G1 X85.326 Y142.517 E17.04291
G1 X84.802 Y141.691 E17.07320
G1 X84.623 Y141.476 E17.08185
G1 X84.419 Y141.284 E17.09050
G1 X84.193 Y141.120 E17.09915
G1 X83.948 Y140.985 E17.10781
G1 X83.688 Y140.882 E17.11645
G1 X83.417 Y140.813 E17.12512
G1 X83.140 Y140.778 E17.13377
G1 X82.860 Y140.778 E17.14241
G1 X82.583 Y140.813 E17.15107
G1 X82.312 Y140.882 E17.15973
G1 X82.052 Y140.985 E17.16837
G1 X81.807 Y141.120 E17.17703
G1 X81.581 Y141.284 E17.18568
G1 X81.377 Y141.476 E17.19433
G1 X81.198 Y141.691 E17.20298
G1 X80.674 Y142.517 E17.23327
G1 X80.475 Y142.460 E17.23968
G1 X80.475 Y132.025 E17.56254
G1 X64.725 Y132.025 E18.04986
G1 X64.725 Y57.975 E20.34107
G1 X83.475 Y57.975 E20.92122
G1 X83.475 Y48.704 E21.20807
G1 X84.102 Y49.294 E21.23470
G1 X84.405 Y49.513 E21.24626
G1 X84.733 Y49.694 E21.25784
G1 X85.080 Y49.831 E21.26941
G1 X85.442 Y49.924 E21.28097
G1 X86.876 Y50.105 E21.32570
G1 X86.876 Y49.848 E21.33366
G1 X87.267 Y49.694 E21.34667
G1 X87.595 Y49.513 E21.35824
G1 X87.898 Y49.294 E21.36981
G1 X88.525 Y48.704 E21.39644
G1 X88.525 Y57.975 E21.68328
G1 X101.475 Y57.975 E22.08397
G1 X101.475 Y48.704 E22.37081
G1 X102.102 Y49.294 E22.39744
G1 X102.405 Y49.513 E22.40901
G1 X102.733 Y49.694 E22.42058
G1 X103.080 Y49.831 E22.43215
G1 X103.442 Y49.924 E22.44371
G1 X104.876 Y50.105 E22.48844
G1 X104.876 Y49.848 E22.49640
G1 X105.267 Y49.694 E22.50941
G1 X105.595 Y49.513 E22.52099
G1 X105.898 Y49.294 E22.53255
G1 X106.525 Y48.704 E22.55918
G1 X106.525 Y57.975 E22.84603
G1 X125.181 Y57.975 E23.42328
G1 X125.900 Y57.350 F7800.000
G1 X125.900 Y132.650 E25.75316 F630.000
G1 X110.150 Y132.650 E26.24048
G1 X110.150 Y145.650 E26.64272
G1 X103.850 Y145.650 E26.83765
G1 X103.850 Y132.650 E27.23989
G1 X86.150 Y132.650 E27.78755
G1 X86.150 Y145.650 E28.18979
G1 X79.850 Y145.650 E28.38472
G1 X79.850 Y132.650 E28.78695
G1 X64.100 Y132.650 E29.27428
G1 X64.100 Y57.350 E31.60416
G1 X82.850 Y57.350 E32.18431
G1 X82.850 Y44.350 E32.58655
G1 X85.461 Y44.350 E32.66732
G1 X85.521 Y44.586 E32.67486
G1 X84.740 Y45.015 E32.70243
G1 X84.502 Y45.189 E32.71157
G1 X84.286 Y45.391 E32.72070
G1 X84.098 Y45.618 E32.72983
G1 X83.940 Y45.868 E32.73897
G1 X83.814 Y46.135 E32.74810
G1 X83.723 Y46.415 E32.75724
G1 X83.668 Y46.705 E32.76637
G1 X83.649 Y47.000 E32.77550
G1 X83.668 Y47.295 E32.78464
G1 X83.723 Y47.585 E32.79377
G1 X83.814 Y47.865 E32.80290
G1 X83.940 Y48.132 E32.81204
G1 X84.098 Y48.382 E32.82117
G1 X84.286 Y48.609 E32.83031
G1 X84.502 Y48.811 E32.83944
G1 X84.740 Y48.985 E32.84857
G1 X84.999 Y49.127 E32.85771
G1 X85.274 Y49.236 E32.86684
G1 X85.559 Y49.309 E32.87598
G1 X86.252 Y49.397 E32.89756
G1 X86.252 Y49.358 E32.89876
G1 X86.726 Y49.236 E32.91393
G1 X87.001 Y49.127 E32.92307
G1 X87.260 Y48.985 E32.93220
G1 X87.498 Y48.811 E32.94134
G1 X87.714 Y48.609 E32.95047
G1 X87.902 Y48.382 E32.95960
G1 X88.060 Y48.132 E32.96874
G1 X88.186 Y47.865 E32.97787
G1 X88.277 Y47.585 E32.98700
G1 X88.332 Y47.295 E32.99614
G1 X88.351 Y47.000 E33.00527
G1 X88.332 Y46.705 E33.01441
G1 X88.277 Y46.415 E33.02354
G1 X88.186 Y46.135 E33.03267
G1 X88.060 Y45.868 E33.04181
G1 X87.902 Y45.618 E33.05094
G1 X87.714 Y45.391 E33.06008
G1 X87.498 Y45.189 E33.06921
G1 X87.260 Y45.015 E33.07834
G1 X86.479 Y44.586 E33.10591
G1 X86.539 Y44.350 E33.11345
G1 X89.150 Y44.350 E33.19423
G1 X89.150 Y57.350 E33.59646
G1 X100.850 Y57.350 E33.95848
G1 X100.850 Y44.350 E34.36071
G1 X103.461 Y44.350 E34.44149
G1 X103.521 Y44.586 E34.44903
G1 X102.740 Y45.015 E34.47660
G1 X102.502 Y45.189 E34.48573
G1 X102.286 Y45.391 E34.49486
G1 X102.098 Y45.618 E34.50400
G1 X101.940 Y45.868 E34.51313
G1 X101.814 Y46.135 E34.52227
G1 X101.714 Y46.466 E34.53298
G1 X101.668 Y46.705 E34.54052
G1 X101.649 Y47.000 E34.54966
G1 X101.668 Y47.295 E34.55879
G1 X101.723 Y47.585 E34.56793
G1 X101.814 Y47.865 E34.57706
G1 X101.940 Y48.132 E34.58619
G1 X102.098 Y48.382 E34.59533
G1 X102.286 Y48.609 E34.60446
G1 X102.502 Y48.811 E34.61359
G1 X102.740 Y48.985 E34.62273
G1 X102.999 Y49.127 E34.63186
G1 X103.274 Y49.236 E34.64100
G1 X103.559 Y49.309 E34.65013
G1 X104.252 Y49.397 E34.67171
G1 X104.252 Y49.358 E34.67292
G1 X104.726 Y49.236 E34.68809
G1 X105.001 Y49.127 E34.69722
G1 X105.260 Y48.985 E34.70636
G1 X105.498 Y48.811 E34.71549
G1 X105.714 Y48.609 E34.72462
G1 X105.902 Y48.382 E34.73376
G1 X106.060 Y48.132 E34.74289
G1 X106.186 Y47.865 E34.75203
G1 X106.277 Y47.585 E34.76116
G1 X106.332 Y47.295 E34.77029
G1 X106.351 Y47.000 E34.77943
