; generated by Slic3r 1.0.0RC3 on 2014-03-04 at 19:00:01

; layer_height = 0.25
; perimeters = 3
; top_solid_layers = 3
; bottom_solid_layers = 3
; fill_density = 0.2
; perimeter_speed = 50
; infill_speed = 70
; travel_speed = 130
; nozzle_diameter = 0.35
; filament_diameter = 3
; extrusion_multiplier = 1
; perimeters extrusion width = 0.35mm
; infill extrusion width = 0.39mm
; solid infill extrusion width = 0.39mm
; top infill extrusion width = 0.39mm
; first layer extrusion width = 0.70mm

G21 ; set units to millimeters
M107
G28 ; home all axes
G90 ; use absolute coordinates
G92 E0
M82 ; use absolute distances for extrusion
G1 F1800.000 E-1.00000
G92 E0
G1 Z0.350 F7800.000
G1 X59.070 Y52.320 F7800.000
G1 E1.00000 F1800.000
G1 X60.070 Y51.490 E1.04021 F900.000
G1 X61.210 Y50.880 E1.08022
G1 X62.460 Y50.500 E1.12064
G1 X63.750 Y50.380 E1.16073
G1 X126.250 Y50.380 E3.09456
G1 X127.540 Y50.500 E3.13465
G1 X128.790 Y50.880 E3.17507
G1 X129.930 Y51.490 E3.21508
G1 X130.930 Y52.320 E3.25529
G1 X131.760 Y53.320 E3.29550
G1 X132.370 Y54.460 E3.33550
G1 X132.750 Y55.710 E3.37593
G1 X132.870 Y57.000 E3.41601
G1 X132.870 Y133.000 E5.76755
G1 X132.750 Y134.290 E5.80764
G1 X132.370 Y135.540 E5.84806
G1 X131.760 Y136.680 E5.88807
G1 X130.930 Y137.680 E5.92828
G1 X129.930 Y138.510 E5.96849
G1 X128.790 Y139.120 E6.00850
G1 X127.540 Y139.500 E6.04892
G1 X126.250 Y139.620 E6.08901
G1 X63.750 Y139.620 E8.02284
G1 X62.460 Y139.500 E8.06293
G1 X61.210 Y139.120 E8.10335
G1 X60.070 Y138.510 E8.14336
G1 X59.070 Y137.680 E8.18357
G1 X58.240 Y136.680 E8.22378
G1 X57.630 Y135.540 E8.26378
G1 X57.250 Y134.290 E8.30421
G1 X57.130 Y133.000 E8.34429
G1 X57.130 Y57.000 E10.69583
G1 X57.250 Y55.710 E10.73592
G1 X57.630 Y54.460 E10.77634
G1 X58.240 Y53.320 E10.81635
G1 X59.010 Y52.392 E10.85366
G1 F1800.000 E9.85366
G92 E0
G1 X70.525 Y59.525 F7800.000
G1 E1.00000 F1800.000
G1 X108.975 Y59.525 E2.18969 F900.000
G1 X108.975 Y69.025 E2.48363
G1 X111.025 Y69.025 E2.54707
G1 X111.025 Y59.525 E2.84101
G1 X123.225 Y59.525 E3.21849
G1 X123.225 Y130.475 E5.41377
G1 X115.525 Y130.475 E5.65201
G1 X115.525 Y120.975 E5.94595
G1 X113.475 Y120.975 E6.00939
G1 X113.475 Y130.475 E6.30333
G1 X76.525 Y130.475 E7.44660
G1 X76.525 Y120.975 E7.74055
G1 X74.475 Y120.975 E7.80398
G1 X74.475 Y130.475 E8.09792
G1 X66.775 Y130.475 E8.33617
G1 X66.775 Y69.025 E10.23750
G1 X70.525 Y69.025 E10.35353
G1 X70.525 Y59.619 E10.64457
G1 X71.150 Y60.150 F7800.000
G1 X108.350 Y60.150 E11.79559 F630.000
G1 X108.350 Y69.650 E12.08953
G1 X111.650 Y69.650 E12.19164
G1 X111.650 Y60.150 E12.48558
G1 X122.600 Y60.150 E12.82439
G1 X122.600 Y129.850 E14.98100
G1 X116.150 Y129.850 E15.18057
G1 X116.150 Y120.350 E15.47451
G1 X112.850 Y120.350 E15.57662
G1 X112.850 Y129.850 E15.87056
G1 X77.150 Y129.850 E16.97517
G1 X77.150 Y120.350 E17.26911
G1 X73.850 Y120.350 E17.37122
G1 X73.850 Y129.850 E17.66516
G1 X67.400 Y129.850 E17.86473
G1 X67.400 Y69.650 E19.72740
G1 X71.150 Y69.650 E19.84343
G1 X71.150 Y60.244 E20.13447
G1 X71.150 Y59.525 F7800.000
G1 X123.850 Y58.600 F7800.000
G1 X124.650 Y58.600 E20.15924 F900.000
G1 X124.650 Y131.400 E22.41178
G1 X123.850 Y131.400 E22.43655
G1 X123.850 Y58.694 E24.68619
G1 X110.400 Y58.600 F7800.000
G1 X110.400 Y68.400 E24.98943 F540.000
G1 X109.600 Y68.400 E25.01419
G1 X109.600 Y58.600 E25.31743
G1 X110.306 Y58.600 E25.33930
G1 X69.900 Y58.600 F7800.000
G1 X69.900 Y68.400 E25.64254 F900.000
G1 X66.150 Y68.400 E25.75857
G1 X66.150 Y131.400 E27.70787
G1 X65.350 Y131.400 E27.73263
G1 X65.350 Y58.600 E29.98518
G1 X69.806 Y58.600 E30.12307
G1 F1800.000 E29.12307
G92 E0
G1 X75.100 Y121.600 F7800.000
G1 E1.00000 F1800.000
G1 X75.900 Y121.600 E1.02477 F540.000
G1 X75.900 Y131.400 E1.32801
G1 X75.100 Y131.400 E1.35277
G1 X75.100 Y121.694 E1.65311
G1 F1800.000 E0.65311
G92 E0
G1 X114.100 Y121.600 F7800.000
G1 E1.00000 F1800.000
G1 X114.900 Y121.600 E1.02477 F540.000
G1 X114.900 Y131.400 E1.32801
G1 X114.100 Y131.400 E1.35277
G1 X114.100 Y121.694 E1.65311
G1 F1800.000 E0.65311
G92 E0
G1 X125.275 Y132.025 F7800.000
G1 E1.00000 F1800.000
G1 X64.725 Y132.025 E2.87350 F900.000
G1 X64.725 Y57.975 E5.16471
G1 X125.275 Y57.975 E7.03822
G1 X125.275 Y131.931 E9.32653
G1 X125.900 Y132.650 F7800.000
G1 X64.100 Y132.650 E11.23870 F630.000
G1 X64.100 Y57.350 E13.56858
G1 X125.900 Y57.350 E15.48076
G1 X125.900 Y132.556 E17.80774
G1 X125.359 Y132.338 F7800.000
G1 F1800.000 E16.80774
G92 E0
G1 X65.813 Y67.645 F7800.000
G1 E1.00000 F1800.000
G1 X65.793 Y67.625 E1.00091 F1080.000
G1 X65.793 Y66.708 E1.03031
G1 X66.729 Y67.645 E1.07281
G1 X67.646 Y67.645 E1.10221
G1 X65.793 Y65.792 E1.18630
G1 X65.793 Y64.875 E1.21570
G1 X68.562 Y67.645 E1.34137
G1 X69.145 Y67.311 E1.36292
G1 X65.793 Y63.959 E1.51502
G1 X65.793 Y63.042 E1.54443
G1 X69.145 Y66.394 E1.69653
G1 X69.145 Y65.478 E1.72594
G1 X65.793 Y62.126 E1.87804
G1 X65.793 Y61.210 E1.90745
G1 X69.145 Y64.562 E2.05956
G1 X69.145 Y63.645 E2.08896
G1 X65.793 Y60.293 E2.24107
G1 X65.793 Y59.377 E2.27047
G1 X69.145 Y62.729 E2.42258
G1 X69.145 Y61.812 E2.45198
G1 X66.375 Y59.043 E2.57765
G1 X67.292 Y59.043 E2.60706
G1 X69.145 Y60.896 E2.69114
G1 X69.145 Y59.979 E2.72055
G1 X68.208 Y59.043 E2.76304
G1 X69.125 Y59.043 E2.79245
G1 X69.145 Y59.063 E2.79335
G1 X70.553 Y58.853 F7800.000
G1 X71.225 Y58.627 E2.81564 F360.000
G1 X71.470 Y58.873 E2.82655 F360.000
G1 X72.123 Y58.627 E2.84845 F360.000
G1 X72.368 Y58.873 E2.85935 F360.000
G1 X73.020 Y58.627 E2.88126 F360.000
G1 X73.266 Y58.873 E2.89216 F360.000
G1 X73.918 Y58.627 E2.91407 F360.000
G1 X74.163 Y58.873 E2.92497 F360.000
G1 X74.816 Y58.627 E2.94688 F360.000
G1 X75.061 Y58.873 E2.95778 F360.000
G1 X75.713 Y58.627 E2.97969 F360.000
G1 X75.959 Y58.873 E2.99059 F360.000
G1 X76.611 Y58.627 E3.01250 F360.000
G1 X76.856 Y58.873 E3.02340 F360.000
G1 X77.509 Y58.627 E3.04531 F360.000
G1 X77.754 Y58.873 E3.05621 F360.000
G1 X78.406 Y58.627 E3.07812 F360.000
G1 X78.652 Y58.873 E3.08902 F360.000
G1 X79.304 Y58.627 E3.11093 F360.000
G1 X79.549 Y58.873 E3.12183 F360.000
G1 X80.202 Y58.627 E3.14374 F360.000
G1 X80.447 Y58.873 E3.15464 F360.000
G1 X81.099 Y58.627 E3.17655 F360.000
G1 X81.345 Y58.873 E3.18745 F360.000
G1 X81.997 Y58.627 E3.20936 F360.000
G1 X82.242 Y58.873 E3.22026 F360.000
G1 X82.895 Y58.627 E3.24216 F360.000
G1 X83.140 Y58.873 E3.25307 F360.000
G1 X83.792 Y58.627 E3.27497 F360.000
G1 X84.038 Y58.873 E3.28588 F360.000
G1 X84.690 Y58.627 E3.30778 F360.000
G1 X84.935 Y58.873 E3.31869 F360.000
G1 X85.588 Y58.627 E3.34059 F360.000
G1 X85.833 Y58.873 E3.35150 F360.000
G1 X86.485 Y58.627 E3.37340 F360.000
G1 X86.731 Y58.873 E3.38431 F360.000
G1 X87.383 Y58.627 E3.40621 F360.000
G1 X87.628 Y58.873 E3.41712 F360.000
G1 X88.281 Y58.627 E3.43902 F360.000
G1 X88.526 Y58.873 E3.44993 F360.000
G1 X89.179 Y58.627 E3.47183 F360.000
G1 X89.424 Y58.873 E3.48274 F360.000
G1 X90.076 Y58.627 E3.50464 F360.000
G1 X90.322 Y58.873 E3.51555 F360.000
G1 X90.974 Y58.627 E3.53745 F360.000
G1 X91.219 Y58.873 E3.54836 F360.000
G1 X91.872 Y58.627 E3.57026 F360.000
G1 X92.117 Y58.873 E3.58117 F360.000
G1 X92.769 Y58.627 E3.60307 F360.000
G1 X93.015 Y58.873 E3.61397 F360.000
G1 X93.667 Y58.627 E3.63588 F360.000
G1 X93.912 Y58.873 E3.64678 F360.000
G1 X94.565 Y58.627 E3.66869 F360.000
G1 X94.810 Y58.873 E3.67959 F360.000
G1 X95.462 Y58.627 E3.70150 F360.000
G1 X95.708 Y58.873 E3.71240 F360.000
G1 X96.360 Y58.627 E3.73431 F360.000
G1 X96.605 Y58.873 E3.74521 F360.000
G1 X97.258 Y58.627 E3.76712 F360.000
G1 X97.503 Y58.873 E3.77802 F360.000
G1 X98.155 Y58.627 E3.79993 F360.000
G1 X98.401 Y58.873 E3.81083 F360.000
G1 X99.053 Y58.627 E3.83274 F360.000
G1 X99.298 Y58.873 E3.84364 F360.000
G1 X99.951 Y58.627 E3.86555 F360.000
G1 X100.196 Y58.873 E3.87645 F360.000
G1 X100.848 Y58.627 E3.89836 F360.000
G1 X101.094 Y58.873 E3.90926 F360.000
G1 X101.746 Y58.627 E3.93117 F360.000
G1 X101.991 Y58.873 E3.94207 F360.000
G1 X102.644 Y58.627 E3.96398 F360.000
G1 X102.889 Y58.873 E3.97488 F360.000
G1 X103.541 Y58.627 E3.99679 F360.000
G1 X103.787 Y58.873 E4.00769 F360.000
G1 X104.439 Y58.627 E4.02959 F360.000
G1 X104.684 Y58.873 E4.04050 F360.000
G1 X105.337 Y58.627 E4.06240 F360.000
G1 X105.582 Y58.873 E4.07331 F360.000
G1 X106.234 Y58.627 E4.09521 F360.000
G1 X106.480 Y58.873 E4.10612 F360.000
G1 X107.132 Y58.627 E4.12802 F360.000
G1 X107.377 Y58.873 E4.13893 F360.000
G1 X108.030 Y58.627 E4.16083 F360.000
G1 X108.275 Y58.873 E4.17174 F360.000
G1 X108.927 Y58.627 E4.19364 F360.000
G1 X108.947 Y58.647 E4.19453 F360.000
G1 X111.053 Y58.853 F7800.000
G1 X111.777 Y58.627 E4.21977 F360.000
G1 X112.023 Y58.873 E4.23131 F360.000
G1 X112.727 Y58.627 E4.25613 F360.000
G1 X112.973 Y58.873 E4.26767 F360.000
G1 X113.677 Y58.627 E4.29249 F360.000
G1 X113.923 Y58.873 E4.30403 F360.000
G1 X114.627 Y58.627 E4.32885 F360.000
G1 X114.873 Y58.873 E4.34039 F360.000
G1 X115.577 Y58.627 E4.36521 F360.000
G1 X115.823 Y58.873 E4.37675 F360.000
G1 X116.527 Y58.627 E4.40157 F360.000
G1 X116.773 Y58.873 E4.41311 F360.000
G1 X117.477 Y58.627 E4.43792 F360.000
G1 X117.723 Y58.873 E4.44946 F360.000
G1 X118.427 Y58.627 E4.47428 F360.000
G1 X118.673 Y58.873 E4.48582 F360.000
G1 X119.377 Y58.627 E4.51064 F360.000
G1 X119.623 Y58.873 E4.52218 F360.000
G1 X120.327 Y58.627 E4.54700 F360.000
G1 X120.573 Y58.873 E4.55854 F360.000
G1 X121.277 Y58.627 E4.58336 F360.000
G1 X121.523 Y58.873 E4.59490 F360.000
G1 X122.227 Y58.627 E4.61972 F360.000
G1 X122.473 Y58.873 E4.63126 F360.000
G1 X123.177 Y58.627 E4.65608 F360.000
G1 X123.197 Y58.647 E4.65702 F360.000
G1 X111.073 Y58.873 F7800.000
G1 X111.053 Y58.853 E4.65796 F360.000
G1 X70.573 Y58.873 F7800.000
G1 X70.553 Y58.853 E4.65885 F360.000
G1 F1800.000 E3.65885
G92 E0
G1 X70.502 Y131.127 F7800.000
G1 E1.00000 F1800.000
G1 X70.748 Y131.373 E1.01192 F360.000
G1 X71.484 Y131.127 E1.03857 F360.000
G1 X71.729 Y131.373 E1.05049 F360.000
G1 X72.465 Y131.127 E1.07714 F360.000
G1 X72.710 Y131.373 E1.08906 F360.000
G1 X73.446 Y131.127 E1.11571 F360.000
G1 X73.691 Y131.373 E1.12763 F360.000
G1 X74.427 Y131.127 E1.15428 F360.000
G1 X74.447 Y131.147 E1.15526 F360.000
G1 X76.553 Y131.353 F7800.000
G1 X77.232 Y131.127 E1.17794 F360.000
G1 X77.478 Y131.373 E1.18893 F360.000
G1 X78.137 Y131.127 E1.21122 F360.000
G1 X78.382 Y131.373 E1.22222 F360.000
G1 X79.042 Y131.127 E1.24451 F360.000
G1 X79.287 Y131.373 E1.25550 F360.000
G1 X79.947 Y131.127 E1.27780 F360.000
G1 X80.192 Y131.373 E1.28879 F360.000
G1 X80.852 Y131.127 E1.31108 F360.000
G1 X81.097 Y131.373 E1.32208 F360.000
G1 X81.757 Y131.127 E1.34437 F360.000
G1 X82.002 Y131.373 E1.35536 F360.000
G1 X82.661 Y131.127 E1.37766 F360.000
G1 X82.907 Y131.373 E1.38865 F360.000
G1 X83.566 Y131.127 E1.41094 F360.000
G1 X83.812 Y131.373 E1.42194 F360.000
G1 X84.471 Y131.127 E1.44423 F360.000
G1 X84.717 Y131.373 E1.45522 F360.000
G1 X85.376 Y131.127 E1.47752 F360.000
G1 X85.621 Y131.373 E1.48851 F360.000
G1 X86.281 Y131.127 E1.51080 F360.000
G1 X86.526 Y131.373 E1.52180 F360.000
G1 X87.186 Y131.127 E1.54409 F360.000
G1 X87.431 Y131.373 E1.55508 F360.000
G1 X88.091 Y131.127 E1.57738 F360.000
G1 X88.336 Y131.373 E1.58837 F360.000
G1 X88.996 Y131.127 E1.61066 F360.000
G1 X89.241 Y131.373 E1.62166 F360.000
G1 X89.901 Y131.127 E1.64395 F360.000
G1 X90.146 Y131.373 E1.65494 F360.000
G1 X90.805 Y131.127 E1.67724 F360.000
G1 X91.051 Y131.373 E1.68823 F360.000
G1 X91.710 Y131.127 E1.71052 F360.000
G1 X91.956 Y131.373 E1.72152 F360.000
G1 X92.615 Y131.127 E1.74381 F360.000
G1 X92.860 Y131.373 E1.75480 F360.000
G1 X93.520 Y131.127 E1.77710 F360.000
G1 X93.765 Y131.373 E1.78809 F360.000
G1 X94.425 Y131.127 E1.81038 F360.000
G1 X94.670 Y131.373 E1.82138 F360.000
G1 X95.330 Y131.127 E1.84367 F360.000
G1 X95.575 Y131.373 E1.85466 F360.000
G1 X96.235 Y131.127 E1.87696 F360.000
G1 X96.480 Y131.373 E1.88795 F360.000
G1 X97.140 Y131.127 E1.91024 F360.000
G1 X97.385 Y131.373 E1.92124 F360.000
G1 X98.044 Y131.127 E1.94353 F360.000
G1 X98.290 Y131.373 E1.95452 F360.000
G1 X98.949 Y131.127 E1.97682 F360.000
G1 X99.195 Y131.373 E1.98781 F360.000
G1 X99.854 Y131.127 E2.01010 F360.000
G1 X100.100 Y131.373 E2.02109 F360.000
G1 X100.759 Y131.127 E2.04339 F360.000
G1 X101.004 Y131.373 E2.05438 F360.000
G1 X101.664 Y131.127 E2.07668 F360.000
G1 X101.909 Y131.373 E2.08767 F360.000
G1 X102.569 Y131.127 E2.10996 F360.000
G1 X102.814 Y131.373 E2.12095 F360.000
G1 X103.474 Y131.127 E2.14325 F360.000
G1 X103.719 Y131.373 E2.15424 F360.000
G1 X104.379 Y131.127 E2.17654 F360.000
G1 X104.624 Y131.373 E2.18753 F360.000
G1 X105.283 Y131.127 E2.20982 F360.000
G1 X105.529 Y131.373 E2.22081 F360.000
G1 X106.188 Y131.127 E2.24311 F360.000
G1 X106.434 Y131.373 E2.25410 F360.000
G1 X107.093 Y131.127 E2.27640 F360.000
G1 X107.339 Y131.373 E2.28739 F360.000
G1 X107.998 Y131.127 E2.30968 F360.000
G1 X108.243 Y131.373 E2.32067 F360.000
G1 X108.903 Y131.127 E2.34297 F360.000
G1 X109.148 Y131.373 E2.35396 F360.000
G1 X109.808 Y131.127 E2.37626 F360.000
G1 X110.053 Y131.373 E2.38725 F360.000
G1 X110.713 Y131.127 E2.40954 F360.000
G1 X110.958 Y131.373 E2.42053 F360.000
G1 X111.618 Y131.127 E2.44283 F360.000
G1 X111.863 Y131.373 E2.45382 F360.000
G1 X112.522 Y131.127 E2.47612 F360.000
G1 X112.768 Y131.373 E2.48711 F360.000
G1 X113.427 Y131.127 E2.50940 F360.000
G1 X113.447 Y131.147 E2.51030 F360.000
G1 X115.553 Y131.353 F7800.000
G1 X116.309 Y131.127 E2.53740 F360.000
G1 X116.554 Y131.373 E2.54932 F360.000
G1 X117.290 Y131.127 E2.57597 F360.000
G1 X117.535 Y131.373 E2.58789 F360.000
G1 X118.271 Y131.127 E2.61454 F360.000
G1 X118.516 Y131.373 E2.62646 F360.000
G1 X119.252 Y131.127 E2.65311 F360.000
G1 X119.498 Y131.373 E2.66503 F360.000
G1 X120.234 Y131.127 E2.69168 F360.000
G1 X120.479 Y131.373 E2.70360 F360.000
G1 X121.215 Y131.127 E2.73025 F360.000
G1 X121.460 Y131.373 E2.74217 F360.000
G1 X122.196 Y131.127 E2.76882 F360.000
G1 X122.441 Y131.373 E2.78074 F360.000
G1 X123.177 Y131.127 E2.80739 F360.000
G1 X123.197 Y131.147 E2.80836 F360.000
G1 X115.573 Y131.373 F7800.000
G1 X115.553 Y131.353 E2.80934 F360.000
G1 X76.573 Y131.373 F7800.000
G1 X76.553 Y131.353 E2.81023 F360.000
G1 X70.502 Y131.127 F7800.000
G1 X69.766 Y131.373 E2.83688 F360.000
G1 X69.521 Y131.127 E2.84880 F360.000
G1 X68.785 Y131.373 E2.87545 F360.000
G1 X68.540 Y131.127 E2.88737 F360.000
G1 X67.804 Y131.373 E2.91403 F360.000
G1 X67.559 Y131.127 E2.92595 F360.000
G1 X66.803 Y131.353 E2.95305 F360.000
G1 X66.823 Y131.373 E2.95402 F360.000
G1 F1800.000 E1.95402
G92 E0
G1 Z0.600 F7800.000
G1 X66.875 Y130.375 F7800.000
G1 E1.00000 F1800.000
G1 X66.875 Y69.125 E1.75820 F3000
G1 X70.625 Y69.125 E1.80462
G1 X70.625 Y59.625 E1.92221
G1 X108.875 Y59.625 E2.39570
G1 X108.875 Y69.125 E2.51330
G1 X111.125 Y69.125 E2.54115
G1 X111.125 Y59.625 E2.65875
G1 X123.125 Y59.625 E2.80729
G1 X123.125 Y130.375 E3.68309
G1 X115.625 Y130.375 E3.77593
G1 X115.625 Y120.875 E3.89353
G1 X113.375 Y120.875 E3.92138
G1 X113.375 Y130.375 E4.03898
G1 X76.625 Y130.375 E4.49389
G1 X76.625 Y120.875 E4.61149
G1 X74.375 Y120.875 E4.63934
G1 X74.375 Y130.375 E4.75694
G1 X66.927 Y130.375 E4.84913
G1 X67.225 Y130.025 F7800.000
G1 X67.225 Y69.475 E5.59866 F3000
G1 X70.975 Y69.475 E5.64508
G1 X70.975 Y59.975 E5.76268
G1 X108.525 Y59.975 E6.22750
G1 X108.525 Y69.475 E6.34510
G1 X111.475 Y69.475 E6.38162
G1 X111.475 Y59.975 E6.49921
G1 X122.775 Y59.975 E6.63909
G1 X122.775 Y130.025 E7.50622
G1 X115.975 Y130.025 E7.59040
G1 X115.975 Y120.525 E7.70800
G1 X113.025 Y120.525 E7.74451
G1 X113.025 Y130.025 E7.86211
G1 X76.975 Y130.025 E8.30836
G1 X76.975 Y120.525 E8.42596
G1 X74.025 Y120.525 E8.46248
G1 X74.025 Y130.025 E8.58008
G1 X67.278 Y130.025 E8.66360
G1 X67.575 Y129.675 F7800.000
G1 X67.575 Y69.825 E9.40447 F2100
G1 X71.325 Y69.825 E9.45089
G1 X71.325 Y60.325 E9.56849
G1 X108.175 Y60.325 E10.02464
G1 X108.175 Y69.825 E10.14224
G1 X111.825 Y69.825 E10.18742
G1 X111.825 Y60.325 E10.30502
G1 X122.425 Y60.325 E10.43623
G1 X122.425 Y129.675 E11.29470
G1 X116.325 Y129.675 E11.37021
G1 X116.325 Y120.175 E11.48781
G1 X112.675 Y120.175 E11.53299
G1 X112.675 Y129.675 E11.65059
G1 X77.325 Y129.675 E12.08817
