; generated by Slic3r 1.0.0RC3 on 2014-04-17 at 21:30:07

; layer_height = 0.25
; perimeters = 3
; top_solid_layers = 3
; bottom_solid_layers = 3
; fill_density = 0.2
; perimeter_speed = 50
; infill_speed = 70
; travel_speed = 130
; nozzle_diameter = 0.35
; filament_diameter = 3
; extrusion_multiplier = 1
; perimeters extrusion width = 0.35mm
; infill extrusion width = 0.39mm
; solid infill extrusion width = 0.39mm
; top infill extrusion width = 0.39mm
; first layer extrusion width = 0.70mm

G21 ; set units to millimeters
M107
G28 ; home all axes
G90 ; use absolute coordinates
G92 E0
M82 ; use absolute distances for extrusion
G1 F1800.000 E-1.00000
G1 Z1.350 F7800.000
G92 E0
G1 X15.320 Y15.320 F7800.000
G1 Z0.350 F7800.000
G1 E1.00000 F1800.000
G1 X16.320 Y14.490 E1.04021 F900.000
G1 X17.460 Y13.880 E1.08022
G1 X18.710 Y13.500 E1.12064
G1 X20.000 Y13.380 E1.16073
G1 X170.000 Y13.380 E5.80192
G1 X171.290 Y13.500 E5.84201
G1 X172.540 Y13.880 E5.88244
G1 X173.680 Y14.490 E5.92244
G1 X174.680 Y15.320 E5.96265
G1 X175.510 Y16.320 E6.00286
G1 X176.120 Y17.460 E6.04287
G1 X176.500 Y18.710 E6.08329
G1 X176.620 Y20.000 E6.12338
G1 X176.620 Y170.000 E10.76458
G1 X176.500 Y171.290 E10.80466
G1 X176.120 Y172.540 E10.84509
G1 X175.510 Y173.680 E10.88509
G1 X174.680 Y174.680 E10.92530
G1 X173.680 Y175.510 E10.96551
G1 X172.540 Y176.120 E11.00552
G1 X171.290 Y176.500 E11.04594
G1 X170.000 Y176.620 E11.08603
G1 X20.000 Y176.620 E15.72723
G1 X18.710 Y176.500 E15.76731
G1 X17.460 Y176.120 E15.80774
G1 X16.320 Y175.510 E15.84774
G1 X15.320 Y174.680 E15.88795
G1 X14.490 Y173.680 E15.92816
G1 X13.880 Y172.540 E15.96817
G1 X13.500 Y171.290 E16.00859
G1 X13.380 Y170.000 E16.04868
G1 X13.380 Y20.000 E20.68988
G1 X13.500 Y18.710 E20.72996
G1 X13.880 Y17.460 E20.77039
G1 X14.490 Y16.320 E20.81039
G1 X15.260 Y15.392 E20.84770
G1 F1800.000 E19.84770
G1 Z1.350 F7800.000
G92 E0
G1 X17.813 Y19.094 F7800.000
G1 Z0.350 F7800.000
G1 E1.00000 F1800.000
G1 X19.094 Y17.813 E1.05606 F900.000
G1 X170.906 Y17.813 E5.75332
G1 X172.187 Y19.094 E5.80938
G1 X172.187 Y170.906 E10.50664
G1 X170.906 Y172.187 E10.56270
G1 X19.094 Y172.187 E15.25996
G1 X17.813 Y170.906 E15.31602
G1 X17.813 Y19.188 E20.01038
G1 X18.438 Y19.353 F7800.000
G1 X19.353 Y18.438 E20.05042 F900.000
G1 X170.647 Y18.438 E24.73167
G1 X171.562 Y19.353 E24.77171
G1 X171.562 Y170.647 E29.45295
G1 X170.647 Y171.562 E29.49299
G1 X19.353 Y171.562 E34.17424
G1 X18.438 Y170.647 E34.21428
G1 X18.438 Y19.447 E38.89262
G1 X19.063 Y19.612 F7800.000
G1 X19.612 Y19.063 E38.91665 F900.000
G1 X170.388 Y19.063 E43.58187
G1 X170.937 Y19.612 E43.60590
G1 X170.937 Y170.388 E48.27112
G1 X170.388 Y170.937 E48.29515
G1 X19.612 Y170.937 E52.96037
G1 X19.063 Y170.388 E52.98440
G1 X19.063 Y19.705 E57.64672
G1 X19.688 Y19.871 F7800.000
G1 X19.871 Y19.688 E57.65473 F900.000
G1 X170.129 Y19.688 E62.30394
G1 X170.312 Y19.871 E62.31194
G1 X170.312 Y170.129 E66.96115
G1 X170.129 Y170.312 E66.96916
G1 X19.871 Y170.312 E71.61837
G1 X19.688 Y170.129 E71.62637
G1 X19.688 Y19.964 E76.27268
G1 X20.350 Y20.350 F7800.000
G1 X169.650 Y20.350 E80.89222 F630.000
G1 X169.650 Y169.650 E85.51176
G1 X20.350 Y169.650 E90.13130
G1 X20.350 Y20.444 E94.74793
G1 X20.891 Y20.662 F7800.000
G1 X20.975 Y20.975 F7800.000
G1 X169.025 Y20.975 E99.32880 F900.000
G1 X169.025 Y169.025 E103.90967
G1 X20.975 Y169.025 E108.49054
G1 X20.975 Y21.069 E113.06851
G1 X21.600 Y21.600 F7800.000
G1 X168.400 Y21.600 E117.61071 F900.000
G1 X168.400 Y168.400 E122.15291
G1 X21.600 Y168.400 E126.69511
G1 X21.600 Y21.694 E131.23440
G1 X22.063 Y167.957 F7800.000
G1 X22.043 Y167.937 E131.23528 F1080.000
G1 X22.043 Y167.053 E131.26265
G1 X22.947 Y167.957 E131.30224
G1 X23.831 Y167.957 E131.32961
G1 X22.043 Y166.169 E131.40791
G1 X22.043 Y165.285 E131.43529
G1 X24.715 Y167.957 E131.55230
G1 X25.600 Y167.957 E131.57967
G1 X22.043 Y164.400 E131.73540
G1 X22.043 Y163.516 E131.76277
G1 X26.484 Y167.957 E131.95721
G1 X27.368 Y167.957 E131.98458
G1 X22.043 Y162.632 E132.21773
G1 X22.043 Y161.748 E132.24510
G1 X28.252 Y167.957 E132.51696
G1 X29.136 Y167.957 E132.54433
G1 X22.043 Y160.864 E132.85490
G1 X22.043 Y159.979 E132.88228
G1 X30.021 Y167.957 E133.23156
G1 X30.905 Y167.957 E133.25894
G1 X22.043 Y159.095 E133.64693
G1 X22.043 Y158.211 E133.67430
G1 X31.789 Y167.957 E134.10101
G1 X32.673 Y167.957 E134.12839
G1 X22.043 Y157.327 E134.59380
G1 X22.043 Y156.442 E134.62118
G1 X33.558 Y167.957 E135.12531
G1 X34.442 Y167.957 E135.15268
G1 X22.043 Y155.558 E135.69553
G1 X22.043 Y154.674 E135.72290
G1 X35.326 Y167.957 E136.30446
G1 X36.210 Y167.957 E136.33183
G1 X22.043 Y153.790 E136.95210
G1 X22.043 Y152.906 E136.97947
G1 X37.094 Y167.957 E137.63845
G1 X37.979 Y167.957 E137.66582
G1 X22.043 Y152.021 E138.36351
G1 X22.043 Y151.137 E138.39089
G1 X38.863 Y167.957 E139.12729
G1 X39.747 Y167.957 E139.15467
G1 X22.043 Y150.253 E139.92978
G1 X22.043 Y149.369 E139.95715
G1 X40.631 Y167.957 E140.77098
G1 X41.515 Y167.957 E140.79836
G1 X22.043 Y148.485 E141.65089
G1 X22.043 Y147.600 E141.67827
G1 X42.400 Y167.957 E142.56952
G1 X43.284 Y167.957 E142.59689
G1 X22.043 Y146.716 E143.52686
G1 X22.043 Y145.832 E143.55423
G1 X44.168 Y167.957 E144.52291
G1 X45.052 Y167.957 E144.55028
G1 X22.043 Y144.948 E145.55767
G1 X22.043 Y144.064 E145.58504
G1 X45.936 Y167.957 E146.63114
G1 X46.821 Y167.957 E146.65851
G1 X22.043 Y143.179 E147.74332
G1 X22.043 Y142.295 E147.77070
G1 X47.705 Y167.957 E148.89422
G1 X48.589 Y167.957 E148.92159
G1 X22.043 Y141.411 E150.08383
G1 X22.043 Y140.527 E150.11120
G1 X49.473 Y167.957 E151.31215
G1 X50.357 Y167.957 E151.33952
G1 X22.043 Y139.643 E152.57918
G1 X22.043 Y138.758 E152.60656
G1 X51.242 Y167.957 E153.88493
G1 X52.126 Y167.957 E153.91230
G1 X22.043 Y137.874 E155.22938
G1 X22.043 Y136.990 E155.25676
G1 X53.010 Y167.957 E156.61255
G1 X53.894 Y167.957 E156.63993
G1 X22.043 Y136.106 E158.03443
G1 X22.043 Y135.221 E158.06181
G1 X54.779 Y167.957 E159.49503
G1 X55.663 Y167.957 E159.52240
G1 X22.043 Y134.337 E160.99433
G1 X22.043 Y133.453 E161.02170
G1 X56.547 Y167.957 E162.53235
G1 X57.431 Y167.957 E162.55972
G1 X22.043 Y132.569 E164.10908
G1 X22.043 Y131.685 E164.13645
G1 X58.315 Y167.957 E165.72452
G1 X59.200 Y167.957 E165.75189
G1 X22.043 Y130.800 E167.37867
G1 X22.043 Y129.916 E167.40604
G1 X60.084 Y167.957 E169.07153
G1 X60.968 Y167.957 E169.09891
G1 X22.043 Y129.032 E170.80311
G1 X22.043 Y128.148 E170.83048
G1 X61.852 Y167.957 E172.57340
G1 X62.736 Y167.957 E172.60077
G1 X22.043 Y127.264 E174.38240
G1 X22.043 Y126.379 E174.40977
G1 X63.621 Y167.957 E176.23011
G1 X64.505 Y167.957 E176.25749
G1 X22.043 Y125.495 E178.11654
G1 X22.043 Y124.611 E178.14391
G1 X65.389 Y167.957 E180.04167
G1 X66.273 Y167.957 E180.06905
G1 X22.043 Y123.727 E182.00552
G1 X22.043 Y122.843 E182.03290
G1 X67.157 Y167.957 E184.00808
G1 X68.042 Y167.957 E184.03546
G1 X22.043 Y121.958 E186.04936
G1 X22.043 Y121.074 E186.07673
G1 X68.926 Y167.957 E188.12934
G1 X69.810 Y167.957 E188.15671
G1 X22.043 Y120.190 E190.24804
G1 X22.043 Y119.306 E190.27541
G1 X70.694 Y167.957 E192.40544
G1 X71.579 Y167.957 E192.43282
G1 X22.043 Y118.421 E194.60157
G1 X22.043 Y117.537 E194.62894
G1 X72.463 Y167.957 E196.83640
G1 X73.347 Y167.957 E196.86377
G1 X22.043 Y116.653 E199.10994
G1 X22.043 Y115.769 E199.13732
G1 X74.231 Y167.957 E201.42220
G1 X75.115 Y167.957 E201.44957
G1 X22.043 Y114.885 E203.77317
G1 X22.043 Y114.000 E203.80054
G1 X76.000 Y167.957 E206.16285
G1 X76.884 Y167.957 E206.19022
G1 X22.043 Y113.116 E208.59124
G1 X22.043 Y112.232 E208.61861
G1 X77.768 Y167.957 E211.05834
G1 X78.652 Y167.957 E211.08572
G1 X22.043 Y111.348 E213.56416
G1 X22.043 Y110.464 E213.59153
G1 X79.536 Y167.957 E216.10869
G1 X80.421 Y167.957 E216.13606
G1 X22.043 Y109.579 E218.69193
G1 X22.043 Y108.695 E218.71930
G1 X81.305 Y167.957 E221.31388
G1 X82.189 Y167.957 E221.34125
G1 X22.043 Y107.811 E223.97455
G1 X22.043 Y106.927 E224.00192
G1 X83.073 Y167.957 E226.67392
G1 X83.957 Y167.957 E226.70130
G1 X22.043 Y106.043 E229.41201
G1 X22.043 Y105.158 E229.43938
G1 X84.842 Y167.957 E232.18881
G1 X85.726 Y167.957 E232.21618
G1 X22.043 Y104.274 E235.00432
G1 X22.043 Y103.390 E235.03170
G1 X86.610 Y167.957 E237.85855
G1 X87.494 Y167.957 E237.88592
G1 X22.043 Y102.506 E240.75148
G1 X22.043 Y101.622 E240.77886
G1 X88.378 Y167.957 E243.68313
G1 X89.263 Y167.957 E243.71050
G1 X22.043 Y100.737 E246.65349
G1 X22.043 Y99.853 E246.68086
G1 X90.147 Y167.957 E249.66256
G1 X91.031 Y167.957 E249.68994
G1 X22.043 Y98.969 E252.71035
G1 X22.043 Y98.085 E252.73772
G1 X91.915 Y167.957 E255.79684
G1 X92.800 Y167.957 E255.82422
G1 X22.043 Y97.200 E258.92205
G1 X22.043 Y96.316 E258.94943
G1 X93.684 Y167.957 E262.08597
G1 X94.568 Y167.957 E262.11335
G1 X22.043 Y95.432 E265.28860
G1 X22.043 Y94.548 E265.31598
G1 X95.452 Y167.957 E268.52995
G1 X96.336 Y167.957 E268.55732
G1 X22.043 Y93.664 E271.81000
G1 X22.043 Y92.779 E271.83738
G1 X97.221 Y167.957 E275.12877
G1 X98.105 Y167.957 E275.15615
G1 X22.043 Y91.895 E278.48625
G1 X22.043 Y91.011 E278.51363
G1 X98.989 Y167.957 E281.88244
G1 X99.873 Y167.957 E281.90982
G1 X22.043 Y90.127 E285.31735
G1 X22.043 Y89.243 E285.34472
G1 X100.757 Y167.957 E288.79096
G1 X101.642 Y167.957 E288.81834
G1 X22.043 Y88.358 E292.30329
G1 X22.043 Y87.474 E292.33067
G1 X102.526 Y167.957 E295.85433
G1 X103.410 Y167.957 E295.88171
G1 X22.043 Y86.590 E299.44408
G1 X22.043 Y85.706 E299.47146
G1 X104.294 Y167.957 E303.07255
G1 X105.178 Y167.957 E303.09992
G1 X22.043 Y84.822 E306.73972
G1 X22.043 Y83.937 E306.76710
G1 X106.063 Y167.957 E310.44561
G1 X106.947 Y167.957 E310.47299
G1 X22.043 Y83.053 E314.19021
G1 X22.043 Y82.169 E314.21759
G1 X107.831 Y167.957 E317.97352
G1 X108.715 Y167.957 E318.00090
G1 X22.043 Y81.285 E321.79555
G1 X22.043 Y80.401 E321.82292
G1 X109.599 Y167.957 E325.65628
G1 X110.484 Y167.957 E325.68366
G1 X22.043 Y79.516 E329.55573
G1 X22.043 Y78.632 E329.58310
G1 X111.368 Y167.957 E333.49389
G1 X112.252 Y167.957 E333.52126
G1 X22.043 Y77.748 E337.47076
G1 X22.043 Y76.864 E337.49814
G1 X113.136 Y167.957 E341.48635
G1 X114.021 Y167.957 E341.51372
G1 X22.043 Y75.979 E345.54064
G1 X22.043 Y75.095 E345.56802
G1 X114.905 Y167.957 E349.63365
G1 X115.789 Y167.957 E349.66102
G1 X22.043 Y74.211 E353.76537
G1 X22.043 Y73.327 E353.79274
G1 X116.673 Y167.957 E357.93580
G1 X117.557 Y167.957 E357.96318
G1 X22.043 Y72.443 E362.14495
G1 X22.043 Y71.558 E362.17232
G1 X118.442 Y167.957 E366.39280
G1 X119.326 Y167.957 E366.42017
G1 X22.043 Y70.674 E370.67937
G1 X22.043 Y69.790 E370.70674
G1 X120.210 Y167.957 E375.00465
G1 X121.094 Y167.957 E375.03202
G1 X22.043 Y68.906 E379.36864
G1 X22.043 Y68.022 E379.39601
G1 X121.978 Y167.957 E383.77134
G1 X122.863 Y167.957 E383.79872
G1 X22.043 Y67.137 E388.21276
G1 X22.043 Y66.253 E388.24013
G1 X123.747 Y167.957 E392.69289
G1 X124.631 Y167.957 E392.72026
G1 X22.043 Y65.369 E397.21173
G1 X22.043 Y64.485 E397.23910
G1 X125.515 Y167.957 E401.76928
G1 X126.399 Y167.957 E401.79665
G1 X22.043 Y63.601 E406.36554
G1 X22.043 Y62.716 E406.39292
G1 X127.284 Y167.957 E411.00052
G1 X128.168 Y167.957 E411.02789
G1 X22.043 Y61.832 E415.67421
G1 X22.043 Y60.948 E415.70158
G1 X129.052 Y167.957 E420.38661
G1 X129.936 Y167.957 E420.41398
G1 X22.043 Y60.064 E425.13772
G1 X22.043 Y59.179 E425.16509
G1 X130.821 Y167.957 E429.92754
G1 X131.705 Y167.957 E429.95491
G1 X22.043 Y58.295 E434.75608
G1 X22.043 Y57.411 E434.78345
G1 X132.589 Y167.957 E439.62332
G1 X133.473 Y167.957 E439.65070
G1 X22.043 Y56.527 E444.52928
G1 X22.043 Y55.643 E444.55666
G1 X134.357 Y167.957 E449.47395
G1 X135.242 Y167.957 E449.50133
G1 X22.043 Y54.758 E454.45734
G1 X22.043 Y53.874 E454.48471
G1 X136.126 Y167.957 E459.47943
G1 X137.010 Y167.957 E459.50681
G1 X22.043 Y52.990 E464.54024
G1 X22.043 Y52.106 E464.56761
G1 X137.894 Y167.957 E469.63976
G1 X138.778 Y167.957 E469.66713
G1 X22.043 Y51.222 E474.77799
G1 X22.043 Y50.337 E474.80536
G1 X139.663 Y167.957 E479.95493
G1 X140.547 Y167.957 E479.98231
G1 X22.043 Y49.453 E485.17059
G1 X22.043 Y48.569 E485.19796
G1 X141.431 Y167.957 E490.42496
G1 X142.315 Y167.957 E490.45233
G1 X22.043 Y47.685 E495.71804
G1 X22.043 Y46.801 E495.74541
G1 X143.199 Y167.957 E501.04983
G1 X144.084 Y167.957 E501.07720
G1 X22.043 Y45.916 E506.42033
G1 X22.043 Y45.032 E506.44770
G1 X144.968 Y167.957 E511.82955
G1 X145.852 Y167.957 E511.85692
G1 X22.043 Y44.148 E517.27747
G1 X22.043 Y43.264 E517.30485
G1 X146.736 Y167.957 E522.76411
G1 X147.620 Y167.957 E522.79149
G1 X22.043 Y42.380 E528.28946
G1 X22.043 Y41.495 E528.31684
G1 X148.505 Y167.957 E533.85353
G1 X149.389 Y167.957 E533.88090
G1 X22.043 Y40.611 E539.45630
G1 X22.043 Y39.727 E539.48368
G1 X150.273 Y167.957 E545.09779
G1 X151.157 Y167.957 E545.12516
G1 X22.043 Y38.843 E550.77799
G1 X22.043 Y37.958 E550.80536
G1 X152.042 Y167.957 E556.49690
G1 X152.926 Y167.957 E556.52427
G1 X22.043 Y37.074 E562.25452
G1 X22.043 Y36.190 E562.28190
G1 X153.810 Y167.957 E568.05086
G1 X154.694 Y167.957 E568.07823
G1 X22.043 Y35.306 E573.88591
G1 X22.043 Y34.422 E573.91328
G1 X155.578 Y167.957 E579.75967
G1 X156.463 Y167.957 E579.78704
G1 X22.043 Y33.537 E585.67214
G1 X22.043 Y32.653 E585.69951
G1 X157.347 Y167.957 E591.62332
G1 X158.231 Y167.957 E591.65069
G1 X22.043 Y31.769 E597.61321
G1 X22.043 Y30.885 E597.64059
G1 X159.115 Y167.957 E603.64182
G1 X159.999 Y167.957 E603.66920
G1 X22.043 Y30.001 E609.70914
G1 X22.043 Y29.116 E609.73651
G1 X160.884 Y167.957 E615.81517
G1 X161.768 Y167.957 E615.84255
G1 X22.043 Y28.232 E621.95992
G1 X22.043 Y27.348 E621.98729
G1 X162.652 Y167.957 E628.14337
G1 X163.536 Y167.957 E628.17074
G1 X22.043 Y26.464 E634.36554
G1 X22.043 Y25.580 E634.39291
G1 X164.420 Y167.957 E640.62642
G1 X165.305 Y167.957 E640.65379
G1 X22.043 Y24.695 E646.92601
G1 X22.043 Y23.811 E646.95338
G1 X166.189 Y167.957 E653.26431
G1 X167.073 Y167.957 E653.29168
G1 X22.043 Y22.927 E659.64133
G1 X22.053 Y22.053 E659.66839
G1 X167.947 Y167.947 E666.05586
G1 X167.957 Y167.073 E666.08293
G1 X22.927 Y22.043 E672.43256
G1 X23.811 Y22.043 E672.45994
G1 X167.957 Y166.189 E678.77086
G1 X167.957 Y165.304 E678.79823
G1 X24.696 Y22.043 E685.07044
G1 X25.580 Y22.043 E685.09782
G1 X167.957 Y164.420 E691.33132
G1 X167.957 Y163.536 E691.35869
G1 X26.464 Y22.043 E697.55348
G1 X27.348 Y22.043 E697.58085
G1 X167.957 Y162.652 E703.73692
G1 X167.957 Y161.768 E703.76430
G1 X28.232 Y22.043 E709.88166
G1 X29.117 Y22.043 E709.90903
G1 X167.957 Y160.883 E715.98768
G1 X167.957 Y159.999 E716.01506
G1 X30.001 Y22.043 E722.05499
G1 X30.885 Y22.043 E722.08237
G1 X167.957 Y159.115 E728.08359
G1 X167.957 Y158.231 E728.11097
G1 X31.769 Y22.043 E734.07348
G1 X32.653 Y22.043 E734.10086
G1 X167.957 Y157.347 E740.02466
G1 X167.957 Y156.462 E740.05203
G1 X33.538 Y22.043 E745.93712
G1 X34.422 Y22.043 E745.96450
G1 X167.957 Y155.578 E751.81087
G1 X167.957 Y154.694 E751.83825
G1 X35.306 Y22.043 E757.64591
G1 X36.190 Y22.043 E757.67329
G1 X167.957 Y153.810 E763.44224
G1 X167.957 Y152.926 E763.46962
G1 X37.074 Y22.043 E769.19986
G1 X37.959 Y22.043 E769.22723
G1 X167.957 Y152.041 E774.91876
G1 X167.957 Y151.157 E774.94613
G1 X38.843 Y22.043 E780.59895
G1 X39.727 Y22.043 E780.62633
G1 X167.957 Y150.273 E786.24043
G1 X167.957 Y149.389 E786.26781
G1 X40.611 Y22.043 E791.84320
G1 X41.495 Y22.043 E791.87057
G1 X167.957 Y148.505 E797.40726
G1 X167.957 Y147.620 E797.43463
G1 X42.380 Y22.043 E802.93260
G1 X43.264 Y22.043 E802.95997
G1 X167.957 Y146.736 E808.41923
G1 X167.957 Y145.852 E808.44661
G1 X44.148 Y22.043 E813.86715
G1 X45.032 Y22.043 E813.89453
G1 X167.957 Y144.968 E819.27636
G1 X167.957 Y144.083 E819.30373
G1 X45.917 Y22.043 E824.64686
G1 X46.801 Y22.043 E824.67423
G1 X167.957 Y143.199 E829.97864
G1 X167.957 Y142.315 E830.00601
G1 X47.685 Y22.043 E835.27171
G1 X48.569 Y22.043 E835.29909
G1 X167.957 Y141.431 E840.52607
G1 X167.957 Y140.547 E840.55345
G1 X49.453 Y22.043 E845.74172
G1 X50.338 Y22.043 E845.76909
G1 X167.957 Y139.662 E850.91866
G1 X167.957 Y138.778 E850.94603
G1 X51.222 Y22.043 E856.05688
G1 X52.106 Y22.043 E856.08425
G1 X167.957 Y137.894 E861.15639
G1 X167.957 Y137.010 E861.18377
