; generated by Slic3r 1.0.0RC3 on 2014-04-05 at 02:16:39

; layer_height = 0.25
; perimeters = 3
; top_solid_layers = 3
; bottom_solid_layers = 3
; fill_density = 0.2
; perimeter_speed = 50
; infill_speed = 70
; travel_speed = 130
; nozzle_diameter = 0.35
; filament_diameter = 3
; extrusion_multiplier = 1
; perimeters extrusion width = 0.35mm
; infill extrusion width = 0.39mm
; solid infill extrusion width = 0.39mm
; top infill extrusion width = 0.39mm
; first layer extrusion width = 0.70mm

G21 ; set units to millimeters
M107
G28 ; home all axes
G90 ; use absolute coordinates
G92 E0
M82 ; use absolute distances for extrusion
G1 F1800.000 E-1.00000
G92 E0
G1 Z0.350 F7800.000
G1 X58.930 Y33.690 F7800.000
G1 E1.00000 F1800.000
G1 X59.250 Y33.210 E1.01785 F900.000
G1 X59.620 Y32.710 E1.03710
G1 X60.270 Y31.970 E1.06757
G1 X60.720 Y31.520 E1.08726
G1 X61.290 Y31.010 E1.11093
G1 X61.530 Y30.820 E1.12040
G1 X62.190 Y30.360 E1.14529
G1 X62.730 Y30.030 E1.16487
G1 X63.650 Y29.560 E1.19684
G1 X64.230 Y29.320 E1.21626
G1 X65.180 Y29.010 E1.24718
G1 X66.360 Y28.740 E1.28463
G1 X67.560 Y28.640 E1.32189
G1 X121.990 Y28.630 E3.00603
G1 X123.040 Y28.680 E3.03855
G1 X124.080 Y28.830 E3.07106
G1 X124.390 Y28.900 E3.08090
G1 X124.930 Y29.040 E3.09816
G1 X125.530 Y29.230 E3.11763
G1 X126.540 Y29.650 E3.15148
G1 X127.090 Y29.930 E3.17057
G1 X127.750 Y30.320 E3.19429
G1 X128.460 Y30.820 E3.22116
G1 X128.700 Y31.010 E3.23063
G1 X129.270 Y31.520 E3.25430
G1 X129.720 Y31.970 E3.27399
G1 X130.370 Y32.710 E3.30446
G1 X130.740 Y33.210 E3.32371
G1 X131.250 Y34.020 E3.35333
G1 X131.400 Y34.300 E3.36316
G1 X159.620 Y90.750 E5.31589
G1 X160.010 Y91.710 E5.34795
G1 X160.200 Y92.310 E5.36742
G1 X160.410 Y93.160 E5.39451
G1 X160.550 Y94.100 E5.42392
G1 X160.620 Y95.260 E5.45987
G1 X160.600 Y106.570 E5.80982
G1 X160.570 Y107.200 E5.82934
G1 X160.540 Y107.510 E5.83897
G1 X160.380 Y108.450 E5.86848
G1 X160.230 Y109.060 E5.88791
G1 X160.020 Y109.760 E5.91053
G1 X159.910 Y110.060 E5.92041
G1 X159.590 Y110.790 E5.94507
G1 X159.310 Y111.340 E5.96417
G1 X158.740 Y112.270 E5.99792
G1 X158.220 Y112.950 E6.02441
G1 X157.810 Y113.420 E6.04371
G1 X157.170 Y114.080 E6.07215
G1 X106.990 Y158.740 E8.15065
G1 X106.480 Y159.150 E8.17090
G1 X105.970 Y159.520 E8.19039
G1 X105.090 Y160.060 E8.22234
G1 X104.540 Y160.340 E8.24143
G1 X103.530 Y160.760 E8.27528
G1 X102.930 Y160.950 E8.29475
G1 X102.080 Y161.160 E8.32184
G1 X101.150 Y161.300 E8.35094
G1 X100.530 Y161.350 E8.37019
G1 X99.990 Y161.370 E8.38691
G1 X89.670 Y161.350 E8.70622
G1 X89.040 Y161.320 E8.72574
G1 X88.730 Y161.290 E8.73538
G1 X87.790 Y161.130 E8.76488
G1 X87.180 Y160.980 E8.78432
G1 X86.480 Y160.770 E8.80693
G1 X86.180 Y160.660 E8.81681
G1 X85.450 Y160.340 E8.84148
G1 X84.900 Y160.060 E8.86057
G1 X83.970 Y159.490 E8.89432
G1 X83.290 Y158.970 E8.92081
G1 X82.770 Y158.520 E8.94209
G1 X33.000 Y114.240 E11.00329
G1 X32.270 Y113.520 E11.03502
G1 X31.590 Y112.730 E11.06727
G1 X31.220 Y112.220 E11.08677
G1 X30.680 Y111.340 E11.11871
G1 X30.400 Y110.790 E11.13781
G1 X29.980 Y109.780 E11.17165
G1 X29.790 Y109.180 E11.19113
G1 X29.570 Y108.280 E11.21979
G1 X29.430 Y107.290 E11.25073
G1 X29.390 Y106.680 E11.26964
G1 X29.390 Y94.920 E11.63351
G1 X29.450 Y93.980 E11.66266
G1 X29.610 Y93.040 E11.69216
G1 X29.760 Y92.430 E11.71160
G1 X29.970 Y91.730 E11.73421
G1 X30.080 Y91.430 E11.74410
G1 X30.370 Y90.750 E11.76697
G1 X58.650 Y34.190 E13.72358
G1 X58.884 Y33.772 E13.73841
G1 F1800.000 E12.73841
G92 E0
G1 X138.300 Y95.550 F7800.000
G1 E1.00000 F1800.000
G1 X149.700 Y95.550 E1.35272 F900.000
G1 X149.700 Y105.950 E1.67449
G1 X138.300 Y105.950 E2.02721
G1 X138.300 Y95.644 E2.34609
G1 X138.925 Y96.175 F7800.000
G1 X149.075 Y96.175 E2.66013 F540.000
G1 X149.075 Y105.325 E2.94324
G1 X138.925 Y105.325 E3.25729
G1 X138.925 Y96.269 E3.53749
G1 X139.550 Y96.800 F7800.000
G1 X148.450 Y96.800 E3.81287 F540.000
G1 X148.450 Y104.700 E4.05731
G1 X139.550 Y104.700 E4.33269
G1 X139.550 Y96.894 E4.57422
G1 X139.550 Y96.175 F7800.000
G1 X125.700 Y95.550 F7800.000
G1 X125.700 Y105.950 E4.89600 F900.000
G1 X114.300 Y105.950 E5.24872
G1 X114.300 Y95.550 E5.57049
G1 X125.606 Y95.550 E5.92031
G1 X125.075 Y96.175 F7800.000
G1 X125.075 Y105.325 E6.20341 F540.000
G1 X114.925 Y105.325 E6.51746
G1 X114.925 Y96.175 E6.80057
G1 X124.981 Y96.175 E7.11172
G1 X124.450 Y96.800 F7800.000
G1 X124.450 Y104.700 E7.35615 F540.000
G1 X115.550 Y104.700 E7.63153
G1 X115.550 Y96.800 E7.87597
G1 X124.356 Y96.800 E8.14844
G1 X125.075 Y96.800 F7800.000
G1 X100.700 Y95.550 F7800.000
G1 X100.700 Y105.950 E8.47022 F900.000
G1 X89.300 Y105.950 E8.82294
G1 X89.300 Y95.550 E9.14471
G1 X100.606 Y95.550 E9.49453
G1 X100.075 Y96.175 F7800.000
G1 X100.075 Y105.325 E9.77764 F540.000
G1 X89.925 Y105.325 E10.09168
G1 X89.925 Y96.175 E10.37479
G1 X99.981 Y96.175 E10.68594
G1 X99.450 Y96.800 F7800.000
G1 X99.450 Y104.700 E10.93037 F540.000
G1 X90.550 Y104.700 E11.20575
G1 X90.550 Y96.800 E11.45019
G1 X99.356 Y96.800 E11.72266
G1 X100.075 Y96.800 F7800.000
G1 X75.700 Y95.550 F7800.000
G1 X75.700 Y105.950 E12.04444 F900.000
G1 X64.300 Y105.950 E12.39716
G1 X64.300 Y95.550 E12.71893
G1 X75.606 Y95.550 E13.06875
G1 X75.075 Y96.175 F7800.000
G1 X75.075 Y105.325 E13.35186 F540.000
G1 X64.925 Y105.325 E13.66590
G1 X64.925 Y96.175 E13.94901
G1 X74.981 Y96.175 E14.26016
G1 X74.450 Y96.800 F7800.000
G1 X74.450 Y104.700 E14.50459 F540.000
G1 X65.550 Y104.700 E14.77997
G1 X65.550 Y96.800 E15.02441
G1 X74.356 Y96.800 E15.29689
G1 X75.075 Y96.800 F7800.000
G1 X51.700 Y95.550 F7800.000
G1 X51.700 Y105.950 E15.61866 F900.000
G1 X40.300 Y105.950 E15.97138
G1 X40.300 Y95.550 E16.29316
G1 X51.606 Y95.550 E16.64297
G1 X51.075 Y96.175 F7800.000
G1 X51.075 Y105.325 E16.92608 F540.000
G1 X40.925 Y105.325 E17.24013
G1 X40.925 Y96.175 E17.52323
G1 X50.981 Y96.175 E17.83438
G1 X50.450 Y96.800 F7800.000
G1 X50.450 Y104.700 E18.07882 F540.000
G1 X41.550 Y104.700 E18.35419
G1 X41.550 Y96.800 E18.59863
G1 X50.356 Y96.800 E18.87111
G1 X51.075 Y96.800 F7800.000
G1 F1800.000 E17.87111
G92 E0
G1 X91.525 Y109.275 F7800.000
G1 E1.00000 F1800.000
G1 X98.475 Y109.275 E1.21504 F900.000
G1 X98.475 Y136.725 E2.06437
G1 X95.333 Y136.725 E2.16158
G1 X95.279 Y137.116 E2.17380
G1 X96.105 Y137.349 E2.20036
G1 X96.623 Y137.564 E2.21772
G1 X96.868 Y137.701 E2.22641
G1 X97.322 Y138.031 E2.24377
G1 X97.719 Y138.428 E2.26113
G1 X97.893 Y138.648 E2.26982
G1 X98.165 Y139.089 E2.28584
G1 X98.303 Y139.382 E2.29587
G1 X98.401 Y139.645 E2.30455
G1 X98.477 Y139.915 E2.31323
G1 X98.565 Y140.469 E2.33059
G1 X98.565 Y141.031 E2.34796
G1 X98.477 Y141.585 E2.36532
G1 X98.303 Y142.118 E2.38268
G1 X98.186 Y142.373 E2.39137
G1 X97.893 Y142.852 E2.40873
G1 X97.528 Y143.278 E2.42609
G1 X97.322 Y143.469 E2.43478
G1 X96.868 Y143.799 E2.45214
G1 X96.368 Y144.054 E2.46950
G1 X95.835 Y144.227 E2.48686
G1 X95.015 Y144.390 E2.51271
G1 X95.015 Y144.702 E2.52238
G1 X95.928 Y144.884 E2.55119
G1 X96.229 Y144.969 E2.56084
G1 X96.805 Y145.208 E2.58014
G1 X97.337 Y145.534 E2.59945
G1 X97.811 Y145.939 E2.61875
G1 X98.023 Y146.168 E2.62841
G1 X98.390 Y146.673 E2.64771
G1 X98.655 Y147.188 E2.66565
G1 X98.781 Y147.521 E2.67667
G1 X98.866 Y147.822 E2.68633
G1 X98.963 Y148.438 E2.70563
G1 X98.963 Y149.062 E2.72494
G1 X98.866 Y149.678 E2.74424
G1 X98.781 Y149.979 E2.75390
G1 X98.542 Y150.555 E2.77320
G1 X98.216 Y151.087 E2.79251
G1 X97.811 Y151.561 E2.81181
G1 X97.337 Y151.966 E2.83111
G1 X96.805 Y152.292 E2.85041
G1 X96.229 Y152.531 E2.86971
G1 X95.622 Y152.677 E2.88902
G1 X95.312 Y152.713 E2.89868
G1 X94.688 Y152.713 E2.91798
G1 X94.378 Y152.677 E2.92764
G1 X93.771 Y152.531 E2.94694
G1 X93.195 Y152.292 E2.96624
G1 X92.923 Y152.140 E2.97590
G1 X92.418 Y151.773 E2.99521
G1 X92.189 Y151.561 E3.00486
G1 X91.784 Y151.087 E3.02416
G1 X91.458 Y150.555 E3.04347
G1 X91.327 Y150.271 E3.05313
G1 X91.207 Y149.936 E3.06415
G1 X91.073 Y149.372 E3.08208
G1 X91.037 Y149.062 E3.09174
G1 X91.037 Y148.438 E3.11105
G1 X91.126 Y147.865 E3.12898
G1 X91.219 Y147.521 E3.14001
G1 X91.327 Y147.228 E3.14967
G1 X91.589 Y146.711 E3.16761
G1 X91.784 Y146.413 E3.17863
G1 X91.977 Y146.168 E3.18829
G1 X92.189 Y145.939 E3.19794
G1 X92.663 Y145.534 E3.21725
G1 X93.195 Y145.208 E3.23655
G1 X93.772 Y144.969 E3.25585
G1 X94.072 Y144.884 E3.26551
G1 X94.985 Y144.702 E3.29431
G1 X94.985 Y144.390 E3.30398
G1 X94.165 Y144.227 E3.32984
G1 X93.632 Y144.053 E3.34719
G1 X93.132 Y143.799 E3.36456
G1 X92.678 Y143.469 E3.38191
G1 X92.472 Y143.278 E3.39060
G1 X92.107 Y142.852 E3.40797
G1 X91.814 Y142.373 E3.42532
G1 X91.696 Y142.118 E3.43401
G1 X91.523 Y141.585 E3.45137
G1 X91.435 Y141.031 E3.46873
G1 X91.424 Y140.750 E3.47742
G1 X91.463 Y140.234 E3.49344
G1 X91.523 Y139.915 E3.50347
G1 X91.599 Y139.645 E3.51215
G1 X91.814 Y139.127 E3.52952
G1 X91.951 Y138.882 E3.53820
G1 X92.281 Y138.428 E3.55556
G1 X92.678 Y138.031 E3.57293
G1 X93.132 Y137.701 E3.59028
G1 X93.377 Y137.564 E3.59897
G1 X93.895 Y137.349 E3.61633
G1 X94.721 Y137.116 E3.64289
G1 X94.667 Y136.725 E3.65511
G1 X91.525 Y136.725 E3.75232
G1 X91.525 Y109.369 E4.59875
G1 X92.150 Y109.900 F7800.000
G1 X97.850 Y109.900 E4.77512 F630.000
G1 X97.850 Y136.100 E5.58578
G1 X92.150 Y136.100 E5.76215
G1 X92.150 Y109.994 E6.56991
G1 X92.150 Y109.275 F7800.000
G1 F1800.000 E5.56991
G92 E0
G1 X94.769 Y137.809 F7800.000
G1 E1.00000 F1800.000
G1 X95.000 Y137.800 E1.00717 F540.000
G1 X95.443 Y137.834 E1.02091
G1 X95.912 Y137.944 E1.03581
G1 X96.129 Y138.024 E1.04298
G1 X96.542 Y138.234 E1.05730
G1 X96.916 Y138.507 E1.07163
G1 X97.243 Y138.834 E1.08595
G1 X97.515 Y139.208 E1.10028
G1 X97.629 Y139.411 E1.10744
G1 X97.726 Y139.621 E1.11461
G1 X97.869 Y140.061 E1.12893
G1 X97.941 Y140.518 E1.14326
G1 X97.941 Y140.982 E1.15759
G1 X97.869 Y141.439 E1.17191
G1 X97.806 Y141.662 E1.17908
G1 X97.629 Y142.089 E1.19340
G1 X97.515 Y142.292 E1.20057
G1 X97.243 Y142.666 E1.21489
G1 X96.916 Y142.993 E1.22922
G1 X96.542 Y143.266 E1.24354
G1 X96.339 Y143.379 E1.25071
G1 X96.129 Y143.476 E1.25788
G1 X95.689 Y143.619 E1.27220
G1 X95.231 Y143.691 E1.28653
G1 X94.769 Y143.691 E1.30085
G1 X94.539 Y143.664 E1.30802
G1 X94.088 Y143.556 E1.32235
G1 X93.871 Y143.476 E1.32951
G1 X93.458 Y143.266 E1.34384
G1 X93.084 Y142.993 E1.35816
G1 X92.757 Y142.666 E1.37248
G1 X92.484 Y142.292 E1.38681
G1 X92.371 Y142.089 E1.39398
G1 X92.274 Y141.879 E1.40114
G1 X92.131 Y141.439 E1.41547
G1 X92.059 Y140.981 E1.42979
G1 X92.050 Y140.750 E1.43696
G1 X92.084 Y140.307 E1.45070
G1 X92.194 Y139.838 E1.46561
G1 X92.371 Y139.411 E1.47993
G1 X92.485 Y139.208 E1.48710
G1 X92.757 Y138.834 E1.50142
G1 X93.084 Y138.507 E1.51575
G1 X93.458 Y138.234 E1.53007
G1 X93.661 Y138.121 E1.53724
G1 X94.088 Y137.944 E1.55156
G1 X94.311 Y137.881 E1.55873
G1 X94.675 Y137.820 E1.57016
G1 X94.868 Y137.600 F7800.000
G1 F1800.000 E0.57016
G92 E0
G1 X95.000 Y145.400 F7800.000
G1 E1.00000 F1800.000
G1 X95.524 Y145.441 E1.01627 F540.000
G1 X96.035 Y145.564 E1.03253
G1 X96.282 Y145.655 E1.04067
G1 X96.521 Y145.765 E1.04881
G1 X96.969 Y146.040 E1.06508
G1 X97.369 Y146.381 E1.08135
G1 X97.710 Y146.781 E1.09761
G1 X97.985 Y147.229 E1.11388
G1 X98.095 Y147.468 E1.12202
G1 X98.186 Y147.715 E1.13015
G1 X98.309 Y148.226 E1.14642
G1 X98.350 Y148.750 E1.16269
G1 X98.340 Y149.013 E1.17083
G1 X98.258 Y149.532 E1.18709
G1 X98.095 Y150.032 E1.20336
G1 X97.985 Y150.271 E1.21150
G1 X97.710 Y150.719 E1.22777
G1 X97.369 Y151.119 E1.24404
G1 X96.969 Y151.460 E1.26030
G1 X96.521 Y151.735 E1.27657
G1 X96.282 Y151.845 E1.28471
G1 X96.035 Y151.936 E1.29285
G1 X95.524 Y152.059 E1.30911
G1 X95.000 Y152.100 E1.32538
G1 X94.476 Y152.059 E1.34165
G1 X93.965 Y151.936 E1.35791
G1 X93.718 Y151.845 E1.36605
G1 X93.479 Y151.735 E1.37419
G1 X93.031 Y151.460 E1.39046
G1 X92.631 Y151.119 E1.40673
G1 X92.290 Y150.719 E1.42299
G1 X92.015 Y150.271 E1.43926
G1 X91.905 Y150.032 E1.44740
G1 X91.742 Y149.532 E1.46366
G1 X91.660 Y149.013 E1.47993
G1 X91.650 Y148.750 E1.48807
G1 X91.660 Y148.487 E1.49621
G1 X91.738 Y147.987 E1.51187
G1 X91.905 Y147.468 E1.52874
G1 X92.015 Y147.229 E1.53688
G1 X92.290 Y146.781 E1.55315
G1 X92.631 Y146.381 E1.56941
G1 X93.031 Y146.040 E1.58568
G1 X93.462 Y145.774 E1.60134
G1 X93.718 Y145.655 E1.61008
G1 X94.218 Y145.492 E1.62635
G1 X94.476 Y145.441 E1.63449
G1 X94.906 Y145.403 E1.64786
G1 X95.275 Y144.951 F7800.000
G1 X96.887 Y144.538 F7800.000
G1 X97.469 Y144.149 E1.66951 F900.000
G1 X97.728 Y143.945 E1.67971
G1 X97.970 Y143.721 E1.68992
G1 X98.195 Y143.478 E1.70013
G1 X98.399 Y143.219 E1.71034
G1 X98.582 Y142.945 E1.72054
G1 X98.743 Y142.657 E1.73074
G1 X98.881 Y142.358 E1.74096
G1 X98.995 Y142.048 E1.75117
G1 X99.085 Y141.731 E1.76137
G1 X99.149 Y141.407 E1.77157
G1 X99.188 Y141.080 E1.78178
G1 X99.201 Y140.750 E1.79199
G1 X99.188 Y140.420 E1.80220
G1 X99.149 Y140.093 E1.81240
G1 X99.085 Y139.769 E1.82262
G1 X98.995 Y139.452 E1.83282
G1 X98.881 Y139.142 E1.84302
G1 X98.710 Y138.783 E1.85533
G1 X98.399 Y138.281 E1.87362
G1 X98.195 Y138.022 E1.88382
G1 X97.573 Y137.350 E1.91214
G1 X99.100 Y137.350 E1.95937
G1 X99.100 Y108.650 E2.84737
G1 X90.900 Y108.650 E3.10107
G1 X90.900 Y137.350 E3.98908
G1 X92.427 Y137.350 E4.03630
G1 X91.805 Y138.022 E4.06462
G1 X91.601 Y138.281 E4.07482
G1 X91.418 Y138.555 E4.08502
G1 X91.257 Y138.843 E4.09523
G1 X91.119 Y139.142 E4.10544
G1 X91.005 Y139.452 E4.11564
G1 X90.915 Y139.769 E4.12584
G1 X90.851 Y140.093 E4.13606
G1 X90.809 Y140.488 E4.14835
G1 X90.812 Y141.080 E4.16666
G1 X90.851 Y141.407 E4.17686
G1 X90.915 Y141.731 E4.18707
G1 X91.005 Y142.048 E4.19728
G1 X91.119 Y142.358 E4.20748
G1 X91.257 Y142.657 E4.21769
G1 X91.418 Y142.945 E4.22790
G1 X91.601 Y143.219 E4.23810
G1 X91.805 Y143.478 E4.24831
G1 X92.029 Y143.721 E4.25852
G1 X92.272 Y143.945 E4.26873
G1 X92.531 Y144.149 E4.27892
G1 X93.113 Y144.538 E4.30058
G1 X92.596 Y144.827 E4.31889
G1 X92.296 Y145.028 E4.33008
G1 X92.012 Y145.251 E4.34126
G1 X91.747 Y145.497 E4.35244
G1 X91.502 Y145.762 E4.36361
G1 X91.278 Y146.045 E4.37479
G1 X91.077 Y146.346 E4.38597
G1 X90.901 Y146.661 E4.39715
G1 X90.749 Y146.989 E4.40832
G1 X90.624 Y147.328 E4.41951
G1 X90.526 Y147.676 E4.43069
G1 X90.456 Y148.030 E4.44186
G1 X90.413 Y148.389 E4.45303
G1 X90.399 Y148.750 E4.46422
G1 X90.413 Y149.111 E4.47541
G1 X90.456 Y149.470 E4.48658
G1 X90.526 Y149.824 E4.49775
G1 X90.624 Y150.172 E4.50894
G1 X90.749 Y150.511 E4.52011
G1 X90.900 Y150.839 E4.53129
G1 X91.077 Y151.154 E4.54247
G1 X91.278 Y151.454 E4.55365
G1 X91.501 Y151.738 E4.56482
G1 X91.747 Y152.003 E4.57600
G1 X92.012 Y152.249 E4.58717
G1 X92.296 Y152.472 E4.59836
G1 X93.032 Y152.964 E4.62575
G1 X92.975 Y153.150 E4.63177
G1 X90.031 Y153.150 E4.72287
G1 X89.625 Y153.120 E4.73548
G1 X89.259 Y153.032 E4.74713
G1 X89.082 Y152.966 E4.75296
G1 X88.746 Y152.795 E4.76461
G1 X88.442 Y152.574 E4.77625
G1 X88.176 Y152.308 E4.78790
G1 X87.954 Y152.003 E4.79955
G1 X87.862 Y151.839 E4.80538
G1 X87.718 Y151.491 E4.81703
G1 X87.631 Y151.125 E4.82868
G1 X87.600 Y150.719 E4.84130
G1 X87.600 Y134.636 E5.33892
G1 X87.297 Y133.116 E5.38686
G1 X86.601 Y130.645 E5.46631
G1 X85.712 Y128.236 E5.54576
G1 X84.637 Y125.904 E5.62520
G1 X83.382 Y123.664 E5.70465
G1 X81.956 Y121.529 E5.78410
G1 X80.366 Y119.512 E5.86354
G1 X78.623 Y117.627 E5.94299
G1 X76.738 Y115.884 E6.02244
G1 X74.721 Y114.294 E6.10188
G1 X72.689 Y112.937 E6.17750
G1 X70.346 Y111.613 E6.26077
G1 X68.014 Y110.538 E6.34021
G1 X65.605 Y109.649 E6.41966
G1 X63.134 Y108.953 E6.49911
G1 X61.614 Y108.650 E6.54705
G1 X39.812 Y108.642 E7.22165
G1 X39.440 Y108.583 E7.23330
G1 X39.082 Y108.466 E7.24494
G1 X38.747 Y108.296 E7.25659
G1 X38.442 Y108.074 E7.26824
G1 X38.176 Y107.808 E7.27989
G1 X37.955 Y107.504 E7.29153
G1 X37.784 Y107.168 E7.30318
G1 X37.667 Y106.810 E7.31484
G1 X37.608 Y106.438 E7.32647
G1 X37.600 Y106.219 E7.33328
G1 X37.608 Y95.062 E7.67849
G1 X37.667 Y94.690 E7.69013
G1 X37.718 Y94.509 E7.69596
G1 X37.784 Y94.332 E7.70179
G1 X37.955 Y93.996 E7.71344
G1 X38.059 Y93.840 E7.71926
G1 X38.304 Y93.554 E7.73092
G1 X38.590 Y93.309 E7.74256
G1 X38.911 Y93.113 E7.75421
G1 X39.259 Y92.968 E7.76586
G1 X39.625 Y92.881 E7.77750
G1 X40.031 Y92.850 E7.79012
