; generated by Slic3r 1.0.0RC3 on 2014-04-25 at 22:19:36

; layer_height = 0.25
; perimeters = 3
; top_solid_layers = 3
; bottom_solid_layers = 3
; fill_density = 0.3
; perimeter_speed = 60
; infill_speed = 80
; travel_speed = 130
; nozzle_diameter = 0.35
; filament_diameter = 3
; extrusion_multiplier = 1
; perimeters extrusion width = 0.35mm
; infill extrusion width = 0.39mm
; solid infill extrusion width = 0.39mm
; top infill extrusion width = 0.39mm
; first layer extrusion width = 0.70mm

G21 ; set units to millimeters
M107
G28 ; home all axes
G90 ; use absolute coordinates
G92 E0
M82 ; use absolute distances for extrusion
G1 F1800.000 E-1.00000
G1 Z1.350 F7800.000
G92 E0
G1 X59.540 Y34.250 F7800.000
G1 Z0.350 F7800.000
G1 E1.00000 F1800.000
G1 X60.360 Y33.270 E1.03954 F1080.000
G1 X61.360 Y32.460 E1.07936
G1 X62.500 Y31.870 E1.11907
G1 X63.720 Y31.500 E1.15852
G1 X65.000 Y31.380 E1.19830
G1 X125.000 Y31.380 E3.05478
G1 X126.280 Y31.500 E3.09455
G1 X127.500 Y31.870 E3.13400
G1 X128.640 Y32.460 E3.17372
G1 X129.640 Y33.270 E3.21354
G1 X130.460 Y34.250 E3.25307
G1 X158.690 Y75.390 E4.79687
G1 X158.920 Y75.740 E4.80982
G1 X159.310 Y76.400 E4.83354
G1 X159.590 Y76.950 E4.85264
G1 X160.010 Y77.960 E4.88649
G1 X160.200 Y78.560 E4.90596
G1 X160.410 Y79.410 E4.93305
G1 X160.550 Y80.350 E4.96246
G1 X160.600 Y80.980 E4.98201
G1 X160.620 Y81.500 E4.99811
G1 X160.620 Y92.490 E5.33816
G1 X160.600 Y93.010 E5.35426
G1 X160.550 Y93.640 E5.37381
G1 X160.410 Y94.580 E5.40322
G1 X160.200 Y95.430 E5.43031
G1 X160.010 Y96.030 E5.44978
G1 X159.590 Y97.040 E5.48363
G1 X159.310 Y97.590 E5.50272
G1 X158.770 Y98.470 E5.53467
G1 X158.400 Y98.980 E5.55416
G1 X157.960 Y99.520 E5.57572
G1 X107.960 Y155.020 E7.88707
G1 X107.270 Y155.720 E7.91748
G1 X106.480 Y156.400 E7.94973
G1 X105.970 Y156.770 E7.96923
G1 X105.090 Y157.310 E8.00117
G1 X104.540 Y157.590 E8.02027
G1 X103.530 Y158.010 E8.05411
G1 X102.930 Y158.200 E8.07359
G1 X102.080 Y158.410 E8.10068
G1 X101.150 Y158.550 E8.12978
G1 X100.000 Y158.620 E8.16543
G1 X90.000 Y158.620 E8.47484
G1 X88.850 Y158.550 E8.51049
G1 X87.910 Y158.410 E8.53989
G1 X87.060 Y158.200 E8.56698
G1 X86.460 Y158.010 E8.58646
G1 X85.450 Y157.590 E8.62030
G1 X84.900 Y157.310 E8.63940
G1 X84.240 Y156.920 E8.66312
G1 X83.970 Y156.740 E8.67316
G1 X83.290 Y156.220 E8.69965
G1 X82.820 Y155.810 E8.71894
G1 X82.160 Y155.170 E8.74739
G1 X32.030 Y99.520 E11.06488
G1 X31.590 Y98.980 E11.08643
G1 X31.220 Y98.470 E11.10593
G1 X30.680 Y97.590 E11.13787
G1 X30.400 Y97.040 E11.15697
G1 X30.080 Y96.310 E11.18163
G1 X29.970 Y96.010 E11.19152
G1 X29.760 Y95.310 E11.21413
G1 X29.490 Y94.130 E11.25159
G1 X29.390 Y92.930 E11.28884
G1 X29.390 Y81.170 E11.65271
G1 X29.450 Y80.230 E11.68186
G1 X29.610 Y79.290 E11.71136
G1 X29.760 Y78.680 E11.73080
G1 X29.970 Y77.980 E11.75341
G1 X30.080 Y77.680 E11.76330
G1 X30.400 Y76.950 E11.78796
G1 X30.680 Y76.400 E11.80705
G1 X31.070 Y75.740 E11.83077
G1 X31.300 Y75.390 E11.84373
G1 X59.487 Y34.327 E13.38480
G1 F1800.000 E12.38480
G1 Z1.350 F7800.000
G92 E0
G1 X60.938 Y36.318 F7800.000
G1 Z0.350 F7800.000
G1 E1.00000 F1800.000
G1 X63.318 Y33.938 E1.10411 F1080.000
G1 X126.682 Y33.938 E3.06471
G1 X129.062 Y36.318 E3.16882
G1 X129.062 Y73.072 E4.30606
G1 X129.428 Y73.438 E4.32207
G1 X150.040 Y73.438 E4.95984
G1 X150.831 Y73.482 E4.98435
G1 X151.687 Y73.617 E5.01118
G1 X152.454 Y73.819 E5.03570
G1 X152.680 Y73.897 E5.04311
G1 X153.696 Y74.334 E5.07733
G1 X154.381 Y74.733 E5.10185
G1 X155.267 Y75.395 E5.13607
G1 X155.839 Y75.943 E5.16058
G1 X156.547 Y76.793 E5.19480
G1 X156.975 Y77.460 E5.21934
G1 X157.387 Y78.268 E5.24740
G1 X157.509 Y78.562 E5.25726
G1 X157.789 Y79.425 E5.28532
G1 X157.958 Y80.199 E5.30984
G1 X157.991 Y80.436 E5.31726
G1 X158.062 Y81.420 E5.34778
G1 X158.062 Y92.580 E5.69306
G1 X157.991 Y93.564 E5.72359
G1 X157.958 Y93.801 E5.73100
G1 X157.789 Y94.575 E5.75552
G1 X157.509 Y95.438 E5.78358
G1 X157.387 Y95.732 E5.79345
G1 X156.957 Y96.576 E5.82274
G1 X156.790 Y96.848 E5.83263
G1 X156.234 Y97.615 E5.86193
G1 X156.027 Y97.857 E5.87180
G1 X155.357 Y98.526 E5.90109
G1 X155.114 Y98.734 E5.91097
G1 X154.381 Y99.267 E5.93903
G1 X153.696 Y99.666 E5.96354
G1 X153.481 Y99.771 E5.97095
G1 X152.643 Y100.118 E5.99902
G1 X152.339 Y100.217 E6.00889
G1 X151.419 Y100.438 E6.03819
G1 X151.103 Y100.487 E6.04807
G1 X150.239 Y100.556 E6.07489
G1 X128.974 Y100.562 E6.73285
G1 X128.177 Y100.715 E6.75798
G1 X126.158 Y101.285 E6.82290
G1 X124.166 Y102.019 E6.88858
G1 X122.241 Y102.905 E6.95413
G1 X120.337 Y103.975 E7.02171
G1 X118.600 Y105.136 E7.08637
G1 X116.933 Y106.451 E7.15206
G1 X115.375 Y107.892 E7.21774
G1 X113.935 Y109.452 E7.28342
G1 X112.621 Y111.119 E7.34910
G1 X111.443 Y112.885 E7.41478
G1 X110.418 Y114.716 E7.47970
G1 X109.528 Y116.643 E7.54538
G1 X108.785 Y118.657 E7.61182
G1 X108.215 Y120.677 E7.67674
G1 X108.068 Y121.413 E7.69997
G1 X108.062 Y148.080 E8.52507
G1 X107.987 Y149.103 E8.55683
G1 X107.938 Y149.419 E8.56670
G1 X107.717 Y150.339 E8.59600
G1 X107.618 Y150.643 E8.60588
G1 X107.271 Y151.481 E8.63394
G1 X106.896 Y152.179 E8.65847
G1 X106.234 Y153.114 E8.69392
G1 X106.027 Y153.357 E8.70380
G1 X105.357 Y154.027 E8.73309
G1 X105.115 Y154.234 E8.74296
G1 X104.348 Y154.790 E8.77226
G1 X104.076 Y154.957 E8.78214
G1 X103.232 Y155.387 E8.81144
G1 X102.938 Y155.509 E8.82131
G1 X102.075 Y155.789 E8.84936
G1 X101.301 Y155.958 E8.87389
G1 X101.064 Y155.991 E8.88130
G1 X100.080 Y156.062 E8.91182
G1 X89.920 Y156.062 E9.22617
G1 X88.936 Y155.991 E9.25669
G1 X88.699 Y155.958 E9.26410
G1 X87.925 Y155.789 E9.28863
G1 X87.062 Y155.509 E9.31668
G1 X86.768 Y155.387 E9.32655
G1 X85.960 Y154.975 E9.35461
G1 X85.293 Y154.547 E9.37914
G1 X84.443 Y153.839 E9.41336
G1 X83.895 Y153.267 E9.43787
G1 X83.743 Y153.082 E9.44528
G1 X83.104 Y152.179 E9.47950
G1 X82.729 Y151.481 E9.50402
G1 X82.319 Y150.454 E9.53824
G1 X82.117 Y149.687 E9.56276
G1 X81.958 Y148.593 E9.59699
G1 X81.938 Y148.040 E9.61411
G1 X81.938 Y121.474 E10.43608
G1 X81.791 Y120.701 E10.46045
G1 X81.215 Y118.658 E10.52613
G1 X80.481 Y116.666 E10.59181
G1 X79.594 Y114.738 E10.65749
G1 X78.557 Y112.885 E10.72317
G1 X77.379 Y111.119 E10.78885
G1 X76.065 Y109.452 E10.85453
G1 X74.625 Y107.892 E10.92021
G1 X73.067 Y106.451 E10.98589
G1 X71.400 Y105.136 E11.05157
G1 X69.636 Y103.956 E11.11725
G1 X67.762 Y102.906 E11.18369
G1 X65.834 Y102.019 E11.24937
G1 X63.866 Y101.292 E11.31429
G1 X61.823 Y100.715 E11.37997
G1 X61.086 Y100.568 E11.40324
G1 X39.525 Y100.549 E12.07036
G1 X39.208 Y100.524 E12.08020
G1 X38.273 Y100.376 E12.10948
G1 X37.963 Y100.302 E12.11936
G1 X37.062 Y100.009 E12.14865
G1 X36.768 Y99.887 E12.15853
G1 X35.924 Y99.457 E12.18782
G1 X35.652 Y99.290 E12.19770
G1 X34.886 Y98.734 E12.22700
G1 X34.643 Y98.526 E12.23688
G1 X33.973 Y97.857 E12.26617
G1 X33.766 Y97.615 E12.27604
G1 X33.210 Y96.848 E12.30534
G1 X33.043 Y96.576 E12.31522
G1 X32.631 Y95.768 E12.34329
G1 X32.344 Y95.030 E12.36780
G1 X32.062 Y93.919 E12.40325
G1 X32.012 Y93.603 E12.41314
G1 X31.938 Y92.576 E12.44500
G1 X31.951 Y81.063 E12.80123
G1 X32.030 Y80.278 E12.82565
G1 X32.072 Y80.042 E12.83306
G1 X32.344 Y78.970 E12.86727
G1 X32.631 Y78.232 E12.89178
G1 X33.025 Y77.460 E12.91861
G1 X33.146 Y77.253 E12.92602
G1 X33.598 Y76.602 E12.95055
G1 X34.327 Y75.770 E12.98476
G1 X34.918 Y75.243 E13.00928
G1 X35.821 Y74.604 E13.04350
G1 X36.519 Y74.229 E13.06802
G1 X37.357 Y73.882 E13.09609
G1 X37.661 Y73.783 E13.10596
G1 X38.581 Y73.562 E13.13526
G1 X38.897 Y73.513 E13.14513
G1 X39.920 Y73.438 E13.17689
G1 X60.572 Y73.438 E13.81589
G1 X60.938 Y73.072 E13.83191
G1 X60.938 Y36.411 E14.96624
G1 X61.563 Y36.576 F7800.000
G1 X63.576 Y34.563 E15.05434 F1080.000
G1 X126.424 Y34.563 E16.99892
G1 X128.437 Y36.576 E17.08701
G1 X128.437 Y73.697 E18.23557
G1 X128.803 Y74.063 E18.25159
G1 X150.034 Y74.063 E18.90850
G1 X150.751 Y74.102 E18.93074
G1 X151.571 Y74.232 E18.95643
G1 X152.458 Y74.482 E18.98492
G1 X153.407 Y74.888 E19.01687
G1 X154.028 Y75.249 E19.03911
G1 X154.857 Y75.866 E19.07106
G1 X155.376 Y76.362 E19.09329
G1 X156.037 Y77.155 E19.12524
G1 X156.427 Y77.760 E19.14749
G1 X156.819 Y78.529 E19.17422
G1 X156.922 Y78.779 E19.18257
G1 X157.189 Y79.600 E19.20929
G1 X157.341 Y80.303 E19.23154
G1 X157.437 Y81.433 E19.26662
G1 X157.437 Y92.567 E19.61114
G1 X157.341 Y93.697 E19.64622
G1 X157.189 Y94.400 E19.66847
G1 X156.922 Y95.221 E19.69519
G1 X156.819 Y95.471 E19.70354
G1 X156.412 Y96.271 E19.73132
G1 X156.270 Y96.501 E19.73969
G1 X155.743 Y97.227 E19.76746
G1 X155.567 Y97.433 E19.77581
G1 X154.933 Y98.067 E19.80359
G1 X154.727 Y98.243 E19.81195
G1 X154.028 Y98.751 E19.83868
G1 X153.225 Y99.201 E19.86717
G1 X152.427 Y99.531 E19.89391
G1 X152.170 Y99.615 E19.90226
G1 X151.297 Y99.824 E19.93004
G1 X151.030 Y99.866 E19.93840
G1 X150.202 Y99.932 E19.96408
G1 X128.913 Y99.937 E20.62281
G1 X128.031 Y100.107 E20.65060
G1 X125.964 Y100.690 E20.71704
G1 X123.926 Y101.441 E20.78424
G1 X121.957 Y102.348 E20.85133
G1 X120.010 Y103.442 E20.92043
G1 X118.232 Y104.630 E20.98659
G1 X116.527 Y105.975 E21.05379
G1 X114.933 Y107.450 E21.12099
G1 X113.459 Y109.046 E21.18819
G1 X112.115 Y110.752 E21.25539
G1 X110.910 Y112.558 E21.32259
G1 X109.860 Y114.432 E21.38904
G1 X108.950 Y116.404 E21.45623
G1 X108.190 Y118.464 E21.52419
G1 X107.607 Y120.531 E21.59063
G1 X107.443 Y121.352 E21.61653
G1 X107.437 Y148.067 E22.44315
G1 X107.366 Y149.030 E22.47301
G1 X107.324 Y149.297 E22.48137
G1 X107.115 Y150.170 E22.50915
G1 X107.031 Y150.427 E22.51751
G1 X106.701 Y151.225 E22.54424
G1 X106.360 Y151.858 E22.56648
G1 X105.743 Y152.727 E22.59947
G1 X105.567 Y152.933 E22.60783
G1 X104.933 Y153.567 E22.63560
G1 X104.727 Y153.743 E22.64395
G1 X104.001 Y154.270 E22.67173
G1 X103.771 Y154.412 E22.68010
G1 X102.971 Y154.819 E22.70787
G1 X102.721 Y154.922 E22.71622
G1 X101.900 Y155.189 E22.74295
G1 X101.197 Y155.341 E22.76520
G1 X100.067 Y155.437 E22.80027
G1 X89.933 Y155.437 E23.11386
G1 X88.803 Y155.341 E23.14894
G1 X88.100 Y155.189 E23.17118
G1 X87.279 Y154.922 E23.19791
G1 X87.029 Y154.819 E23.20626
G1 X86.260 Y154.427 E23.23299
G1 X85.655 Y154.037 E23.25524
G1 X84.862 Y153.376 E23.28719
G1 X84.366 Y152.857 E23.30942
G1 X83.640 Y151.858 E23.34762
G1 X83.299 Y151.225 E23.36986
G1 X82.915 Y150.266 E23.40181
G1 X82.732 Y149.571 E23.42405
G1 X82.582 Y148.550 E23.45599
G1 X82.563 Y148.034 E23.47198
G1 X82.563 Y121.413 E24.29566
G1 X82.399 Y120.555 E24.32269
G1 X81.810 Y118.464 E24.38989
G1 X81.059 Y116.426 E24.45709
G1 X80.151 Y114.454 E24.52429
G1 X79.090 Y112.558 E24.59149
G1 X77.885 Y110.752 E24.65869
G1 X76.541 Y109.046 E24.72589
G1 X75.067 Y107.450 E24.79309
G1 X73.473 Y105.975 E24.86029
G1 X71.768 Y104.630 E24.92749
G1 X69.963 Y103.422 E24.99469
G1 X68.046 Y102.349 E25.06265
G1 X66.096 Y101.450 E25.12909
G1 X64.059 Y100.698 E25.19629
G1 X61.969 Y100.107 E25.26349
G1 X61.147 Y99.943 E25.28942
G1 X39.550 Y99.924 E25.95768
G1 X39.281 Y99.903 E25.96600
G1 X38.395 Y99.763 E25.99377
G1 X38.133 Y99.700 E26.00213
G1 X37.279 Y99.422 E26.02990
G1 X37.029 Y99.319 E26.03826
G1 X36.229 Y98.912 E26.06603
G1 X35.999 Y98.770 E26.07439
G1 X35.273 Y98.243 E26.10217
G1 X35.067 Y98.067 E26.11053
G1 X34.433 Y97.433 E26.13830
G1 X34.257 Y97.227 E26.14665
G1 X33.730 Y96.501 E26.17443
G1 X33.588 Y96.271 E26.18280
G1 X33.196 Y95.501 E26.20953
G1 X32.936 Y94.831 E26.23177
G1 X32.676 Y93.797 E26.26475
G1 X32.633 Y93.530 E26.27312
G1 X32.563 Y92.565 E26.30306
G1 X32.576 Y81.082 E26.65835
G1 X32.648 Y80.370 E26.68050
G1 X32.936 Y79.169 E26.71870
G1 X33.196 Y78.499 E26.74094
G1 X33.573 Y77.760 E26.76662
G1 X34.085 Y76.994 E26.79513
G1 X34.764 Y76.217 E26.82707
G1 X35.300 Y75.737 E26.84931
G1 X35.972 Y75.249 E26.87499
G1 X36.593 Y74.888 E26.89723
G1 X37.573 Y74.469 E26.93023
G1 X37.830 Y74.385 E26.93859
G1 X38.703 Y74.176 E26.96636
G1 X38.970 Y74.134 E26.97472
G1 X39.798 Y74.068 E27.00040
G1 X61.197 Y74.063 E27.66253
G1 X61.563 Y73.697 E27.67855
G1 X61.563 Y36.670 E28.82421
G1 X62.188 Y36.835 F7800.000
G1 X63.835 Y35.188 E28.89629 F1080.000
G1 X126.165 Y35.188 E30.82485
G1 X127.812 Y36.835 E30.89693
G1 X127.812 Y74.322 E32.05682
G1 X128.178 Y74.688 E32.07283
G1 X150.028 Y74.688 E32.74889
G1 X150.672 Y74.722 E32.76885
G1 X151.455 Y74.846 E32.79340
G1 X152.236 Y75.066 E32.81848
G1 X153.118 Y75.442 E32.84815
G1 X153.676 Y75.766 E32.86811
G1 X154.446 Y76.337 E32.89778
G1 X154.913 Y76.782 E32.91774
G1 X155.528 Y77.518 E32.94741
G1 X155.879 Y78.060 E32.96738
G1 X156.251 Y78.791 E32.99278
G1 X156.336 Y78.995 E32.99961
G1 X156.589 Y79.776 E33.02501
G1 X156.725 Y80.407 E33.04497
G1 X156.812 Y81.445 E33.07721
G1 X156.812 Y92.555 E33.42098
G1 X156.748 Y93.429 E33.44808
G1 X156.589 Y94.224 E33.47317
G1 X156.336 Y95.005 E33.49857
G1 X156.251 Y95.209 E33.50540
G1 X155.866 Y95.965 E33.53166
G1 X155.750 Y96.154 E33.53850
G1 X155.252 Y96.840 E33.56476
G1 X155.108 Y97.008 E33.57160
G1 X154.508 Y97.608 E33.59785
G1 X154.340 Y97.752 E33.60469
G1 X153.676 Y98.234 E33.63009
G1 X152.969 Y98.630 E33.65517
G1 X152.210 Y98.944 E33.68058
G1 X152.000 Y99.013 E33.68741
G1 X151.175 Y99.211 E33.71367
G1 X150.956 Y99.245 E33.72051
G1 X150.166 Y99.308 E33.74506
G1 X128.851 Y99.312 E34.40455
G1 X127.885 Y99.499 E34.43500
G1 X125.771 Y100.095 E34.50296
G1 X123.687 Y100.863 E34.57168
G1 X121.672 Y101.791 E34.64031
G1 X119.683 Y102.909 E34.71093
G1 X117.884 Y104.109 E34.77783
G1 X116.139 Y105.484 E34.84655
G1 X114.508 Y106.991 E34.91527
G1 X112.984 Y108.639 E34.98475
G1 X111.609 Y110.384 E35.05347
G1 X110.376 Y112.231 E35.12219
G1 X109.292 Y114.170 E35.19091
G1 X108.372 Y116.164 E35.25887
G1 X107.595 Y118.271 E35.32835
G1 X106.999 Y120.385 E35.39631
G1 X106.818 Y121.290 E35.42487
G1 X106.812 Y148.055 E36.25302
G1 X106.745 Y148.956 E36.28098
G1 X106.711 Y149.175 E36.28781
G1 X106.513 Y150.000 E36.31407
G1 X106.444 Y150.210 E36.32091
G1 X106.130 Y150.969 E36.34632
G1 X105.734 Y151.676 E36.37140
G1 X105.252 Y152.340 E36.39680
G1 X105.108 Y152.508 E36.40364
G1 X104.508 Y153.108 E36.42989
G1 X104.340 Y153.252 E36.43672
G1 X103.654 Y153.750 E36.46298
G1 X103.465 Y153.866 E36.46983
G1 X102.709 Y154.251 E36.49609
G1 X102.505 Y154.336 E36.50292
G1 X101.724 Y154.589 E36.52832
G1 X101.093 Y154.725 E36.54828
G1 X100.055 Y154.812 E36.58051
G1 X89.945 Y154.812 E36.89334
G1 X88.907 Y154.725 E36.92557
G1 X88.276 Y154.589 E36.94554
G1 X87.495 Y154.336 E36.97094
G1 X87.291 Y154.251 E36.97777
G1 X86.560 Y153.879 E37.00317
G1 X86.018 Y153.528 E37.02314
G1 X85.282 Y152.913 E37.05281
G1 X84.837 Y152.446 E37.07277
G1 X84.177 Y151.536 E37.10755
G1 X83.870 Y150.969 E37.12752
G1 X83.512 Y150.079 E37.15719
G1 X83.346 Y149.455 E37.17715
G1 X83.222 Y148.672 E37.20170
G1 X83.189 Y148.083 E37.21996
G1 X83.188 Y121.351 E38.04707
G1 X83.007 Y120.409 E38.07676
G1 X82.405 Y118.271 E38.14548
G1 X81.637 Y116.187 E38.21420
G1 X80.708 Y114.170 E38.28292
G1 X79.624 Y112.231 E38.35164
G1 X78.391 Y110.384 E38.42035
G1 X77.016 Y108.639 E38.48907
G1 X75.509 Y107.008 E38.55779
G1 X73.879 Y105.500 E38.62651
G1 X72.136 Y104.124 E38.69523
G1 X70.289 Y102.889 E38.76395
G1 X68.330 Y101.792 E38.83343
G1 X66.313 Y100.863 E38.90215
G1 X64.252 Y100.103 E38.97011
G1 X62.115 Y99.499 E39.03883
G1 X61.209 Y99.318 E39.06742
G1 X39.575 Y99.300 E39.73682
G1 X39.355 Y99.282 E39.74363
G1 X38.517 Y99.150 E39.76988
G1 X38.302 Y99.098 E39.77671
G1 X37.495 Y98.836 E39.80297
G1 X37.291 Y98.751 E39.80981
G1 X36.535 Y98.366 E39.83606
G1 X36.347 Y98.250 E39.84290
G1 X35.660 Y97.752 E39.86916
G1 X35.492 Y97.608 E39.87600
G1 X34.892 Y97.008 E39.90226
G1 X34.748 Y96.840 E39.90909
G1 X34.250 Y96.154 E39.93535
G1 X34.134 Y95.965 E39.94219
G1 X33.761 Y95.233 E39.96760
G1 X33.529 Y94.632 E39.98755
G1 X33.289 Y93.675 E40.01807
G1 X33.255 Y93.456 E40.02492
G1 X33.188 Y92.553 E40.05295
G1 X33.200 Y81.101 E40.40729
G1 X33.266 Y80.461 E40.42718
G1 X33.481 Y79.527 E40.45685
G1 X33.695 Y78.918 E40.47681
G1 X34.205 Y77.917 E40.51159
G1 X34.572 Y77.385 E40.53156
G1 X35.202 Y76.663 E40.56122
G1 X35.682 Y76.232 E40.58119
G1 X36.324 Y75.766 E40.60574
G1 X37.031 Y75.370 E40.63082
G1 X37.790 Y75.056 E40.65622
G1 X38.000 Y74.987 E40.66306
G1 X38.825 Y74.789 E40.68932
