; generated by Slic3r 1.0.0RC3 on 2014-03-29 at 22:06:37

; layer_height = 0.3
; perimeters = 3
; top_solid_layers = 3
; bottom_solid_layers = 3
; fill_density = 0.2
; perimeter_speed = 50
; infill_speed = 60
; travel_speed = 130
; nozzle_diameter = 0.35
; filament_diameter = 3
; extrusion_multiplier = 1
; perimeters extrusion width = 0.35mm
; infill extrusion width = 0.37mm
; solid infill extrusion width = 0.37mm
; top infill extrusion width = 0.37mm
; first layer extrusion width = 0.70mm

G21 ; set units to millimeters
M107
G28 ; home all axes
G90 ; use absolute coordinates
G92 E0
M82 ; use absolute distances for extrusion
G1 F1800.000 E-1.00000
G1 Z0.550 F7800.000
G92 E0
G1 X55.500 Y5.210 F7800.000
G1 Z0.350 F7800.000
G1 E1.00000 F1800.000
G1 X55.880 Y3.960 E1.04042 F900.000
G1 X56.490 Y2.820 E1.08043
G1 X57.320 Y1.820 E1.12064
G1 X58.320 Y0.990 E1.16085
G1 X59.460 Y0.380 E1.20086
G1 X60.710 Y0.000 E1.24128
G1 X62.000 Y-0.120 E1.28137
G1 X138.000 Y-0.120 E3.63291
G1 X139.290 Y0.000 E3.67299
G1 X140.540 Y0.380 E3.71342
G1 X141.680 Y0.990 E3.75342
G1 X142.680 Y1.820 E3.79363
G1 X143.510 Y2.820 E3.83384
G1 X144.120 Y3.960 E3.87385
G1 X144.500 Y5.210 E3.91427
G1 X144.620 Y6.500 E3.95436
G1 X144.620 Y173.500 E9.12156
G1 X144.500 Y174.790 E9.16165
G1 X144.120 Y176.040 E9.20207
G1 X143.510 Y177.180 E9.24208
G1 X142.680 Y178.180 E9.28229
G1 X141.680 Y179.010 E9.32250
G1 X140.540 Y179.620 E9.36250
G1 X139.290 Y180.000 E9.40293
G1 X138.000 Y180.120 E9.44301
G1 X62.000 Y180.120 E11.79455
G1 X60.710 Y180.000 E11.83464
G1 X59.460 Y179.620 E11.87507
G1 X58.320 Y179.010 E11.91507
G1 X57.320 Y178.180 E11.95528
G1 X56.490 Y177.180 E11.99549
G1 X55.880 Y176.040 E12.03550
G1 X55.500 Y174.790 E12.07592
G1 X55.380 Y173.500 E12.11601
G1 X55.380 Y6.500 E17.28321
G1 X55.491 Y5.303 E17.32039
G1 F1800.000 E16.32039
G1 Z0.550 F7800.000
G92 E0
G1 X65.150 Y150.150 F7800.000
G1 Z0.350 F7800.000
G1 E1.00000 F1800.000
G1 X134.850 Y150.150 E3.15661 F630.000
G1 X134.850 Y169.850 E3.76615
G1 X65.150 Y169.850 E5.92276
G1 X65.150 Y150.244 E6.52941
G1 X65.150 Y149.525 F7800.000
G1 X63.600 Y171.100 F7800.000
G1 X136.400 Y171.100 E8.78195 F900.000
G1 X136.400 Y171.900 E8.80672
G1 X63.600 Y171.900 E11.05926
G1 X63.600 Y171.194 E11.08112
G1 F1800.000 E10.08112
G1 Z0.550 F7800.000
G92 E0
G1 X126.600 Y141.400 F7800.000
G1 Z0.350 F7800.000
G1 E1.00000 F1800.000
G1 X126.600 Y140.600 E1.02477 F540.000
G1 X136.400 Y140.600 E1.32801
G1 X136.400 Y141.400 E1.35277
G1 X126.694 Y141.400 E1.65311
G1 F1800.000 E0.65311
G1 Z0.550 F7800.000
G92 E0
G1 X127.200 Y142.000 F7800.000
G1 X128.264 Y145.000 F7800.000
G1 X118.486 Y146.750 F7800.000
G1 X123.000 Y99.545 F7800.000
G1 X126.000 Y102.899 F7800.000
G1 X126.600 Y102.400 F7800.000
G1 Z0.350 F7800.000
G1 E1.00000 F1800.000
G1 X126.600 Y101.600 E1.02477 F540.000
G1 X136.400 Y101.600 E1.32801
G1 X136.400 Y102.400 E1.35277
G1 X126.694 Y102.400 E1.65311
G1 F1800.000 E0.65311
G1 Z0.550 F7800.000
G92 E0
G1 X126.000 Y102.899 F7800.000
G1 X123.000 Y99.545 F7800.000
G1 X70.500 Y104.500 F7800.000
G1 X73.300 Y107.500 F7800.000
G1 X73.400 Y108.100 F7800.000
G1 Z0.350 F7800.000
G1 E1.00000 F1800.000
G1 X73.400 Y108.900 E1.02477 F540.000
G1 X63.600 Y108.900 E1.32801
G1 X63.600 Y108.100 E1.35277
G1 X73.306 Y108.100 E1.65311
G1 F1800.000 E0.65311
G1 Z0.550 F7800.000
G92 E0
G1 X73.300 Y107.500 F7800.000
G1 X70.500 Y104.500 F7800.000
G1 X67.500 Y97.500 F7800.000
G1 X64.500 Y96.300 F7800.000
G1 X63.000 Y150.299 F7800.000
G1 X65.800 Y146.000 F7800.000
G1 X73.400 Y146.600 F7800.000
G1 Z0.350 F7800.000
G1 E1.00000 F1800.000
G1 X73.400 Y148.900 E1.07118 F540.000
G1 X63.600 Y148.900 E1.37442
G1 X63.600 Y146.600 E1.44560
G1 X73.306 Y146.600 E1.74593
G1 X65.700 Y149.500 F7800.000
G1 X62.975 Y93.275 F7800.000
G1 X64.525 Y93.275 E1.79390 F900.000
G1 X64.525 Y107.475 E2.23327
G1 X74.025 Y107.475 E2.52721
G1 X74.025 Y109.525 E2.59065
G1 X64.525 Y109.525 E2.88459
G1 X64.525 Y145.975 E4.01239
G1 X74.025 Y145.975 E4.30634
G1 X74.025 Y149.525 E4.41618
G1 X64.525 Y149.525 E4.71013
G1 X64.525 Y170.475 E5.35834
G1 X135.475 Y170.475 E7.55362
G1 X135.475 Y142.025 E8.43389
G1 X125.975 Y142.025 E8.72784
G1 X125.975 Y139.975 E8.79127
G1 X135.475 Y139.975 E9.08521
G1 X135.475 Y121.801 E9.64755
G1 X134.836 Y121.500 E9.66941
G1 X135.475 Y121.199 E9.69127
G1 X135.475 Y103.025 E10.25360
G1 X125.975 Y103.025 E10.54754
G1 X125.975 Y100.975 E10.61098
G1 X135.475 Y100.975 E10.90492
G1 X135.475 Y93.275 E11.14317
G1 X137.025 Y93.275 E11.19114
G1 X137.025 Y172.525 E13.64324
G1 X62.975 Y172.525 E15.93446
G1 X62.975 Y93.369 E18.38366
G1 X62.350 Y92.650 F7800.000
G1 X72.150 Y92.650 E18.68689 F630.000
G1 X72.150 Y93.950 E18.72711
G1 X65.150 Y93.950 E18.94370
G1 X65.150 Y106.850 E19.34284
G1 X74.650 Y106.850 E19.63678
G1 X74.650 Y110.150 E19.73889
G1 X65.150 Y110.150 E20.03283
G1 X65.150 Y145.350 E21.12197
G1 X74.650 Y145.350 E21.41591
G1 X74.650 Y149.100 E21.53194
G1 X84.305 Y149.100 E21.83069
G1 X84.382 Y148.799 E21.84030
G1 X84.500 Y148.586 E21.84783
G1 X84.618 Y148.475 E21.85286
G1 X84.761 Y148.396 E21.85790
G1 X85.000 Y148.351 E21.86543
G1 X85.239 Y148.396 E21.87295
G1 X85.382 Y148.475 E21.87799
G1 X85.500 Y148.586 E21.88303
G1 X85.618 Y148.799 E21.89056
G1 X85.695 Y149.100 E21.90016
G1 X114.305 Y149.100 E22.78542
G1 X114.382 Y148.799 E22.79502
G1 X114.500 Y148.586 E22.80255
G1 X114.618 Y148.475 E22.80759
G1 X114.761 Y148.396 E22.81262
G1 X115.000 Y148.351 E22.82015
G1 X115.239 Y148.396 E22.82768
G1 X115.382 Y148.475 E22.83272
G1 X115.500 Y148.586 E22.83775
G1 X115.618 Y148.799 E22.84528
G1 X115.695 Y149.100 E22.85489
G1 X134.850 Y149.100 E23.44758
G1 X134.850 Y142.650 E23.64715
G1 X125.350 Y142.650 E23.94110
G1 X125.350 Y139.350 E24.04320
G1 X134.850 Y139.350 E24.33714
G1 X134.850 Y122.197 E24.86787
G1 X134.577 Y122.069 E24.87720
G1 X134.390 Y121.914 E24.88473
G1 X134.272 Y121.701 E24.89226
G1 X134.242 Y121.541 E24.89729
G1 X134.272 Y121.299 E24.90482
G1 X134.390 Y121.086 E24.91235
G1 X134.577 Y120.931 E24.91988
G1 X134.850 Y120.803 E24.92921
G1 X134.850 Y103.650 E25.45994
G1 X125.350 Y103.650 E25.75388
G1 X125.350 Y100.350 E25.85599
G1 X134.850 Y100.350 E26.14993
G1 X134.850 Y93.950 E26.34795
G1 X127.850 Y93.950 E26.56454
G1 X127.850 Y92.650 E26.60477
G1 X137.650 Y92.650 E26.90799
G1 X137.650 Y173.150 E29.39877
G1 X62.350 Y173.150 E31.72865
G1 X62.350 Y92.744 E34.21652
G1 X62.891 Y92.962 F7800.000
G1 F1800.000 E33.21652
G1 Z0.550 F7800.000
G92 E0
G1 X71.500 Y93.300 F7800.000
G1 X71.800 Y90.300 F7800.000
G1 X72.200 Y78.300 F7800.000
G1 X73.200 Y75.300 F7800.000
G1 X69.650 Y74.650 F7800.000
G1 Z0.350 F7800.000
G1 E1.00000 F1800.000
G1 X69.650 Y10.150 E2.99571 F630.000
G1 X130.350 Y10.150 E4.87385
G1 X130.350 Y74.650 E6.86957
G1 X69.744 Y74.650 E8.74481
G1 X69.025 Y74.650 F7800.000
G1 X99.600 Y75.900 F7800.000
G1 X100.400 Y75.900 E8.76957 F540.000
G1 X100.400 Y92.700 E9.28940
G1 X99.600 Y92.700 E9.31417
G1 X99.600 Y75.994 E9.83109
G1 X98.975 Y75.275 F7800.000
G1 X101.025 Y75.275 E9.89453 F540.000
G1 X101.025 Y93.325 E10.45303
G1 X98.975 Y93.325 E10.51646
G1 X98.975 Y75.369 E11.07206
G1 X68.400 Y74.700 F7800.000
G1 X63.600 Y74.700 E11.22059 F900.000
G1 X63.600 Y8.100 E13.28130
G1 X136.400 Y8.100 E15.53384
G1 X136.400 Y74.700 E17.59455
G1 X131.600 Y74.700 E17.74308
G1 X131.600 Y8.900 E19.77902
G1 X68.400 Y8.900 E21.73449
G1 X68.400 Y74.606 E23.76753
G1 X62.975 Y7.475 F7800.000
G1 X137.025 Y7.475 E26.05874 F900.000
G1 X137.025 Y75.325 E28.15812
G1 X130.975 Y75.325 E28.34532
G1 X130.975 Y9.525 E30.38126
G1 X69.025 Y9.525 E32.29807
G1 X69.025 Y75.325 E34.33401
G1 X62.975 Y75.325 E34.52121
G1 X62.975 Y7.569 E36.61768
G1 X62.350 Y6.850 F7800.000
G1 X137.650 Y6.850 E38.94756 F630.000
G1 X137.650 Y75.950 E41.08561
G1 X101.650 Y75.950 E42.19950
G1 X101.650 Y92.650 E42.71622
G1 X122.150 Y92.650 E43.35051
G1 X122.150 Y93.950 E43.39074
G1 X115.717 Y93.950 E43.58979
G1 X115.588 Y94.276 E43.60065
G1 X115.444 Y94.473 E43.60818
G1 X115.239 Y94.604 E43.61571
G1 X115.000 Y94.649 E43.62324
G1 X114.761 Y94.604 E43.63077
G1 X114.556 Y94.473 E43.63829
G1 X114.412 Y94.276 E43.64583
G1 X114.283 Y93.950 E43.65669
G1 X85.717 Y93.950 E44.54057
G1 X85.588 Y94.276 E44.55143
G1 X85.444 Y94.473 E44.55896
G1 X85.239 Y94.604 E44.56649
G1 X85.000 Y94.649 E44.57402
G1 X84.761 Y94.604 E44.58155
G1 X84.556 Y94.473 E44.58908
G1 X84.412 Y94.276 E44.59661
G1 X84.283 Y93.950 E44.60747
G1 X77.850 Y93.950 E44.80652
G1 X77.850 Y92.650 E44.84674
G1 X98.350 Y92.650 E45.48104
G1 X98.350 Y75.950 E45.99776
G1 X62.350 Y75.950 E47.11165
G1 X62.350 Y6.944 E49.24679
G1 X62.891 Y7.162 F7800.000
G1 F1800.000 E48.24679
G1 Z0.550 F7800.000
G92 E0
G1 X64.532 Y75.300 F7800.000
G1 X73.200 Y75.300 F7800.000
G1 X72.200 Y78.300 F7800.000
G1 X71.800 Y90.300 F7800.000
G1 X71.500 Y93.300 F7800.000
G1 X72.656 Y92.431 F7800.000
G1 Z0.350 F7800.000
G1 E1.00000 F1800.000
G1 X73.100 Y92.900 E1.01997 F630.000
G1 X76.900 Y92.900 E1.13755
G1 X77.343 Y92.457 E1.15694
G1 X77.500 Y92.456 E1.16178
G1 X76.900 Y92.900 F7800.000
G1 X77.344 Y93.369 E1.18176 F630.000
G1 X73.100 Y92.900 F7800.000
G1 X72.657 Y93.343 E1.20115 F630.000
G1 X72.500 Y93.344 E1.20599
G1 X122.500 Y93.344 F7800.000
G1 X122.657 Y93.343 E1.21084 F630.000
G1 X123.100 Y92.900 E1.23023
G1 X122.656 Y92.431 F7800.000
G1 X123.100 Y92.900 E1.25020 F630.000
G1 X126.900 Y92.900 E1.36778
G1 X127.343 Y92.457 E1.38717
G1 X127.500 Y92.456 E1.39201
G1 X126.900 Y92.900 F7800.000
G1 X127.344 Y93.369 E1.41199 F630.000
G1 F1800.000 E0.41199
G1 Z0.550 F7800.000
G92 E0
G1 X109.200 Y93.300 F7800.000
G1 X107.183 Y96.300 F7800.000
G1 X67.500 Y138.500 F7800.000
G1 X64.500 Y137.300 F7800.000
G1 X63.000 Y150.299 F7800.000
G1 X65.800 Y146.000 F7800.000
G1 X72.957 Y147.063 F7800.000
G1 Z0.350 F7800.000
G1 E1.00000 F1800.000
G1 X72.937 Y147.043 E1.00093 F1080.000
G1 X72.002 Y147.043 E1.03156
G1 X72.957 Y147.998 E1.07580
G1 X72.481 Y148.457 E1.09747
G1 X71.067 Y147.043 E1.16297
G1 X70.131 Y147.043 E1.19360
G1 X71.546 Y148.457 E1.25911
G1 X70.610 Y148.457 E1.28974
G1 X69.196 Y147.043 E1.35524
G1 X68.260 Y147.043 E1.38588
G1 X69.675 Y148.457 E1.45138
G1 X68.740 Y148.457 E1.48201
G1 X67.325 Y147.043 E1.54752
G1 X66.390 Y147.043 E1.57815
G1 X67.804 Y148.457 E1.64365
G1 X66.869 Y148.457 E1.67428
G1 X65.454 Y147.043 E1.73979
G1 X64.519 Y147.043 E1.77042
G1 X65.933 Y148.457 E1.83593
G1 X64.998 Y148.457 E1.86656
G1 X64.043 Y147.502 E1.91080
G1 X64.043 Y148.437 E1.94143
G1 X64.063 Y148.457 E1.94236
G1 X63.853 Y149.553 F7800.000
G1 X63.873 Y149.573 E1.94327 F360.000
G1 X63.627 Y150.245 E1.96625 F360.000
G1 X63.873 Y150.490 E1.97739 F360.000
G1 X63.627 Y151.162 E2.00037 F360.000
G1 X63.873 Y151.407 E2.01152 F360.000
G1 X63.627 Y152.079 E2.03450 F360.000
G1 X63.873 Y152.325 E2.04564 F360.000
G1 X63.627 Y152.997 E2.06862 F360.000
G1 X63.873 Y153.242 E2.07977 F360.000
G1 X63.627 Y153.914 E2.10274 F360.000
G1 X63.873 Y154.160 E2.11389 F360.000
G1 X63.627 Y154.832 E2.13687 F360.000
G1 X63.873 Y155.077 E2.14801 F360.000
G1 X63.627 Y155.749 E2.17099 F360.000
G1 X63.873 Y155.994 E2.18214 F360.000
G1 X63.627 Y156.666 E2.20512 F360.000
G1 X63.873 Y156.912 E2.21626 F360.000
G1 X63.627 Y157.584 E2.23924 F360.000
G1 X63.873 Y157.829 E2.25039 F360.000
G1 X63.627 Y158.501 E2.27337 F360.000
G1 X63.873 Y158.747 E2.28451 F360.000
G1 X63.627 Y159.419 E2.30749 F360.000
G1 X63.873 Y159.664 E2.31863 F360.000
G1 X63.627 Y160.336 E2.34161 F360.000
G1 X63.873 Y160.581 E2.35276 F360.000
G1 X63.627 Y161.253 E2.37574 F360.000
G1 X63.873 Y161.499 E2.38688 F360.000
G1 X63.627 Y162.171 E2.40986 F360.000
G1 X63.873 Y162.416 E2.42101 F360.000
G1 X63.627 Y163.088 E2.44399 F360.000
G1 X63.873 Y163.334 E2.45513 F360.000
G1 X63.627 Y164.006 E2.47811 F360.000
G1 X63.873 Y164.251 E2.48925 F360.000
G1 X63.627 Y164.923 E2.51223 F360.000
G1 X63.873 Y165.168 E2.52338 F360.000
G1 X63.627 Y165.840 E2.54636 F360.000
G1 X63.873 Y166.086 E2.55750 F360.000
G1 X63.627 Y166.758 E2.58048 F360.000
G1 X63.873 Y167.003 E2.59163 F360.000
G1 X63.627 Y167.675 E2.61461 F360.000
G1 X63.873 Y167.920 E2.62575 F360.000
G1 X63.627 Y168.593 E2.64873 F360.000
G1 X63.873 Y168.838 E2.65987 F360.000
G1 X63.627 Y169.510 E2.68285 F360.000
G1 X63.873 Y169.755 E2.69400 F360.000
G1 X63.627 Y170.427 E2.71698 F360.000
G1 X63.647 Y170.447 E2.71789 F360.000
G1 X63.000 Y150.299 F7800.000
G1 X74.488 Y149.708 F7800.000
G1 X74.468 Y149.688 E2.71830 F360.000
G1 X74.741 Y149.542 E2.72283 F360.000
G1 X74.906 Y149.708 E2.72625 F360.000
G1 X75.159 Y149.542 E2.73067 F360.000
G1 X75.324 Y149.708 E2.73409 F360.000
G1 X75.577 Y149.542 E2.73851 F360.000
G1 X75.742 Y149.708 E2.74193 F360.000
G1 X75.995 Y149.542 E2.74635 F360.000
G1 X76.160 Y149.708 E2.74977 F360.000
G1 X76.413 Y149.542 E2.75419 F360.000
G1 X76.578 Y149.708 E2.75761 F360.000
G1 X76.831 Y149.542 E2.76203 F360.000
G1 X76.996 Y149.708 E2.76545 F360.000
G1 X77.249 Y149.542 E2.76988 F360.000
G1 X77.414 Y149.708 E2.77329 F360.000
G1 X77.668 Y149.542 E2.77772 F360.000
G1 X77.833 Y149.708 E2.78114 F360.000
G1 X78.086 Y149.542 E2.78556 F360.000
G1 X78.251 Y149.708 E2.78898 F360.000
G1 X78.504 Y149.542 E2.79340 F360.000
G1 X78.669 Y149.708 E2.79682 F360.000
G1 X78.922 Y149.542 E2.80124 F360.000
G1 X79.087 Y149.708 E2.80466 F360.000
G1 X79.340 Y149.542 E2.80908 F360.000
G1 X79.505 Y149.708 E2.81250 F360.000
G1 X79.758 Y149.542 E2.81693 F360.000
G1 X79.923 Y149.708 E2.82034 F360.000
G1 X80.176 Y149.542 E2.82477 F360.000
G1 X80.341 Y149.708 E2.82819 F360.000
G1 X80.594 Y149.542 E2.83261 F360.000
G1 X80.760 Y149.708 E2.83603 F360.000
G1 X81.013 Y149.542 E2.84045 F360.000
G1 X81.178 Y149.708 E2.84387 F360.000
G1 X81.431 Y149.542 E2.84829 F360.000
G1 X81.596 Y149.708 E2.85171 F360.000
G1 X81.849 Y149.542 E2.85613 F360.000
G1 X82.014 Y149.708 E2.85955 F360.000
G1 X82.267 Y149.542 E2.86398 F360.000
G1 X82.432 Y149.708 E2.86739 F360.000
G1 X82.685 Y149.542 E2.87182 F360.000
G1 X82.850 Y149.708 E2.87524 F360.000
G1 X83.103 Y149.542 E2.87966 F360.000
G1 X83.268 Y149.708 E2.88308 F360.000
G1 X83.521 Y149.542 E2.88750 F360.000
G1 X83.686 Y149.708 E2.89092 F360.000
G1 X83.940 Y149.542 E2.89534 F360.000
G1 X84.105 Y149.708 E2.89876 F360.000
G1 X84.358 Y149.542 E2.90318 F360.000
G1 X84.376 Y149.561 E2.90356 F360.000
G1 X84.882 Y149.479 F7800.000
G1 X84.900 Y149.498 E2.90436 F360.000
G1 X85.656 Y149.684 F7800.000
G1 X85.932 Y149.542 E2.90891 F360.000
G1 X86.098 Y149.708 E2.91232 F360.000
G1 X86.350 Y149.542 E2.91674 F360.000
G1 X86.516 Y149.708 E2.92016 F360.000
G1 X86.768 Y149.542 E2.92458 F360.000
G1 X86.934 Y149.708 E2.92800 F360.000
G1 X87.186 Y149.542 E2.93242 F360.000
G1 X87.352 Y149.708 E2.93584 F360.000
G1 X87.605 Y149.542 E2.94026 F360.000
G1 X87.770 Y149.708 E2.94368 F360.000
G1 X88.023 Y149.542 E2.94810 F360.000
G1 X88.188 Y149.708 E2.95151 F360.000
G1 X88.441 Y149.542 E2.95593 F360.000
G1 X88.606 Y149.708 E2.95935 F360.000
G1 X88.859 Y149.542 E2.96377 F360.000
G1 X89.024 Y149.708 E2.96719 F360.000
G1 X89.277 Y149.542 E2.97161 F360.000
G1 X89.442 Y149.708 E2.97503 F360.000
G1 X89.695 Y149.542 E2.97945 F360.000
G1 X89.860 Y149.708 E2.98287 F360.000
G1 X90.113 Y149.542 E2.98729 F360.000
G1 X90.278 Y149.708 E2.99070 F360.000
G1 X90.531 Y149.542 E2.99512 F360.000
G1 X90.696 Y149.708 E2.99854 F360.000
G1 X90.949 Y149.542 E3.00296 F360.000
G1 X91.114 Y149.708 E3.00638 F360.000
G1 X91.367 Y149.542 E3.01080 F360.000
G1 X91.532 Y149.708 E3.01422 F360.000
G1 X91.785 Y149.542 E3.01864 F360.000
G1 X91.950 Y149.708 E3.02206 F360.000
G1 X92.203 Y149.542 E3.02648 F360.000
G1 X92.368 Y149.708 E3.02989 F360.000
G1 X92.621 Y149.542 E3.03431 F360.000
G1 X92.786 Y149.708 E3.03773 F360.000
G1 X93.039 Y149.542 E3.04215 F360.000
G1 X93.204 Y149.708 E3.04557 F360.000
G1 X93.457 Y149.542 E3.04999 F360.000
G1 X93.622 Y149.708 E3.05341 F360.000
G1 X93.875 Y149.542 E3.05783 F360.000
G1 X94.040 Y149.708 E3.06125 F360.000
G1 X94.293 Y149.542 E3.06567 F360.000
G1 X94.458 Y149.708 E3.06908 F360.000
G1 X94.711 Y149.542 E3.07350 F360.000
G1 X94.876 Y149.708 E3.07692 F360.000
G1 X95.129 Y149.542 E3.08134 F360.000
G1 X95.294 Y149.708 E3.08476 F360.000
