; generated by Slic3r 1.0.0RC3 on 2014-03-21 at 23:23:35

; layer_height = 0.25
; perimeters = 3
; top_solid_layers = 3
; bottom_solid_layers = 3
; fill_density = 0.2
; perimeter_speed = 50
; infill_speed = 70
; travel_speed = 130
; nozzle_diameter = 0.35
; filament_diameter = 3
; extrusion_multiplier = 1
; perimeters extrusion width = 0.35mm
; infill extrusion width = 0.39mm
; solid infill extrusion width = 0.39mm
; top infill extrusion width = 0.39mm
; first layer extrusion width = 0.70mm

G21 ; set units to millimeters
M107
M190 S115 ; wait for bed temperature to be reached
M104 S235 ; set temperature
G28 ; home all axes
M109 S235 ; wait for temperature to be reached
G90 ; use absolute coordinates
G92 E0
M82 ; use absolute distances for extrusion
G1 F1800.000 E-1.00000
G92 E0
G1 Z0.350 F7800.000
G1 X87.600 Y87.378 F7800.000
G1 E1.00000 F1800.000
G1 X87.970 Y87.038 E1.01555 F900.000
G1 X88.480 Y86.618 E1.03599
G1 X88.880 Y86.318 E1.05146
G1 X89.680 Y85.798 E1.08098
G1 X90.120 Y85.558 E1.09649
G1 X90.810 Y85.238 E1.12002
G1 X91.280 Y85.048 E1.13571
G1 X92.180 Y84.758 E1.16497
G1 X92.670 Y84.638 E1.18058
G1 X93.440 Y84.488 E1.20485
G1 X93.930 Y84.428 E1.22012
G1 X94.740 Y84.388 E1.24522
G1 X95.250 Y84.388 E1.26100
G1 X96.060 Y84.428 E1.28609
G1 X96.550 Y84.488 E1.30136
G1 X97.380 Y84.648 E1.32752
G1 X97.850 Y84.768 E1.34253
G1 X98.610 Y85.008 E1.36719
G1 X99.100 Y85.198 E1.38345
G1 X99.870 Y85.558 E1.40975
G1 X100.310 Y85.798 E1.42526
G1 X101.110 Y86.318 E1.45478
G1 X101.510 Y86.618 E1.47025
G1 X102.020 Y87.038 E1.49069
G1 X102.390 Y87.378 E1.50624
G1 X103.030 Y88.058 E1.53513
G1 X103.350 Y88.448 E1.55074
G1 X103.800 Y89.068 E1.57445
G1 X104.070 Y89.488 E1.58990
G1 X104.500 Y90.268 E1.61745
G1 X104.710 Y90.718 E1.63282
G1 X104.990 Y91.428 E1.65643
G1 X105.150 Y91.908 E1.67209
G1 X105.390 Y92.828 E1.70151
G1 X105.480 Y93.328 E1.71723
G1 X105.560 Y93.968 E1.73718
G1 X105.600 Y94.468 E1.75270
G1 X105.600 Y95.528 E1.78550
G1 X105.480 Y96.698 E1.82189
G1 X105.390 Y97.188 E1.83731
G1 X105.150 Y98.078 E1.86583
G1 X104.990 Y98.558 E1.88148
G1 X104.710 Y99.268 E1.90510
G1 X104.500 Y99.718 E1.92046
G1 X104.110 Y100.438 E1.94580
G1 X103.840 Y100.868 E1.96151
G1 X103.350 Y101.548 E1.98744
G1 X103.030 Y101.938 E2.00305
G1 X102.390 Y102.618 E2.03195
G1 X102.020 Y102.958 E2.04749
G1 X101.430 Y103.438 E2.07103
G1 X101.030 Y103.728 E2.08632
G1 X100.410 Y104.128 E2.10915
G1 X99.970 Y104.378 E2.12480
G1 X99.070 Y104.808 E2.15567
G1 X98.600 Y104.988 E2.17124
G1 X97.930 Y105.198 E2.19296
G1 X97.440 Y105.328 E2.20865
G1 X96.550 Y105.508 E2.23674
G1 X96.060 Y105.568 E2.25202
G1 X95.250 Y105.608 E2.27711
G1 X94.740 Y105.608 E2.29289
G1 X93.930 Y105.568 E2.31799
G1 X93.440 Y105.508 E2.33326
G1 X92.550 Y105.328 E2.36135
G1 X92.060 Y105.198 E2.37704
G1 X91.390 Y104.988 E2.39877
G1 X90.920 Y104.808 E2.41434
G1 X90.020 Y104.378 E2.44520
G1 X89.580 Y104.128 E2.46086
G1 X88.960 Y103.728 E2.48369
G1 X88.560 Y103.438 E2.49898
G1 X87.970 Y102.958 E2.52251
G1 X87.600 Y102.618 E2.53806
G1 X86.920 Y101.888 E2.56893
G1 X86.590 Y101.478 E2.58521
G1 X86.160 Y100.878 E2.60805
G1 X85.900 Y100.468 E2.62307
G1 X85.490 Y99.718 E2.64952
G1 X85.280 Y99.268 E2.66488
G1 X85.000 Y98.558 E2.68850
G1 X84.840 Y98.078 E2.70415
G1 X84.600 Y97.188 E2.73268
G1 X84.510 Y96.698 E2.74809
G1 X84.420 Y95.898 E2.77300
G1 X84.390 Y95.398 E2.78850
G1 X84.390 Y94.598 E2.81325
G1 X84.420 Y94.098 E2.82875
G1 X84.510 Y93.328 E2.85274
G1 X84.600 Y92.828 E2.86846
G1 X84.840 Y91.908 E2.89787
G1 X85.000 Y91.428 E2.91353
G1 X85.280 Y90.718 E2.93714
G1 X85.490 Y90.268 E2.95251
G1 X85.900 Y89.518 E2.97896
G1 X86.160 Y89.108 E2.99398
G1 X86.640 Y88.438 E3.01948
G1 X86.970 Y88.038 E3.03553
G1 X87.535 Y87.446 E3.06086
G1 F1800.000 E2.06086
G92 E0
G1 X93.267 Y93.373 F7800.000
G1 E1.00000 F1800.000
G1 X93.485 Y93.169 E1.00924 F540.000
G1 X93.671 Y93.034 E1.01633
G1 X93.988 Y92.849 E1.02769
G1 X94.266 Y92.739 E1.03693
G1 X94.488 Y92.682 E1.04403
G1 X94.851 Y92.628 E1.05538
G1 X95.149 Y92.628 E1.06462
G1 X95.445 Y92.665 E1.07386
G1 X95.735 Y92.740 E1.08309
G1 X96.012 Y92.849 E1.09233
G1 X96.274 Y92.993 E1.10156
G1 X96.515 Y93.169 E1.11080
G1 X96.682 Y93.326 E1.11790
G1 X96.923 Y93.603 E1.12925
G1 X97.083 Y93.855 E1.13849
G1 X97.210 Y94.125 E1.14772
G1 X97.302 Y94.409 E1.15696
G1 X97.358 Y94.702 E1.16619
G1 X97.377 Y95.000 E1.17543
G1 X97.358 Y95.298 E1.18467
G1 X97.302 Y95.591 E1.19390
G1 X97.210 Y95.875 E1.20314
G1 X97.083 Y96.145 E1.21237
G1 X96.923 Y96.397 E1.22161
G1 X96.733 Y96.627 E1.23085
G1 X96.515 Y96.831 E1.24008
G1 X96.274 Y97.007 E1.24932
G1 X96.012 Y97.151 E1.25855
G1 X95.668 Y97.278 E1.26991
G1 X95.445 Y97.335 E1.27701
G1 X95.149 Y97.372 E1.28624
G1 X94.851 Y97.372 E1.29548
G1 X94.555 Y97.335 E1.30472
G1 X94.266 Y97.260 E1.31395
G1 X93.988 Y97.151 E1.32319
G1 X93.726 Y97.007 E1.33242
G1 X93.485 Y96.831 E1.34166
G1 X93.267 Y96.627 E1.35089
G1 X93.077 Y96.397 E1.36013
G1 X92.917 Y96.145 E1.36936
G1 X92.769 Y95.809 E1.38072
G1 X92.698 Y95.591 E1.38782
G1 X92.642 Y95.298 E1.39706
G1 X92.623 Y95.000 E1.40629
G1 X92.638 Y94.771 E1.41339
G1 X92.698 Y94.409 E1.42475
G1 X92.790 Y94.125 E1.43398
G1 X92.917 Y93.855 E1.44322
G1 X93.077 Y93.603 E1.45246
G1 X93.208 Y93.445 E1.45879
G1 X93.705 Y93.824 F7800.000
G1 X93.884 Y93.651 E1.46651 F540.000
G1 X94.062 Y93.522 E1.47331
G1 X94.255 Y93.416 E1.48011
G1 X94.459 Y93.335 E1.48691
G1 X94.672 Y93.280 E1.49372
G1 X94.890 Y93.253 E1.50052
G1 X95.110 Y93.253 E1.50732
G1 X95.328 Y93.280 E1.51413
G1 X95.541 Y93.335 E1.52093
G1 X95.745 Y93.416 E1.52773
G1 X95.938 Y93.522 E1.53453
G1 X96.116 Y93.651 E1.54133
G1 X96.276 Y93.802 E1.54814
G1 X96.416 Y93.971 E1.55494
G1 X96.534 Y94.157 E1.56174
G1 X96.628 Y94.356 E1.56854
G1 X96.696 Y94.565 E1.57535
G1 X96.737 Y94.781 E1.58215
G1 X96.751 Y95.000 E1.58895
G1 X96.737 Y95.219 E1.59575
G1 X96.696 Y95.435 E1.60256
G1 X96.628 Y95.644 E1.60936
G1 X96.534 Y95.843 E1.61616
G1 X96.416 Y96.029 E1.62297
G1 X96.276 Y96.198 E1.62977
G1 X96.116 Y96.349 E1.63657
G1 X95.938 Y96.478 E1.64337
G1 X95.745 Y96.584 E1.65018
G1 X95.512 Y96.672 E1.65789
G1 X95.328 Y96.720 E1.66378
G1 X95.110 Y96.747 E1.67058
G1 X94.890 Y96.747 E1.67738
G1 X94.672 Y96.720 E1.68418
G1 X94.459 Y96.665 E1.69098
G1 X94.255 Y96.584 E1.69779
G1 X94.062 Y96.478 E1.70459
G1 X93.884 Y96.349 E1.71139
G1 X93.724 Y96.198 E1.71820
G1 X93.584 Y96.029 E1.72500
G1 X93.466 Y95.843 E1.73180
G1 X93.363 Y95.616 E1.73951
G1 X93.304 Y95.435 E1.74540
G1 X93.263 Y95.219 E1.75220
G1 X93.249 Y95.000 E1.75900
G1 X93.261 Y94.810 E1.76489
G1 X93.304 Y94.565 E1.77260
G1 X93.372 Y94.356 E1.77941
G1 X93.466 Y94.157 E1.78621
G1 X93.645 Y93.897 E1.79598
G1 X93.630 Y93.587 F7800.000
G1 X92.796 Y92.930 F7800.000
G1 X93.073 Y92.671 E1.80772 F540.000
G1 X93.380 Y92.447 E1.81947
G1 X93.713 Y92.265 E1.83122
G1 X94.066 Y92.125 E1.84296
G1 X94.434 Y92.030 E1.85471
G1 X94.810 Y91.983 E1.86646
G1 X95.190 Y91.983 E1.87821
G1 X95.566 Y92.030 E1.88995
G1 X95.934 Y92.125 E1.90170
G1 X96.287 Y92.265 E1.91345
G1 X96.620 Y92.447 E1.92519
G1 X96.927 Y92.671 E1.93694
G1 X97.204 Y92.930 E1.94869
G1 X97.446 Y93.223 E1.96044
G1 X97.649 Y93.544 E1.97218
G1 X97.811 Y93.887 E1.98393
G1 X97.928 Y94.248 E1.99568
G1 X97.999 Y94.621 E2.00742
G1 X98.023 Y95.000 E2.01917
G1 X97.999 Y95.379 E2.03092
G1 X97.928 Y95.752 E2.04266
G1 X97.811 Y96.113 E2.05441
G1 X97.649 Y96.456 E2.06616
G1 X97.446 Y96.777 E2.07791
G1 X97.204 Y97.070 E2.08965
G1 X96.927 Y97.329 E2.10140
G1 X96.620 Y97.553 E2.11315
G1 X96.287 Y97.735 E2.12489
G1 X95.934 Y97.875 E2.13664
G1 X95.566 Y97.970 E2.14839
G1 X95.190 Y98.017 E2.16013
G1 X94.810 Y98.017 E2.17188
G1 X94.434 Y97.970 E2.18363
G1 X94.066 Y97.875 E2.19538
G1 X93.713 Y97.735 E2.20712
G1 X93.380 Y97.553 E2.21887
G1 X93.073 Y97.329 E2.23062
G1 X92.796 Y97.070 E2.24236
G1 X92.554 Y96.777 E2.25411
G1 X92.351 Y96.456 E2.26586
G1 X92.189 Y96.113 E2.27760
G1 X92.072 Y95.752 E2.28935
G1 X92.001 Y95.379 E2.30110
G1 X91.977 Y95.000 E2.31285
G1 X92.001 Y94.621 E2.32459
G1 X92.072 Y94.248 E2.33634
G1 X92.189 Y93.887 E2.34809
G1 X92.351 Y93.544 E2.35983
G1 X92.554 Y93.223 E2.37158
G1 X92.736 Y93.003 E2.38043
G1 X92.340 Y92.502 F7800.000
G1 X92.674 Y92.188 E2.39461 F540.000
G1 X93.045 Y91.919 E2.40879
G1 X93.446 Y91.698 E2.42297
G1 X93.872 Y91.529 E2.43715
G1 X94.316 Y91.415 E2.45133
G1 X94.771 Y91.358 E2.46551
G1 X95.229 Y91.358 E2.47969
G1 X95.684 Y91.415 E2.49387
G1 X96.128 Y91.529 E2.50805
G1 X96.554 Y91.698 E2.52223
G1 X96.955 Y91.919 E2.53641
G1 X97.326 Y92.188 E2.55059
G1 X97.660 Y92.502 E2.56477
G1 X97.952 Y92.855 E2.57895
G1 X98.198 Y93.242 E2.59313
G1 X98.393 Y93.657 E2.60731
G1 X98.535 Y94.092 E2.62149
G1 X98.621 Y94.543 E2.63567
G1 X98.649 Y95.000 E2.64985
G1 X98.621 Y95.457 E2.66403
G1 X98.535 Y95.908 E2.67821
G1 X98.393 Y96.343 E2.69239
G1 X98.198 Y96.758 E2.70657
G1 X97.952 Y97.145 E2.72075
G1 X97.660 Y97.498 E2.73493
G1 X97.326 Y97.812 E2.74910
G1 X96.955 Y98.081 E2.76328
G1 X96.554 Y98.302 E2.77746
G1 X96.128 Y98.471 E2.79164
G1 X95.684 Y98.585 E2.80582
G1 X95.229 Y98.642 E2.82000
G1 X94.771 Y98.642 E2.83418
G1 X94.316 Y98.585 E2.84836
G1 X93.872 Y98.471 E2.86254
G1 X93.446 Y98.302 E2.87672
G1 X93.045 Y98.081 E2.89090
G1 X92.674 Y97.812 E2.90508
G1 X92.340 Y97.498 E2.91926
G1 X92.048 Y97.145 E2.93344
G1 X91.802 Y96.758 E2.94762
G1 X91.607 Y96.343 E2.96180
G1 X91.465 Y95.908 E2.97598
G1 X91.379 Y95.457 E2.99016
G1 X91.351 Y95.000 E3.00434
G1 X91.379 Y94.543 E3.01852
G1 X91.465 Y94.092 E3.03270
G1 X91.607 Y93.657 E3.04688
G1 X91.802 Y93.242 E3.06106
G1 X92.048 Y92.855 E3.07524
G1 X92.280 Y92.574 E3.08652
G1 X92.784 Y92.616 F7800.000
M106 S255
M104 S230 ; set temperature
M140 S110 ; set bed temperature
G1 F1800.000 E2.08652
G92 E0
G1 Z0.600 F7800.000
G1 X93.493 Y93.298 F7800.000
G1 E1.00000 F1800.000
G1 X93.780 Y93.078 E1.00447 F600.000
G1 X94.031 Y92.940 E1.00801
G1 X94.296 Y92.835 E1.01155
G1 X94.573 Y92.764 E1.01509
G1 X94.921 Y92.720 E1.01943
G1 X94.921 Y92.134 E1.02668
G1 X96.451 Y93.246 E1.05009
G1 X96.660 Y93.441 E1.05363
G1 X96.842 Y93.662 E1.05717
G1 X96.995 Y93.903 E1.06071
G1 X97.117 Y94.162 E1.06425
G1 X97.205 Y94.434 E1.06779
G1 X97.259 Y94.715 E1.07132
G1 X97.272 Y95.076 E1.07580
G1 X97.259 Y95.285 E1.07840
G1 X97.205 Y95.566 E1.08194
G1 X97.117 Y95.838 E1.08548
G1 X96.995 Y96.097 E1.08902
G1 X96.842 Y96.338 E1.09255
G1 X96.660 Y96.559 E1.09609
G1 X96.451 Y96.754 E1.09963
G1 X96.220 Y96.922 E1.10317
G1 X95.969 Y97.060 E1.10671
G1 X95.704 Y97.165 E1.11025
G1 X95.427 Y97.236 E1.11379
G1 X95.143 Y97.272 E1.11733
G1 X94.857 Y97.272 E1.12087
G1 X94.573 Y97.236 E1.12441
G1 X94.296 Y97.165 E1.12795
G1 X94.031 Y97.060 E1.13149
G1 X93.780 Y96.922 E1.13503
G1 X93.549 Y96.754 E1.13856
G1 X93.340 Y96.559 E1.14210
G1 X93.158 Y96.338 E1.14564
G1 X93.005 Y96.097 E1.14918
G1 X92.883 Y95.838 E1.15272
G1 X92.795 Y95.566 E1.15626
G1 X92.741 Y95.285 E1.15980
G1 X92.723 Y95.000 E1.16334
G1 X92.741 Y94.715 E1.16688
G1 X92.795 Y94.434 E1.17042
G1 X92.883 Y94.162 E1.17396
G1 X93.005 Y93.903 E1.17750
G1 X93.158 Y93.662 E1.18104
G1 X93.340 Y93.441 E1.18457
G1 X93.455 Y93.334 E1.18652
G1 X93.733 Y93.553 F7800.000
G1 X93.968 Y93.374 E1.19018 F600.000
G1 X94.180 Y93.257 E1.19318
G1 X94.405 Y93.168 E1.19617
G1 X94.639 Y93.108 E1.19916
G1 X94.879 Y93.078 E1.20216
G1 X95.271 Y93.078 E1.20701
G1 X95.271 Y92.821 E1.21019
G1 X96.228 Y93.516 E1.22482
G1 X96.404 Y93.682 E1.22782
G1 X96.558 Y93.868 E1.23081
G1 X96.688 Y94.072 E1.23381
G1 X96.791 Y94.291 E1.23680
G1 X96.866 Y94.521 E1.23979
G1 X96.911 Y94.759 E1.24279
G1 X96.923 Y95.054 E1.24645
G1 X96.911 Y95.241 E1.24877
G1 X96.866 Y95.479 E1.25177
G1 X96.791 Y95.709 E1.25476
G1 X96.688 Y95.928 E1.25776
G1 X96.558 Y96.132 E1.26075
G1 X96.404 Y96.318 E1.26374
G1 X96.228 Y96.484 E1.26674
G1 X96.032 Y96.626 E1.26973
G1 X95.820 Y96.743 E1.27273
G1 X95.595 Y96.832 E1.27572
G1 X95.361 Y96.892 E1.27871
G1 X95.121 Y96.922 E1.28171
G1 X94.879 Y96.922 E1.28470
G1 X94.639 Y96.892 E1.28770
G1 X94.405 Y96.832 E1.29069
G1 X94.180 Y96.743 E1.29368
G1 X93.968 Y96.626 E1.29668
G1 X93.772 Y96.484 E1.29967
G1 X93.596 Y96.318 E1.30267
G1 X93.442 Y96.132 E1.30566
G1 X93.312 Y95.928 E1.30865
G1 X93.209 Y95.709 E1.31165
G1 X93.134 Y95.479 E1.31464
G1 X93.089 Y95.241 E1.31764
G1 X93.074 Y95.000 E1.32063
G1 X93.089 Y94.759 E1.32363
G1 X93.134 Y94.521 E1.32662
G1 X93.209 Y94.291 E1.32961
G1 X93.312 Y94.072 E1.33261
G1 X93.442 Y93.868 E1.33560
G1 X93.695 Y93.589 E1.34026
G1 X93.973 Y93.808 F7800.000
G1 X94.156 Y93.670 E1.34311 F600.000
G1 X94.513 Y93.502 E1.34799
G1 X94.869 Y93.432 E1.35249
G1 X95.099 Y93.428 E1.35533
G1 X95.295 Y93.453 E1.35778
G1 X95.621 Y93.536 E1.36194
G1 X95.621 Y93.508 E1.36230
G1 X96.004 Y93.786 E1.36815
G1 X96.148 Y93.922 E1.37060
G1 X96.380 Y94.241 E1.37549
G1 X96.465 Y94.420 E1.37794
G1 X96.526 Y94.608 E1.38039
G1 X96.575 Y95.000 E1.38528
G1 X96.526 Y95.392 E1.39017
G1 X96.465 Y95.580 E1.39261
G1 X96.274 Y95.926 E1.39750
G1 X96.004 Y96.214 E1.40239
G1 X95.671 Y96.425 E1.40728
G1 X95.487 Y96.498 E1.40973
G1 X95.099 Y96.572 E1.41462
G1 X94.901 Y96.572 E1.41706
G1 X94.513 Y96.498 E1.42195
G1 X94.329 Y96.425 E1.42440
G1 X94.130 Y96.311 E1.42724
G1 X93.852 Y96.078 E1.43174
G1 X93.620 Y95.759 E1.43663
G1 X93.535 Y95.580 E1.43907
G1 X93.474 Y95.392 E1.44152
G1 X93.425 Y95.000 E1.44641
G1 X93.474 Y94.608 E1.45130
G1 X93.535 Y94.420 E1.45375
G1 X93.726 Y94.074 E1.45864
G1 X93.934 Y93.844 E1.46248
G1 X93.931 Y93.582 F7800.000
G1 X93.009 Y92.593 F7800.000
G1 X93.326 Y92.363 E1.46734 F600.000
G1 X93.670 Y92.174 E1.47219
G1 X94.035 Y92.030 E1.47705
G1 X94.415 Y91.932 E1.48190
G1 X94.921 Y91.868 E1.48822
G1 X94.921 Y91.883 E1.48841
G1 X95.196 Y91.883 E1.49181
G1 X95.585 Y91.932 E1.49666
G1 X95.965 Y92.030 E1.50152
G1 X96.330 Y92.174 E1.50638
G1 X96.674 Y92.363 E1.51123
G1 X96.991 Y92.593 E1.51609
G1 X97.277 Y92.862 E1.52094
G1 X97.527 Y93.164 E1.52580
G1 X97.737 Y93.495 E1.53065
G1 X97.904 Y93.850 E1.53551
G1 X98.025 Y94.223 E1.54036
G1 X98.099 Y94.609 E1.54522
G1 X98.123 Y95.000 E1.55007
G1 X98.099 Y95.391 E1.55493
G1 X98.025 Y95.777 E1.55978
G1 X97.904 Y96.150 E1.56464
G1 X97.737 Y96.505 E1.56949
G1 X97.527 Y96.836 E1.57435
G1 X97.277 Y97.138 E1.57920
G1 X96.991 Y97.407 E1.58406
G1 X96.674 Y97.637 E1.58891
G1 X96.330 Y97.826 E1.59377
G1 X95.965 Y97.970 E1.59862
G1 X95.585 Y98.068 E1.60348
G1 X95.196 Y98.117 E1.60833
G1 X94.804 Y98.117 E1.61319
G1 X94.415 Y98.068 E1.61805
G1 X94.035 Y97.970 E1.62290
G1 X93.670 Y97.826 E1.62776
G1 X93.326 Y97.637 E1.63261
G1 X93.009 Y97.407 E1.63747
G1 X92.723 Y97.138 E1.64232
G1 X92.473 Y96.836 E1.64718
G1 X92.263 Y96.505 E1.65203
G1 X92.096 Y96.150 E1.65689
G1 X91.975 Y95.777 E1.66174
G1 X91.901 Y95.391 E1.66660
G1 X91.877 Y95.000 E1.67145
G1 X91.901 Y94.609 E1.67631
G1 X91.975 Y94.223 E1.68116
G1 X92.096 Y93.850 E1.68602
G1 X92.263 Y93.495 E1.69087
G1 X92.473 Y93.164 E1.69573
G1 X92.723 Y92.862 E1.70058
G1 X92.971 Y92.629 E1.70479
G1 X92.786 Y92.323 F7800.000
G1 X93.139 Y92.067 E1.71019 F600.000
G1 X93.498 Y91.869 E1.71526
G1 X93.926 Y91.696 E1.72099
G1 X94.349 Y91.588 E1.72639
G1 X94.755 Y91.536 E1.73146
G1 X95.218 Y91.533 E1.73719
G1 X95.651 Y91.588 E1.74259
G1 X96.048 Y91.689 E1.74766
G1 X96.479 Y91.857 E1.75339
G1 X96.861 Y92.067 E1.75879
G1 X97.214 Y92.323 E1.76419
G1 X97.532 Y92.622 E1.76959
G1 X97.794 Y92.938 E1.77466
G1 X98.044 Y93.326 E1.78039
G1 X98.230 Y93.721 E1.78579
G1 X98.365 Y94.136 E1.79119
G1 X98.447 Y94.565 E1.79659
G1 X98.474 Y95.000 E1.80199
G1 X98.447 Y95.435 E1.80739
G1 X98.365 Y95.864 E1.81279
G1 X98.230 Y96.279 E1.81819
G1 X98.044 Y96.674 E1.82359
G1 X97.794 Y97.062 E1.82932
G1 X97.532 Y97.378 E1.83439
G1 X97.214 Y97.677 E1.83979
G1 X96.861 Y97.933 E1.84519
G1 X96.479 Y98.143 E1.85059
G1 X96.074 Y98.304 E1.85599
G1 X95.651 Y98.412 E1.86139
G1 X95.218 Y98.467 E1.86679
G1 X94.782 Y98.467 E1.87219
G1 X94.349 Y98.412 E1.87759
G1 X93.926 Y98.304 E1.88299
G1 X93.521 Y98.143 E1.88839
G1 X93.139 Y97.933 E1.89379
G1 X92.786 Y97.677 E1.89919
G1 X92.468 Y97.378 E1.90459
G1 X92.175 Y97.019 E1.91032
G1 X91.956 Y96.674 E1.91539
G1 X91.770 Y96.279 E1.92079
G1 X91.635 Y95.864 E1.92619
