; generated by Slic3r 1.0.0RC3 on 2014-04-10 at 22:46:54

; layer_height = 0.25
; perimeters = 3
; top_solid_layers = 3
; bottom_solid_layers = 3
; fill_density = 0.2
; perimeter_speed = 50
; infill_speed = 70
; travel_speed = 130
; nozzle_diameter = 0.35
; filament_diameter = 3
; extrusion_multiplier = 1
; perimeters extrusion width = 0.35mm
; infill extrusion width = 0.39mm
; solid infill extrusion width = 0.39mm
; top infill extrusion width = 0.39mm
; first layer extrusion width = 0.70mm

G21 ; set units to millimeters
M107
M190 S115 ; wait for bed temperature to be reached
M104 S235 ; set temperature
G28 ; home all axes
M109 S235 ; wait for temperature to be reached
G90 ; use absolute coordinates
G92 E0
M82 ; use absolute distances for extrusion
G1 F1800.000 E-1.00000
G92 E0
G1 Z0.350 F7800.000
G1 X74.000 Y65.297 F7800.000
G1 E1.00000 F1800.000
G1 X75.540 Y63.757 E1.06739 F900.000
G1 X76.580 Y62.837 E1.11035
G1 X78.020 Y61.707 E1.16699
G1 X79.490 Y60.697 E1.22217
G1 X81.040 Y59.767 E1.27810
G1 X82.610 Y58.947 E1.33290
G1 X84.270 Y58.217 E1.38901
G1 X85.950 Y57.597 E1.44442
G1 X86.370 Y57.457 E1.45812
G1 X87.690 Y57.077 E1.50062
G1 X89.390 Y56.677 E1.55466
G1 X89.870 Y56.587 E1.56977
G1 X91.610 Y56.327 E1.62420
G1 X92.980 Y56.197 E1.66679
G1 X94.780 Y56.137 E1.72251
G1 X97.010 Y56.197 E1.79153
G1 X98.380 Y56.327 E1.83411
G1 X100.120 Y56.587 E1.88855
G1 X100.600 Y56.677 E1.90366
G1 X101.950 Y56.987 E1.94652
G1 X103.620 Y57.457 E2.00020
G1 X105.340 Y58.067 E2.05666
G1 X106.990 Y58.767 E2.11212
G1 X107.380 Y58.947 E2.12541
G1 X108.610 Y59.577 E2.16817
G1 X110.140 Y60.467 E2.22294
G1 X111.650 Y61.477 E2.27915
G1 X113.060 Y62.547 E2.33392
G1 X114.450 Y63.757 E2.39094
G1 X115.980 Y65.287 E2.45789
G1 X117.200 Y66.687 E2.51534
G1 X118.040 Y67.777 E2.55792
G1 X119.280 Y69.607 E2.62632
G1 X120.170 Y71.137 E2.68109
G1 X120.800 Y72.367 E2.72385
G1 X121.530 Y74.027 E2.77996
G1 X122.290 Y76.127 E2.84906
G1 X122.670 Y77.447 E2.89156
G1 X123.070 Y79.147 E2.94559
G1 X123.160 Y79.627 E2.96071
G1 X123.420 Y81.367 E3.01514
G1 X123.550 Y82.737 E3.05772
G1 X123.620 Y84.517 E3.11284
G1 X123.620 Y84.997 E3.12769
G1 X123.550 Y86.767 E3.18250
G1 X123.420 Y88.137 E3.22508
G1 X123.160 Y89.877 E3.27952
G1 X123.070 Y90.357 E3.29463
G1 X122.670 Y92.057 E3.34866
G1 X122.290 Y93.377 E3.39116
G1 X122.150 Y93.797 E3.40486
G1 X110.610 Y125.627 E4.45245
G1 X110.590 Y125.617 E4.45315
G1 X110.080 Y126.757 E4.49179
G1 X109.250 Y127.877 E4.53492
G1 X108.200 Y128.807 E4.57832
G1 X102.780 Y132.647 E4.78385
G1 X101.600 Y133.307 E4.82568
G1 X100.300 Y133.727 E4.86795
G1 X98.910 Y133.857 E4.91115
G1 X97.490 Y133.707 E4.95533
G1 X96.140 Y133.257 E4.99936
G1 X90.120 Y130.487 E5.20440
G1 X89.100 Y129.907 E5.24070
G1 X88.210 Y129.147 E5.27691
G1 X87.620 Y128.497 E5.30408
G1 X87.150 Y127.797 E5.33016
G1 X70.010 Y98.707 E6.37487
G1 X69.190 Y97.137 E6.42967
G1 X68.460 Y95.477 E6.48578
G1 X67.840 Y93.797 E6.54119
G1 X67.700 Y93.377 E6.55489
G1 X67.320 Y92.057 E6.59739
G1 X66.920 Y90.357 E6.65143
G1 X66.830 Y89.877 E6.66654
G1 X66.570 Y88.137 E6.72097
G1 X66.440 Y86.767 E6.76355
G1 X66.420 Y86.327 E6.77718
G1 X66.380 Y84.937 E6.82021
G1 X66.420 Y83.177 E6.87468
G1 X66.440 Y82.737 E6.88831
G1 X66.570 Y81.367 E6.93089
G1 X66.830 Y79.627 E6.98532
G1 X66.920 Y79.147 E7.00043
G1 X67.230 Y77.797 E7.04329
G1 X67.700 Y76.127 E7.09697
G1 X68.460 Y74.027 E7.16607
G1 X69.190 Y72.367 E7.22218
G1 X69.820 Y71.137 E7.26494
G1 X70.710 Y69.607 E7.31971
G1 X71.720 Y68.097 E7.37592
G1 X72.790 Y66.687 E7.43068
G1 X73.938 Y65.367 E7.48480
G1 F1800.000 E6.48480
G92 E0
G1 X97.660 Y119.204 F7800.000
G1 E1.00000 F1800.000
G1 X97.935 Y119.105 E1.00903 F540.000
G1 X98.223 Y119.060 E1.01805
G1 X98.514 Y119.069 E1.02708
G1 X98.799 Y119.132 E1.03611
G1 X99.067 Y119.248 E1.04513
G1 X99.308 Y119.412 E1.05416
G1 X99.515 Y119.619 E1.06319
G1 X99.678 Y119.860 E1.07222
G1 X99.794 Y120.128 E1.08125
G1 X99.858 Y120.412 E1.09027
G1 X99.858 Y120.801 E1.10230
G1 X99.794 Y121.086 E1.11132
G1 X99.678 Y121.353 E1.12035
G1 X99.515 Y121.595 E1.12937
G1 X99.308 Y121.801 E1.13841
G1 X99.067 Y121.965 E1.14744
G1 X98.799 Y122.081 E1.15646
G1 X98.417 Y122.154 E1.16848
G1 X98.126 Y122.145 E1.17751
G1 X97.841 Y122.081 E1.18654
G1 X97.573 Y121.965 E1.19557
G1 X97.332 Y121.801 E1.20459
G1 X97.125 Y121.595 E1.21363
G1 X96.962 Y121.353 E1.22265
G1 X96.846 Y121.086 E1.23168
G1 X96.782 Y120.801 E1.24071
G1 X96.782 Y120.412 E1.25273
G1 X96.846 Y120.128 E1.26176
G1 X96.962 Y119.860 E1.27078
G1 X97.125 Y119.619 E1.27981
G1 X97.332 Y119.412 E1.28884
G1 X97.577 Y119.246 E1.29798
G1 X97.691 Y118.914 F7800.000
G1 F1800.000 E0.29798
G92 E0
G1 X98.547 Y123.928 F7800.000
G1 E1.00000 F1800.000
G1 X98.712 Y123.913 E1.00513 F540.000
G1 X99.123 Y124.850 E1.03679
G1 X99.072 Y125.226 E1.04853
G1 X98.829 Y126.082 E1.07608
G1 X98.433 Y125.285 E1.10363
G1 X98.314 Y124.924 E1.11537
G1 X98.525 Y124.019 E1.14412
G1 X101.315 Y122.072 F7800.000
G1 X101.385 Y121.921 E1.14925 F540.000
G1 X102.401 Y122.033 E1.18089
G1 X102.698 Y122.262 E1.19250
G1 X103.312 Y122.898 E1.21984
G1 X102.431 Y122.848 E1.24714
G1 X102.063 Y122.772 E1.25879
G1 X101.384 Y122.136 E1.28757
G1 X101.090 Y118.745 F7800.000
G1 X100.994 Y118.610 E1.29269 F540.000
G1 X101.600 Y117.784 E1.32438
G1 X101.949 Y117.641 E1.33603
G1 X102.806 Y117.430 E1.36334
G1 X102.319 Y118.168 E1.39071
G1 X102.069 Y118.448 E1.40231
G1 X101.180 Y118.718 E1.43106
G1 X98.097 Y117.278 F7800.000
G1 X97.932 Y117.293 E1.43619 F540.000
G1 X97.520 Y116.357 E1.46785
G1 X97.571 Y115.981 E1.47959
G1 X97.814 Y115.124 E1.50714
G1 X98.210 Y115.921 E1.53470
G1 X98.329 Y116.282 E1.54644
G1 X98.118 Y117.187 E1.57519
G1 X95.328 Y119.135 F7800.000
G1 X95.259 Y119.285 E1.58032 F540.000
G1 X94.242 Y119.173 E1.61196
G1 X93.945 Y118.944 E1.62356
G1 X93.331 Y118.309 E1.65091
G1 X94.212 Y118.358 E1.67820
G1 X94.581 Y118.434 E1.68985
G1 X95.260 Y119.070 E1.71863
G1 X95.553 Y122.461 F7800.000
G1 X95.649 Y122.597 E1.72376 F540.000
G1 X95.043 Y123.422 E1.75544
G1 X94.695 Y123.565 E1.76709
G1 X93.838 Y123.775 E1.79439
G1 X94.325 Y123.038 E1.82172
G1 X94.574 Y122.758 E1.83332
G1 X95.464 Y122.488 E1.86208
G1 X95.499 Y121.825 F7800.000
G1 X95.324 Y121.178 E1.88280 F630.000
G1 X95.276 Y120.798 E1.89465
G1 X95.276 Y120.415 E1.90651
G1 X95.323 Y119.921 E1.92187
G1 X94.105 Y119.787 E1.95977
G1 X93.935 Y119.715 E1.96548
G1 X93.746 Y119.594 E1.97245
G1 X93.419 Y119.299 E1.98605
G1 X93.151 Y118.961 E1.99941
G1 X92.888 Y118.514 E2.01546
G1 X92.671 Y118.003 E2.03263
G1 X93.200 Y117.837 E2.04980
G1 X93.711 Y117.744 E2.06586
G1 X94.143 Y117.729 E2.07924
G1 X94.578 Y117.785 E2.09280
G1 X94.792 Y117.849 E2.09971
G1 X94.958 Y117.932 E2.10547
G1 X95.849 Y118.767 E2.14324
G1 X96.232 Y118.383 E2.16000
G1 X96.527 Y118.139 E2.17185
G1 X96.851 Y117.934 E2.18370
G1 X97.417 Y117.676 E2.20297
G1 X96.920 Y116.544 E2.24123
G1 X96.898 Y116.360 E2.24695
G1 X96.908 Y116.136 E2.25388
G1 X96.999 Y115.706 E2.26749
G1 X97.158 Y115.304 E2.28087
G1 X97.415 Y114.853 E2.29691
G1 X97.748 Y114.408 E2.31411
G1 X98.157 Y114.784 E2.33130
G1 X98.492 Y115.180 E2.34734
G1 X98.722 Y115.546 E2.36073
G1 X98.890 Y115.953 E2.37434
G1 X98.942 Y116.171 E2.38126
G1 X98.954 Y116.355 E2.38699
G1 X98.672 Y117.562 E2.42533
G1 X99.262 Y117.706 E2.44413
G1 X99.619 Y117.847 E2.45598
G1 X99.954 Y118.032 E2.46783
G1 X100.414 Y118.344 E2.48503
G1 X101.137 Y117.359 E2.52283
G1 X101.286 Y117.247 E2.52859
G1 X101.484 Y117.145 E2.53550
G1 X101.901 Y117.010 E2.54905
G1 X102.329 Y116.946 E2.56244
G1 X102.848 Y116.943 E2.57850
G1 X103.398 Y117.009 E2.59567
G1 X103.279 Y117.551 E2.61284
G1 X103.103 Y118.039 E2.62889
G1 X102.901 Y118.421 E2.64225
G1 X102.634 Y118.770 E2.65585
G1 X102.470 Y118.924 E2.66282
G1 X102.316 Y119.026 E2.66855
G1 X101.139 Y119.383 E2.70659
G1 X101.316 Y120.035 E2.72750
G1 X101.364 Y120.415 E2.73935
G1 X101.364 Y120.798 E2.75120
G1 X101.318 Y121.285 E2.76634
G1 X102.537 Y121.419 E2.80431
G1 X102.708 Y121.491 E2.81004
G1 X102.897 Y121.613 E2.81700
G1 X103.224 Y121.907 E2.83060
G1 X103.493 Y122.245 E2.84396
G1 X103.755 Y122.693 E2.86001
G1 X103.972 Y123.203 E2.87718
G1 X103.443 Y123.370 E2.89435
G1 X102.932 Y123.462 E2.91041
G1 X102.500 Y123.478 E2.92379
G1 X102.066 Y123.421 E2.93735
G1 X101.852 Y123.357 E2.94426
G1 X101.685 Y123.275 E2.95001
G1 X100.796 Y122.442 E2.98771
G1 X100.408 Y122.830 E3.00470
G1 X100.113 Y123.074 E3.01655
G1 X99.789 Y123.279 E3.02840
G1 X99.228 Y123.535 E3.04748
G1 X99.723 Y124.663 E3.08559
G1 X99.746 Y124.846 E3.09131
G1 X99.735 Y125.070 E3.09824
G1 X99.644 Y125.500 E3.11184
G1 X99.486 Y125.903 E3.12523
G1 X99.229 Y126.353 E3.14127
G1 X98.896 Y126.798 E3.15847
G1 X98.487 Y126.422 E3.17566
G1 X98.151 Y126.026 E3.19170
G1 X97.922 Y125.660 E3.20509
G1 X97.753 Y125.254 E3.21869
G1 X97.702 Y125.035 E3.22563
G1 X97.690 Y124.851 E3.23135
G1 X97.969 Y123.652 E3.26944
G1 X97.378 Y123.507 E3.28829
G1 X97.021 Y123.366 E3.30014
G1 X96.686 Y123.182 E3.31200
G1 X96.225 Y122.868 E3.32924
G1 X95.506 Y123.847 E3.36680
G1 X95.358 Y123.959 E3.37256
G1 X95.159 Y124.061 E3.37947
G1 X94.743 Y124.196 E3.39302
G1 X94.315 Y124.260 E3.40641
G1 X93.796 Y124.263 E3.42247
G1 X93.245 Y124.197 E3.43963
G1 X93.365 Y123.655 E3.45680
G1 X93.540 Y123.167 E3.47286
G1 X93.743 Y122.786 E3.48621
G1 X94.009 Y122.436 E3.49982
G1 X94.173 Y122.282 E3.50678
G1 X94.327 Y122.180 E3.51250
G1 X95.410 Y121.852 E3.54750
G1 X96.101 Y121.655 F7800.000
G1 F1800.000 E2.54750
G92 E0
G1 X95.000 Y105.156 F7800.000
G1 E1.00000 F1800.000
G1 X93.719 Y105.116 E1.03965 F900.000
G1 X92.443 Y104.995 E1.07930
G1 X91.178 Y104.795 E1.11896
G1 X89.927 Y104.515 E1.15861
G1 X88.696 Y104.158 E1.19826
G1 X87.490 Y103.724 E1.23791
G1 X86.314 Y103.215 E1.27756
G1 X85.173 Y102.633 E1.31722
G1 X84.069 Y101.980 E1.35687
G1 X83.009 Y101.260 E1.39652
G1 X81.997 Y100.475 E1.43617
G1 X81.036 Y99.627 E1.47582
G1 X80.129 Y98.721 E1.51548
G1 X79.282 Y97.760 E1.55513
G1 X78.496 Y96.747 E1.59478
G1 X77.776 Y95.687 E1.63443
G1 X77.124 Y94.584 E1.67408
G1 X76.542 Y93.442 E1.71374
G1 X76.033 Y92.266 E1.75339
G1 X75.599 Y91.060 E1.79304
G1 X75.241 Y89.830 E1.83269
G1 X74.962 Y88.579 E1.87234
G1 X74.761 Y87.313 E1.91200
G1 X74.641 Y86.038 E1.95165
G1 X74.601 Y84.757 E1.99130
G1 X74.641 Y83.476 E2.03095
G1 X74.761 Y82.200 E2.07060
G1 X74.962 Y80.934 E2.11026
G1 X75.241 Y79.684 E2.14991
G1 X75.599 Y78.453 E2.18956
G1 X76.033 Y77.247 E2.22921
G1 X76.542 Y76.071 E2.26886
G1 X77.124 Y74.929 E2.30852
G1 X77.776 Y73.826 E2.34817
G1 X78.496 Y72.766 E2.38782
G1 X79.282 Y71.754 E2.42747
G1 X80.129 Y70.792 E2.46712
G1 X81.036 Y69.886 E2.50678
G1 X81.997 Y69.039 E2.54643
G1 X83.009 Y68.253 E2.58608
G1 X84.069 Y67.533 E2.62573
G1 X85.172 Y66.881 E2.66538
G1 X86.314 Y66.299 E2.70504
G1 X87.490 Y65.790 E2.74469
G1 X88.696 Y65.356 E2.78434
G1 X89.927 Y64.998 E2.82399
G1 X91.178 Y64.719 E2.86364
G1 X92.443 Y64.518 E2.90330
G1 X93.719 Y64.397 E2.94295
G1 X95.000 Y64.357 E2.98260
G1 X96.281 Y64.397 E3.02225
G1 X97.557 Y64.518 E3.06190
G1 X98.822 Y64.719 E3.10156
G1 X100.073 Y64.998 E3.14121
G1 X101.304 Y65.356 E3.18086
G1 X102.510 Y65.790 E3.22051
G1 X103.686 Y66.299 E3.26016
G1 X104.827 Y66.881 E3.29982
G1 X105.931 Y67.533 E3.33947
G1 X106.991 Y68.253 E3.37912
G1 X108.003 Y69.039 E3.41877
G1 X108.964 Y69.886 E3.45842
G1 X109.871 Y70.792 E3.49808
G1 X110.718 Y71.754 E3.53773
G1 X111.504 Y72.766 E3.57738
G1 X112.224 Y73.826 E3.61703
G1 X112.876 Y74.929 E3.65668
G1 X113.458 Y76.071 E3.69634
G1 X113.967 Y77.247 E3.73599
G1 X114.401 Y78.453 E3.77564
G1 X114.759 Y79.684 E3.81529
G1 X115.038 Y80.934 E3.85494
G1 X115.239 Y82.200 E3.89460
G1 X115.359 Y83.476 E3.93425
G1 X115.399 Y84.757 E3.97390
G1 X115.359 Y86.037 E4.01355
G1 X115.239 Y87.313 E4.05320
G1 X115.038 Y88.579 E4.09286
G1 X114.759 Y89.830 E4.13251
G1 X114.401 Y91.060 E4.17216
G1 X113.967 Y92.266 E4.21181
G1 X113.458 Y93.442 E4.25146
G1 X112.876 Y94.584 E4.29112
G1 X112.224 Y95.687 E4.33077
G1 X111.504 Y96.747 E4.37042
G1 X110.718 Y97.760 E4.41007
G1 X109.871 Y98.721 E4.44972
G1 X108.964 Y99.627 E4.48938
G1 X108.003 Y100.475 E4.52903
G1 X106.991 Y101.260 E4.56868
G1 X105.931 Y101.980 E4.60833
G1 X104.828 Y102.633 E4.64798
G1 X103.686 Y103.215 E4.68764
G1 X102.510 Y103.724 E4.72729
G1 X101.304 Y104.158 E4.76694
G1 X100.073 Y104.515 E4.80659
G1 X98.822 Y104.795 E4.84624
G1 X97.557 Y104.995 E4.88590
G1 X96.281 Y105.116 E4.92555
G1 X95.094 Y105.153 E4.96230
G1 X95.000 Y105.781 F7800.000
G1 X93.680 Y105.740 E5.00317 F900.000
G1 X92.365 Y105.615 E5.04403
G1 X91.060 Y105.409 E5.08490
G1 X89.771 Y105.121 E5.12577
G1 X88.503 Y104.752 E5.16664
G1 X87.260 Y104.305 E5.20750
G1 X86.048 Y103.780 E5.24837
G1 X84.871 Y103.181 E5.28924
G1 X83.734 Y102.508 E5.33011
G1 X82.642 Y101.766 E5.37097
G1 X81.598 Y100.956 E5.41184
G1 X80.608 Y100.083 E5.45271
G1 X79.674 Y99.149 E5.49357
G1 X78.800 Y98.158 E5.53444
G1 X77.991 Y97.115 E5.57531
G1 X77.248 Y96.022 E5.61617
G1 X76.576 Y94.885 E5.65704
G1 X75.976 Y93.708 E5.69791
G1 X75.452 Y92.496 E5.73878
G1 X75.004 Y91.254 E5.77964
G1 X74.636 Y89.985 E5.82051
G1 X74.348 Y88.696 E5.86138
G1 X74.141 Y87.392 E5.90225
G1 X74.017 Y86.077 E5.94311
G1 X73.975 Y84.757 E5.98398
G1 X74.017 Y83.437 E6.02485
G1 X74.141 Y82.122 E6.06572
G1 X74.348 Y80.817 E6.10658
G1 X74.636 Y79.528 E6.14745
G1 X75.004 Y78.260 E6.18832
G1 X75.452 Y77.017 E6.22918
G1 X75.976 Y75.805 E6.27005
G1 X76.576 Y74.628 E6.31092
G1 X77.248 Y73.491 E6.35179
G1 X77.991 Y72.399 E6.39265
G1 X78.800 Y71.355 E6.43352
G1 X79.674 Y70.364 E6.47439
G1 X80.608 Y69.430 E6.51526
G1 X81.598 Y68.557 E6.55612
G1 X82.642 Y67.747 E6.59699
G1 X83.734 Y67.005 E6.63786
G1 X84.871 Y66.333 E6.67872
G1 X86.048 Y65.733 E6.71959
G1 X87.260 Y65.208 E6.76046
G1 X88.503 Y64.761 E6.80132
G1 X89.771 Y64.393 E6.84219
G1 X91.060 Y64.104 E6.88306
G1 X92.365 Y63.898 E6.92393
G1 X93.680 Y63.773 E6.96480
G1 X95.000 Y63.732 E7.00566
G1 X96.320 Y63.773 E7.04653
G1 X97.635 Y63.898 E7.08740
G1 X98.940 Y64.104 E7.12826
G1 X100.229 Y64.393 E7.16913
G1 X101.497 Y64.761 E7.21000
G1 X102.740 Y65.208 E7.25087
G1 X103.952 Y65.733 E7.29173
G1 X105.129 Y66.333 E7.33260
G1 X106.266 Y67.005 E7.37347
G1 X107.358 Y67.747 E7.41434
G1 X108.402 Y68.557 E7.45520
G1 X109.392 Y69.430 E7.49607
G1 X110.326 Y70.364 E7.53694
G1 X111.200 Y71.355 E7.57780
G1 X112.009 Y72.399 E7.61867
G1 X112.752 Y73.491 E7.65954
G1 X113.424 Y74.628 E7.70040
G1 X114.024 Y75.805 E7.74127
G1 X114.548 Y77.017 E7.78214
G1 X114.996 Y78.260 E7.82301
G1 X115.364 Y79.528 E7.86387
G1 X115.652 Y80.817 E7.90474
G1 X115.859 Y82.122 E7.94561
G1 X115.983 Y83.437 E7.98648
G1 X116.025 Y84.757 E8.02734
G1 X115.983 Y86.077 E8.06821
G1 X115.859 Y87.392 E8.10908
G1 X115.652 Y88.696 E8.14995
G1 X115.364 Y89.985 E8.19081
G1 X114.996 Y91.254 E8.23168
G1 X114.548 Y92.496 E8.27255
G1 X114.024 Y93.708 E8.31341
G1 X113.424 Y94.885 E8.35428
G1 X112.752 Y96.022 E8.39515
G1 X112.009 Y97.115 E8.43602
G1 X111.200 Y98.158 E8.47688
G1 X110.326 Y99.149 E8.51775
G1 X109.392 Y100.083 E8.55862
G1 X108.402 Y100.956 E8.59949
G1 X107.358 Y101.766 E8.64035
G1 X106.266 Y102.508 E8.68122
G1 X105.129 Y103.181 E8.72209
G1 X103.952 Y103.780 E8.76295
G1 X102.740 Y104.305 E8.80382
G1 X101.497 Y104.752 E8.84469
G1 X100.229 Y105.121 E8.88555
G1 X98.940 Y105.409 E8.92642
G1 X97.635 Y105.615 E8.96729
G1 X96.320 Y105.740 E9.00816
G1 X95.094 Y105.778 E9.04612
G1 X95.000 Y106.406 F7800.000
G1 X93.641 Y106.364 E9.08821 F630.000
G1 X92.287 Y106.236 E9.13029
G1 X90.943 Y106.023 E9.17237
G1 X89.616 Y105.726 E9.21445
G1 X88.310 Y105.347 E9.25654
G1 X87.030 Y104.886 E9.29862
G1 X85.782 Y104.346 E9.34070
G1 X84.570 Y103.728 E9.38278
G1 X83.399 Y103.036 E9.42487
G1 X82.275 Y102.272 E9.46695
G1 X81.200 Y101.438 E9.50903
G1 X80.180 Y100.539 E9.55111
G1 X79.218 Y99.577 E9.59320
G1 X78.319 Y98.557 E9.63528
G1 X77.485 Y97.482 E9.67736
G1 X76.720 Y96.357 E9.71944
G1 X76.028 Y95.187 E9.76153
G1 X75.411 Y93.975 E9.80361
G1 X74.870 Y92.726 E9.84569
G1 X74.410 Y91.447 E9.88777
G1 X74.030 Y90.141 E9.92986
G1 X73.734 Y88.813 E9.97194
G1 X73.521 Y87.470 E10.01402
G1 X73.393 Y86.116 E10.05610
G1 X73.350 Y84.757 E10.09819
G1 X73.393 Y83.397 E10.14027
