; generated by Slic3r 1.0.0RC3 on 2014-04-06 at 19:44:09

; layer_height = 0.25
; perimeters = 3
; top_solid_layers = 3
; bottom_solid_layers = 3
; fill_density = 0.2
; perimeter_speed = 50
; infill_speed = 70
; travel_speed = 130
; nozzle_diameter = 0.35
; filament_diameter = 3
; extrusion_multiplier = 1
; perimeters extrusion width = 0.35mm
; infill extrusion width = 0.39mm
; solid infill extrusion width = 0.39mm
; top infill extrusion width = 0.39mm
; first layer extrusion width = 0.70mm

G21 ; set units to millimeters
M107
G28 ; home all axes
G90 ; use absolute coordinates
G92 E0
M82 ; use absolute distances for extrusion
G1 F1800.000 E-1.00000
G1 Z1.400 F7800.000
G92 E0
G1 X67.410 Y58.300 F7800.000
G1 Z0.400 F7800.000
G1 E1.00000 F1800.000
G1 X68.110 Y57.500 E1.03289 F900.000
G1 X69.500 Y56.110 E1.09371
G1 X70.300 Y55.410 E1.12661
G1 X71.410 Y54.530 E1.17043
G1 X72.690 Y53.650 E1.21850
G1 X74.270 Y52.710 E1.27538
G1 X75.220 Y52.220 E1.30845
G1 X76.630 Y51.600 E1.35611
G1 X78.000 Y51.100 E1.40124
G1 X79.420 Y50.670 E1.44714
G1 X80.880 Y50.330 E1.49353
G1 X82.300 Y50.090 E1.53809
G1 X82.740 Y50.030 E1.55183
G1 X83.810 Y49.930 E1.58508
G1 X84.240 Y49.910 E1.59840
G1 X85.680 Y49.880 E1.64296
G1 X87.180 Y49.930 E1.68940
G1 X88.250 Y50.030 E1.72265
G1 X88.690 Y50.090 E1.73639
G1 X90.110 Y50.330 E1.78095
G1 X91.150 Y50.560 E1.81391
G1 X92.600 Y50.970 E1.86053
G1 X94.360 Y51.600 E1.91837
G1 X95.340 Y52.020 E1.95136
G1 X95.770 Y52.220 E1.96604
G1 X96.720 Y52.710 E1.99911
G1 X97.950 Y53.430 E2.04321
G1 X99.190 Y54.250 E2.08921
G1 X99.580 Y54.530 E2.10406
G1 X100.690 Y55.410 E2.14789
G1 X101.490 Y56.110 E2.18078
G1 X101.810 Y56.420 E2.19457
G1 X102.880 Y57.500 E2.24161
G1 X103.580 Y58.300 E2.27450
G1 X104.460 Y59.410 E2.31833
G1 X105.340 Y60.690 E2.36639
G1 X106.280 Y62.270 E2.42327
G1 X106.940 Y63.580 E2.46866
G1 X125.940 Y106.580 E3.92323
G1 X126.390 Y107.630 E3.95858
G1 X127.020 Y109.390 E4.01642
G1 X127.430 Y110.840 E4.06304
G1 X127.660 Y111.880 E4.09600
G1 X127.900 Y113.300 E4.14056
G1 X127.960 Y113.740 E4.15430
G1 X128.060 Y114.810 E4.18755
G1 X128.120 Y116.240 E4.23184
G1 X128.120 Y116.740 E4.24731
G1 X128.060 Y118.180 E4.29190
G1 X127.960 Y119.250 E4.32515
G1 X127.900 Y119.690 E4.33889
G1 X127.660 Y121.110 E4.38345
G1 X127.320 Y122.570 E4.42983
G1 X126.890 Y123.990 E4.47574
G1 X126.390 Y125.360 E4.52087
G1 X125.970 Y126.340 E4.55386
G1 X125.770 Y126.770 E4.56853
G1 X125.280 Y127.720 E4.60160
G1 X124.340 Y129.300 E4.65849
G1 X123.460 Y130.580 E4.70655
G1 X122.580 Y131.690 E4.75038
G1 X121.880 Y132.490 E4.78327
G1 X120.490 Y133.880 E4.84409
G1 X119.690 Y134.580 E4.87698
G1 X118.580 Y135.460 E4.92081
G1 X117.300 Y136.340 E4.96887
G1 X115.720 Y137.280 E5.02576
G1 X114.770 Y137.770 E5.05883
G1 X113.360 Y138.390 E5.10649
G1 X111.600 Y139.020 E5.16433
G1 X110.150 Y139.430 E5.21096
G1 X109.110 Y139.660 E5.24391
G1 X107.250 Y139.960 E5.30221
G1 X106.180 Y140.060 E5.33546
G1 X104.740 Y140.120 E5.38005
G1 X104.240 Y140.120 E5.39552
G1 X103.180 Y140.080 E5.42834
G1 X101.740 Y139.960 E5.47305
G1 X99.880 Y139.660 E5.53135
G1 X98.840 Y139.430 E5.56431
G1 X97.390 Y139.020 E5.61093
G1 X95.630 Y138.390 E5.66877
G1 X94.650 Y137.970 E5.70176
G1 X94.220 Y137.770 E5.71643
G1 X93.270 Y137.280 E5.74951
G1 X92.040 Y136.560 E5.79361
G1 X90.800 Y135.740 E5.83960
G1 X90.410 Y135.460 E5.85446
G1 X89.570 Y134.800 E5.88751
G1 X88.500 Y133.880 E5.93117
G1 X87.110 Y132.490 E5.99200
G1 X86.410 Y131.690 E6.02489
G1 X85.530 Y130.580 E6.06872
G1 X84.650 Y129.300 E6.11678
G1 X83.710 Y127.720 E6.17366
G1 X83.050 Y126.410 E6.21905
G1 X64.050 Y83.410 E7.67362
G1 X63.600 Y82.360 E7.70897
G1 X63.100 Y80.990 E7.75409
G1 X62.970 Y80.600 E7.76681
G1 X62.560 Y79.150 E7.81344
G1 X62.260 Y77.740 E7.85804
G1 X62.030 Y76.250 E7.90469
G1 X61.930 Y75.180 E7.93794
G1 X61.880 Y73.680 E7.98438
G1 X61.930 Y71.810 E8.04226
G1 X62.030 Y70.740 E8.07551
G1 X62.260 Y69.250 E8.12216
G1 X62.560 Y67.840 E8.16676
G1 X62.970 Y66.390 E8.21339
G1 X63.100 Y66.000 E8.22611
G1 X63.600 Y64.630 E8.27123
G1 X64.220 Y63.220 E8.31889
G1 X64.710 Y62.270 E8.35196
G1 X65.650 Y60.690 E8.40885
G1 X66.530 Y59.410 E8.45691
G1 X67.351 Y58.373 E8.49784
G1 F1800.000 E7.49784
G1 Z1.400 F7800.000
G92 E0
G1 X70.738 Y61.243 F7800.000
G1 Z0.400 F7800.000
G1 E1.00000 F1800.000
G1 X71.537 Y60.340 E1.03730 F900.000
G1 X72.340 Y59.537 E1.07247
G1 X73.243 Y58.738 E1.10976
G1 X74.194 Y57.998 E1.14706
G1 X75.248 Y57.281 E1.18648
G1 X76.287 Y56.670 E1.22377
G1 X77.299 Y56.154 E1.25894
G1 X78.469 Y55.648 E1.29836
G1 X79.538 Y55.263 E1.33354
G1 X80.695 Y54.924 E1.37083
G1 X81.939 Y54.646 E1.41026
G1 X83.129 Y54.460 E1.44754
G1 X84.261 Y54.353 E1.48272
G1 X85.534 Y54.313 E1.52214
G1 X86.739 Y54.353 E1.55944
G1 X87.871 Y54.460 E1.59461
G1 X89.129 Y54.659 E1.63403
G1 X90.305 Y54.924 E1.67132
G1 X91.396 Y55.241 E1.70649
G1 X92.595 Y55.673 E1.74591
G1 X93.638 Y56.124 E1.78108
G1 X94.713 Y56.670 E1.81838
G1 X95.810 Y57.318 E1.85780
G1 X96.750 Y57.957 E1.89297
G1 X97.704 Y58.694 E1.93027
G1 X98.660 Y59.537 E1.96968
G1 X99.463 Y60.340 E2.00486
G1 X100.262 Y61.243 E2.04215
G1 X101.002 Y62.194 E2.07945
G1 X101.682 Y63.190 E2.11674
G1 X102.330 Y64.287 E2.15616
G1 X102.876 Y65.362 E2.19346
G1 X103.327 Y66.405 E2.22863
G1 X103.759 Y67.604 E2.26805
G1 X104.093 Y68.762 E2.30535
G1 X104.341 Y69.871 E2.34052
G1 X104.540 Y71.129 E2.37993
G1 X104.647 Y72.261 E2.41510
G1 X104.687 Y73.466 E2.45241
G1 X104.647 Y74.739 E2.49183
G1 X104.531 Y75.939 E2.52912
G1 X104.341 Y77.129 E2.56642
G1 X104.093 Y78.238 E2.60159
G1 X103.759 Y79.396 E2.63888
G1 X103.327 Y80.595 E2.67830
G1 X102.846 Y81.701 E2.71560
G1 X102.330 Y82.713 E2.75077
G1 X101.682 Y83.810 E2.79019
G1 X101.043 Y84.750 E2.82536
G1 X100.306 Y85.704 E2.86266
G1 X99.463 Y86.660 E2.90207
G1 X98.609 Y87.510 E2.93937
G1 X97.704 Y88.306 E2.97667
G1 X96.750 Y89.043 E3.01396
G1 X95.810 Y89.682 E3.04913
G1 X94.713 Y90.330 E3.08855
G1 X93.701 Y90.846 E3.12372
G1 X92.595 Y91.327 E3.16102
G1 X91.396 Y91.759 E3.20044
G1 X90.238 Y92.093 E3.23774
G1 X89.129 Y92.341 E3.27291
G1 X87.871 Y92.540 E3.31232
G1 X86.739 Y92.647 E3.34749
G1 X85.534 Y92.687 E3.38479
G1 X84.261 Y92.647 E3.42422
G1 X83.061 Y92.531 E3.46151
G1 X81.871 Y92.341 E3.49881
G1 X80.762 Y92.093 E3.53398
G1 X79.604 Y91.759 E3.57127
G1 X78.405 Y91.327 E3.61069
G1 X77.362 Y90.876 E3.64586
G1 X76.287 Y90.330 E3.68316
G1 X75.190 Y89.682 E3.72258
G1 X74.250 Y89.043 E3.75775
G1 X73.296 Y88.306 E3.79505
G1 X72.340 Y87.463 E3.83446
G1 X71.490 Y86.609 E3.87176
G1 X70.694 Y85.704 E3.90906
G1 X69.957 Y84.750 E3.94635
G1 X69.318 Y83.810 E3.98152
G1 X68.670 Y82.713 E4.02094
G1 X68.124 Y81.638 E4.05824
G1 X67.673 Y80.595 E4.09341
G1 X67.241 Y79.396 E4.13283
G1 X66.924 Y78.305 E4.16800
G1 X66.659 Y77.129 E4.20530
G1 X66.460 Y75.871 E4.24471
G1 X66.353 Y74.739 E4.27988
G1 X66.313 Y73.534 E4.31718
G1 X66.353 Y72.261 E4.35661
G1 X66.469 Y71.061 E4.39390
G1 X66.646 Y69.939 E4.42907
G1 X66.924 Y68.695 E4.46849
G1 X67.263 Y67.538 E4.50579
G1 X67.648 Y66.469 E4.54096
G1 X68.154 Y65.299 E4.58038
G1 X68.703 Y64.226 E4.61767
G1 X69.281 Y63.248 E4.65284
G1 X69.957 Y62.250 E4.69014
G1 X70.679 Y61.316 E4.72666
G1 X71.182 Y61.687 F7800.000
G1 X71.985 Y60.775 E4.76425 F900.000
G1 X72.811 Y59.952 E4.80034
G1 X73.687 Y59.182 E4.83642
G1 X74.609 Y58.468 E4.87250
G1 X75.533 Y57.841 E4.90706
G1 X76.579 Y57.222 E4.94466
G1 X77.574 Y56.715 E4.97922
G1 X78.644 Y56.250 E5.01531
G1 X79.787 Y55.839 E5.05291
G1 X80.908 Y55.515 E5.08898
G1 X81.998 Y55.271 E5.12355
G1 X83.198 Y55.081 E5.16114
G1 X84.359 Y54.973 E5.19723
G1 X85.476 Y54.938 E5.23179
G1 X86.690 Y54.976 E5.26939
G1 X87.851 Y55.087 E5.30547
G1 X89.002 Y55.271 E5.34155
G1 X90.140 Y55.527 E5.37763
G1 X91.213 Y55.839 E5.41219
G1 X92.356 Y56.250 E5.44979
G1 X93.381 Y56.694 E5.48436
G1 X94.421 Y57.222 E5.52044
G1 X95.467 Y57.841 E5.55804
G1 X96.391 Y58.468 E5.59260
G1 X97.313 Y59.182 E5.62868
G1 X98.189 Y59.952 E5.66476
G1 X99.015 Y60.775 E5.70084
G1 X99.818 Y61.687 E5.73844
G1 X100.532 Y62.609 E5.77452
G1 X101.159 Y63.533 E5.80909
G1 X101.778 Y64.579 E5.84668
G1 X102.285 Y65.574 E5.88125
G1 X102.750 Y66.644 E5.91733
G1 X103.161 Y67.787 E5.95493
G1 X103.485 Y68.908 E5.99101
G1 X103.729 Y69.998 E6.02557
G1 X103.919 Y71.198 E6.06317
G1 X104.027 Y72.359 E6.09925
G1 X104.062 Y73.475 E6.13381
G1 X104.024 Y74.690 E6.17141
G1 X103.913 Y75.851 E6.20749
G1 X103.729 Y77.002 E6.24357
G1 X103.473 Y78.140 E6.27965
G1 X103.161 Y79.213 E6.31422
G1 X102.750 Y80.356 E6.35182
G1 X102.306 Y81.381 E6.38638
G1 X101.778 Y82.421 E6.42246
G1 X101.159 Y83.467 E6.46006
G1 X100.532 Y84.391 E6.49462
G1 X99.818 Y85.313 E6.53070
G1 X99.015 Y86.225 E6.56830
G1 X98.189 Y87.048 E6.60439
G1 X97.313 Y87.818 E6.64046
G1 X96.391 Y88.532 E6.67654
G1 X95.467 Y89.159 E6.71111
G1 X94.421 Y89.778 E6.74871
G1 X93.381 Y90.306 E6.78479
G1 X92.356 Y90.750 E6.81935
G1 X91.213 Y91.161 E6.85695
G1 X90.140 Y91.473 E6.89151
G1 X89.002 Y91.729 E6.92759
G1 X87.802 Y91.919 E6.96519
G1 X86.641 Y92.027 E7.00127
G1 X85.525 Y92.062 E7.03584
G1 X84.310 Y92.024 E7.07344
G1 X83.149 Y91.913 E7.10951
G1 X81.998 Y91.729 E7.14560
G1 X80.908 Y91.485 E7.18016
G1 X79.787 Y91.161 E7.21624
G1 X78.644 Y90.750 E7.25384
G1 X77.574 Y90.285 E7.28992
G1 X76.579 Y89.778 E7.32448
G1 X75.533 Y89.159 E7.36208
G1 X74.609 Y88.532 E7.39665
G1 X73.687 Y87.818 E7.43273
G1 X72.775 Y87.015 E7.47032
G1 X71.985 Y86.225 E7.50489
G1 X71.213 Y85.351 E7.54097
G1 X70.468 Y84.391 E7.57857
G1 X69.814 Y83.425 E7.61465
G1 X69.246 Y82.464 E7.64921
G1 X68.694 Y81.381 E7.68681
G1 X68.232 Y80.310 E7.72289
G1 X67.839 Y79.213 E7.75897
G1 X67.527 Y78.140 E7.79354
G1 X67.271 Y77.002 E7.82962
G1 X67.081 Y75.802 E7.86721
G1 X66.973 Y74.641 E7.90330
G1 X66.938 Y73.525 E7.93786
G1 X66.976 Y72.310 E7.97546
G1 X67.081 Y71.198 E8.01002
G1 X67.262 Y70.046 E8.04610
G1 X67.527 Y68.860 E8.08370
G1 X67.854 Y67.741 E8.11978
G1 X68.232 Y66.690 E8.15435
G1 X68.715 Y65.574 E8.19194
G1 X69.222 Y64.579 E8.22651
G1 X69.814 Y63.575 E8.26259
G1 X70.468 Y62.609 E8.29867
G1 X71.125 Y61.761 E8.33185
G1 X71.670 Y62.078 F7800.000
G1 X72.434 Y61.210 E8.36762 F900.000
G1 X73.232 Y60.414 E8.40249
G1 X74.055 Y59.688 E8.43645
G1 X74.945 Y58.997 E8.47131
G1 X75.876 Y58.363 E8.50618
G1 X76.872 Y57.774 E8.54196
G1 X77.849 Y57.276 E8.57591
G1 X78.883 Y56.828 E8.61078
G1 X79.971 Y56.436 E8.64656
G1 X81.025 Y56.130 E8.68051
G1 X82.124 Y55.883 E8.71538
G1 X83.266 Y55.702 E8.75115
G1 X84.359 Y55.599 E8.78511
G1 X85.485 Y55.563 E8.81998
G1 X86.641 Y55.599 E8.85576
G1 X87.763 Y55.706 E8.89062
G1 X88.876 Y55.883 E8.92549
G1 X89.947 Y56.123 E8.95944
G1 X91.029 Y56.436 E8.99431
G1 X92.117 Y56.828 E9.03008
G1 X93.124 Y57.263 E9.06404
G1 X94.128 Y57.774 E9.09891
G1 X95.124 Y58.363 E9.13468
G1 X96.031 Y58.980 E9.16864
G1 X96.922 Y59.670 E9.20351
G1 X97.790 Y60.434 E9.23928
G1 X98.586 Y61.232 E9.27415
G1 X99.312 Y62.055 E9.30810
G1 X100.003 Y62.945 E9.34297
G1 X100.637 Y63.876 E9.37784
G1 X101.226 Y64.872 E9.41361
G1 X101.737 Y65.876 E9.44848
G1 X102.172 Y66.883 E9.48244
G1 X102.564 Y67.971 E9.51821
G1 X102.877 Y69.053 E9.55308
G1 X103.117 Y70.124 E9.58703
G1 X103.298 Y71.266 E9.62281
G1 X103.401 Y72.359 E9.65677
G1 X103.437 Y73.485 E9.69163
G1 X103.401 Y74.641 E9.72741
G1 X103.294 Y75.763 E9.76228
G1 X103.117 Y76.876 E9.79714
G1 X102.877 Y77.947 E9.83110
G1 X102.564 Y79.029 E9.86596
G1 X102.172 Y80.117 E9.90174
G1 X101.724 Y81.151 E9.93661
G1 X101.226 Y82.128 E9.97056
G1 X100.637 Y83.124 E10.00634
G1 X100.020 Y84.031 E10.04030
G1 X99.330 Y84.922 E10.07516
G1 X98.566 Y85.790 E10.11094
G1 X97.790 Y86.566 E10.14490
G1 X96.945 Y87.312 E10.17976
G1 X96.055 Y88.003 E10.21463
G1 X95.124 Y88.637 E10.24949
G1 X94.128 Y89.226 E10.28527
G1 X93.151 Y89.724 E10.31923
G1 X92.117 Y90.172 E10.35409
G1 X91.029 Y90.564 E10.38987
G1 X89.947 Y90.877 E10.42473
G1 X88.876 Y91.117 E10.45869
G1 X87.734 Y91.298 E10.49447
G1 X86.641 Y91.401 E10.52842
G1 X85.515 Y91.437 E10.56329
G1 X84.359 Y91.401 E10.59907
G1 X83.237 Y91.294 E10.63393
G1 X82.124 Y91.117 E10.66880
G1 X81.053 Y90.877 E10.70275
G1 X79.971 Y90.564 E10.73762
G1 X78.883 Y90.172 E10.77340
G1 X77.876 Y89.737 E10.80735
G1 X76.872 Y89.226 E10.84222
G1 X75.876 Y88.637 E10.87800
G1 X74.969 Y88.020 E10.91195
G1 X74.078 Y87.330 E10.94682
G1 X73.210 Y86.566 E10.98259
G1 X72.434 Y85.790 E11.01655
G1 X71.688 Y84.945 E11.05142
G1 X70.980 Y84.031 E11.08719
G1 X70.347 Y83.099 E11.12206
G1 X69.788 Y82.154 E11.15602
G1 X69.263 Y81.124 E11.19179
G1 X68.817 Y80.089 E11.22666
G1 X68.436 Y79.029 E11.26153
G1 X68.123 Y77.947 E11.29639
G1 X67.883 Y76.876 E11.33035
G1 X67.702 Y75.734 E11.36612
G1 X67.599 Y74.641 E11.40008
G1 X67.563 Y73.515 E11.43495
G1 X67.599 Y72.359 E11.47072
G1 X67.702 Y71.266 E11.50468
G1 X67.878 Y70.153 E11.53954
G1 X68.130 Y69.025 E11.57532
G1 X68.445 Y67.943 E11.61019
G1 X68.817 Y66.910 E11.64414
G1 X69.276 Y65.849 E11.67992
G1 X69.774 Y64.872 E11.71388
G1 X70.347 Y63.901 E11.74874
G1 X70.980 Y62.969 E11.78361
G1 X71.612 Y62.152 E11.81558
G1 X72.157 Y62.468 F7800.000
G1 X72.883 Y61.645 E11.84953 F900.000
G1 X73.652 Y60.876 E11.88318
G1 X74.461 Y60.164 E11.91653
G1 X75.320 Y59.497 E11.95018
G1 X76.219 Y58.885 E11.98383
G1 X77.164 Y58.327 E12.01779
G1 X78.124 Y57.837 E12.05114
G1 X79.122 Y57.405 E12.08479
G1 X80.155 Y57.033 E12.11874
G1 X81.190 Y56.733 E12.15209
G1 X82.251 Y56.495 E12.18574
G1 X83.335 Y56.324 E12.21970
G1 X84.418 Y56.221 E12.25335
G1 X85.495 Y56.188 E12.28670
G1 X86.592 Y56.222 E12.32065
G1 X87.675 Y56.325 E12.35430
G1 X88.749 Y56.495 E12.38796
G1 X89.810 Y56.733 E12.42161
G1 X90.845 Y57.033 E12.45495
G1 X91.878 Y57.405 E12.48891
G1 X92.867 Y57.833 E12.52226
G1 X93.836 Y58.327 E12.55591
G1 X94.781 Y58.885 E12.58986
G1 X95.680 Y59.497 E12.62352
G1 X96.532 Y60.157 E12.65687
G1 X97.355 Y60.883 E12.69082
G1 X98.124 Y61.652 E12.72447
G1 X98.836 Y62.461 E12.75782
G1 X99.503 Y63.320 E12.79147
G1 X100.115 Y64.219 E12.82512
G1 X100.673 Y65.164 E12.85908
G1 X101.163 Y66.124 E12.89243
G1 X101.595 Y67.122 E12.92608
G1 X101.967 Y68.155 E12.96003
G1 X102.267 Y69.190 E12.99338
G1 X102.505 Y70.251 E13.02703
G1 X102.676 Y71.335 E13.06099
G1 X102.779 Y72.418 E13.09464
G1 X102.812 Y73.495 E13.12799
G1 X102.778 Y74.592 E13.16194
G1 X102.675 Y75.675 E13.19559
G1 X102.505 Y76.749 E13.22925
G1 X102.267 Y77.810 E13.26290
G1 X101.967 Y78.845 E13.29624
G1 X101.595 Y79.878 E13.33020
G1 X101.167 Y80.867 E13.36355
G1 X100.673 Y81.836 E13.39720
G1 X100.115 Y82.781 E13.43116
G1 X99.503 Y83.680 E13.46481
G1 X98.843 Y84.532 E13.49816
G1 X98.117 Y85.355 E13.53211
G1 X97.348 Y86.124 E13.56576
G1 X96.539 Y86.836 E13.59911
G1 X95.680 Y87.503 E13.63276
G1 X94.781 Y88.115 E13.66641
G1 X93.836 Y88.673 E13.70037
G1 X92.867 Y89.167 E13.73402
G1 X91.878 Y89.595 E13.76737
G1 X90.845 Y89.967 E13.80132
G1 X89.810 Y90.267 E13.83467
G1 X88.749 Y90.505 E13.86832
G1 X87.665 Y90.676 E13.90228
G1 X86.582 Y90.779 E13.93593
G1 X85.505 Y90.812 E13.96928
G1 X84.408 Y90.778 E14.00323
G1 X83.335 Y90.676 E14.03658
G1 X82.261 Y90.507 E14.07023
G1 X81.199 Y90.270 E14.10388
G1 X80.155 Y89.967 E14.13753
G1 X79.122 Y89.595 E14.17149
G1 X78.124 Y89.163 E14.20514
G1 X77.164 Y88.673 E14.23849
G1 X76.219 Y88.115 E14.27245
G1 X75.328 Y87.509 E14.30579
G1 X74.468 Y86.843 E14.33945
G1 X73.645 Y86.117 E14.37340
G1 X72.883 Y85.355 E14.40675
G1 X72.164 Y84.539 E14.44040
G1 X71.497 Y83.680 E14.47405
G1 X70.885 Y82.781 E14.50770
G1 X70.327 Y81.836 E14.54166
G1 X69.833 Y80.867 E14.57531
G1 X69.405 Y79.878 E14.60866
G1 X69.033 Y78.845 E14.64261
G1 X68.733 Y77.810 E14.67596
G1 X68.495 Y76.749 E14.70961
G1 X68.324 Y75.665 E14.74357
G1 X68.221 Y74.582 E14.77722
G1 X68.188 Y73.505 E14.81057
G1 X68.222 Y72.408 E14.84452
G1 X68.324 Y71.335 E14.87787
G1 X68.493 Y70.261 E14.91152
G1 X68.733 Y69.190 E14.94548
G1 X69.036 Y68.145 E14.97913
G1 X69.401 Y67.131 E15.01248
G1 X69.837 Y66.124 E15.04643
G1 X70.331 Y65.155 E15.08008
G1 X70.880 Y64.228 E15.11343
G1 X71.491 Y63.328 E15.14708
G1 X72.100 Y62.542 E15.17784
G1 F1800.000 E14.17784
G1 Z1.400 F7800.000
G92 E0
G1 X94.248 Y100.281 F7800.000
G1 Z0.400 F7800.000
G1 E1.00000 F1800.000
G1 X95.226 Y99.703 E1.03517 F900.000
