; generated by Slic3r 1.0.0RC3 on 2014-04-05 at 06:55:01

; layer_height = 0.25
; perimeters = 3
; top_solid_layers = 3
; bottom_solid_layers = 3
; fill_density = 0.2
; perimeter_speed = 50
; infill_speed = 70
; travel_speed = 130
; nozzle_diameter = 0.35
; filament_diameter = 3
; extrusion_multiplier = 1
; perimeters extrusion width = 0.35mm
; infill extrusion width = 0.39mm
; solid infill extrusion width = 0.39mm
; top infill extrusion width = 0.39mm
; first layer extrusion width = 0.70mm

G21 ; set units to millimeters
M107
G28 ; home all axes
G90 ; use absolute coordinates
G92 E0
M82 ; use absolute distances for extrusion
G1 F1800.000 E-1.00000
G92 E0
G1 Z0.350 F7800.000
G1 X67.410 Y59.300 F7800.000
G1 E1.00000 F1800.000
G1 X68.110 Y58.500 E1.03289 F900.000
G1 X69.500 Y57.110 E1.09371
G1 X70.300 Y56.410 E1.12661
G1 X71.410 Y55.530 E1.17043
G1 X72.690 Y54.650 E1.21850
G1 X74.270 Y53.710 E1.27538
G1 X75.220 Y53.220 E1.30845
G1 X76.630 Y52.600 E1.35611
G1 X78.000 Y52.100 E1.40124
G1 X79.420 Y51.670 E1.44714
G1 X80.880 Y51.330 E1.49353
G1 X82.300 Y51.090 E1.53809
G1 X82.740 Y51.030 E1.55183
G1 X83.810 Y50.930 E1.58508
G1 X84.240 Y50.910 E1.59840
G1 X85.680 Y50.880 E1.64296
G1 X87.180 Y50.930 E1.68940
G1 X88.250 Y51.030 E1.72265
G1 X88.690 Y51.090 E1.73639
G1 X90.110 Y51.330 E1.78095
G1 X91.150 Y51.560 E1.81391
G1 X92.600 Y51.970 E1.86053
G1 X94.360 Y52.600 E1.91837
G1 X95.340 Y53.020 E1.95136
G1 X95.770 Y53.220 E1.96604
G1 X96.720 Y53.710 E1.99911
G1 X97.950 Y54.430 E2.04321
G1 X99.190 Y55.250 E2.08921
G1 X99.580 Y55.530 E2.10406
G1 X100.690 Y56.410 E2.14789
G1 X101.490 Y57.110 E2.18078
G1 X101.810 Y57.420 E2.19457
G1 X102.850 Y58.470 E2.24029
G1 X103.570 Y59.290 E2.27406
G1 X104.460 Y60.410 E2.31832
G1 X105.340 Y61.690 E2.36638
G1 X106.280 Y63.270 E2.42327
G1 X106.890 Y64.470 E2.46492
G1 X125.890 Y105.470 E3.86311
G1 X126.390 Y106.630 E3.90220
G1 X127.020 Y108.390 E3.96004
G1 X127.430 Y109.840 E4.00666
G1 X127.730 Y111.250 E4.05126
G1 X127.960 Y112.740 E4.09791
G1 X128.060 Y113.810 E4.13116
G1 X128.120 Y115.240 E4.17545
G1 X128.120 Y115.740 E4.19092
G1 X128.080 Y116.810 E4.22405
G1 X127.960 Y118.250 E4.26876
G1 X127.660 Y120.110 E4.32705
G1 X127.320 Y121.570 E4.37344
G1 X126.890 Y122.990 E4.41934
G1 X126.390 Y124.360 E4.46447
G1 X125.970 Y125.340 E4.49746
G1 X125.770 Y125.770 E4.51213
G1 X125.280 Y126.720 E4.54521
G1 X124.340 Y128.300 E4.60209
G1 X123.460 Y129.580 E4.65015
G1 X122.580 Y130.690 E4.69398
G1 X121.880 Y131.490 E4.72687
G1 X120.490 Y132.880 E4.78770
G1 X119.690 Y133.580 E4.82059
G1 X118.580 Y134.460 E4.86442
G1 X117.300 Y135.340 E4.91248
G1 X115.720 Y136.280 E4.96936
G1 X114.770 Y136.770 E5.00244
G1 X113.360 Y137.390 E5.05010
G1 X111.600 Y138.020 E5.10794
G1 X110.150 Y138.430 E5.15456
G1 X109.110 Y138.660 E5.18752
G1 X107.250 Y138.960 E5.24581
G1 X106.180 Y139.060 E5.27906
G1 X104.680 Y139.110 E5.32550
G1 X102.810 Y139.060 E5.38338
G1 X101.740 Y138.960 E5.41663
G1 X99.880 Y138.660 E5.47493
G1 X98.840 Y138.430 E5.50788
G1 X97.390 Y138.020 E5.55451
G1 X95.630 Y137.390 E5.61235
G1 X94.650 Y136.970 E5.64534
G1 X94.220 Y136.770 E5.66001
G1 X93.270 Y136.280 E5.69309
G1 X92.040 Y135.560 E5.73718
G1 X90.800 Y134.740 E5.78318
G1 X90.410 Y134.460 E5.79804
G1 X89.570 Y133.800 E5.83109
G1 X88.470 Y132.850 E5.87606
G1 X87.110 Y131.490 E5.93557
G1 X86.410 Y130.690 E5.96846
G1 X85.530 Y129.580 E6.01229
G1 X84.650 Y128.300 E6.06035
G1 X83.710 Y126.720 E6.11724
G1 X83.100 Y125.520 E6.15889
G1 X64.100 Y84.520 E7.55708
G1 X63.600 Y83.360 E7.59617
G1 X63.100 Y81.990 E7.64129
G1 X62.970 Y81.600 E7.65401
G1 X62.560 Y80.150 E7.70063
G1 X62.260 Y78.740 E7.74524
G1 X62.030 Y77.250 E7.79189
G1 X61.930 Y76.180 E7.82514
G1 X61.880 Y74.680 E7.87158
G1 X61.930 Y72.810 E7.92946
G1 X62.030 Y71.740 E7.96271
G1 X62.260 Y70.250 E8.00936
G1 X62.560 Y68.840 E8.05396
G1 X62.970 Y67.390 E8.10058
G1 X63.100 Y67.000 E8.11330
G1 X63.600 Y65.630 E8.15843
G1 X64.220 Y64.220 E8.20609
G1 X64.710 Y63.270 E8.23916
G1 X65.650 Y61.690 E8.29605
G1 X66.530 Y60.410 E8.34411
G1 X67.351 Y59.373 E8.38504
G1 F1800.000 E7.38504
G92 E0
G1 X104.177 Y105.756 F7800.000
G1 E1.00000 F1800.000
G1 X104.592 Y105.435 E1.01623 F630.000
G1 X105.026 Y105.140 E1.03246
G1 X105.477 Y104.873 E1.04869
G1 X105.945 Y104.635 E1.06492
G1 X106.426 Y104.426 E1.08115
G1 X106.920 Y104.248 E1.09739
G1 X107.423 Y104.102 E1.11362
G1 X107.935 Y103.988 E1.12985
G1 X108.453 Y103.906 E1.14608
G1 X108.976 Y103.856 E1.16231
G1 X109.500 Y103.840 E1.17854
G1 X110.024 Y103.856 E1.19477
G1 X110.547 Y103.906 E1.21100
G1 X111.065 Y103.988 E1.22723
G1 X111.577 Y104.102 E1.24346
G1 X112.080 Y104.248 E1.25969
G1 X112.574 Y104.426 E1.27593
G1 X113.055 Y104.635 E1.29216
G1 X113.718 Y104.972 E1.31517
G1 X113.718 Y104.988 E1.31567
G1 X114.408 Y105.435 E1.34109
G1 X114.823 Y105.756 E1.35733
G1 X115.216 Y106.103 E1.37356
G1 X115.587 Y106.474 E1.38979
G1 X115.934 Y106.867 E1.40602
G1 X116.255 Y107.282 E1.42225
G1 X116.550 Y107.716 E1.43848
G1 X116.817 Y108.167 E1.45471
G1 X117.055 Y108.635 E1.47094
G1 X117.422 Y109.481 E1.49947
G1 X115.920 Y109.145 E1.54709
G1 X114.887 Y108.981 E1.57945
G1 X113.845 Y108.883 E1.61181
G1 X112.800 Y108.850 E1.64418
G1 X111.755 Y108.883 E1.67654
G1 X110.713 Y108.981 E1.70890
G1 X109.680 Y109.145 E1.74127
G1 X108.659 Y109.373 E1.77363
G1 X107.655 Y109.665 E1.80600
G1 X106.671 Y110.019 E1.83836
G1 X105.711 Y110.435 E1.87072
G1 X104.779 Y110.910 E1.90309
G1 X103.879 Y111.442 E1.93545
G1 X103.013 Y112.030 E1.96781
G1 X102.187 Y112.671 E2.00018
G1 X101.193 Y113.548 E2.04120
G1 X101.150 Y112.190 E2.08323
G1 X101.166 Y111.666 E2.09946
G1 X101.216 Y111.143 E2.11569
G1 X101.298 Y110.625 E2.13192
G1 X101.412 Y110.113 E2.14815
G1 X101.559 Y109.610 E2.16439
G1 X101.736 Y109.116 E2.18062
G1 X101.945 Y108.635 E2.19685
G1 X102.183 Y108.167 E2.21308
G1 X102.450 Y107.716 E2.22931
G1 X102.745 Y107.282 E2.24554
G1 X103.066 Y106.867 E2.26177
G1 X103.413 Y106.474 E2.27800
G1 X103.784 Y106.103 E2.29423
G1 X104.107 Y105.818 E2.30756
G1 X104.095 Y105.238 F7800.000
G1 F1800.000 E1.30756
G92 E0
G1 X107.114 Y111.243 F7800.000
G1 E1.00000 F1800.000
G1 X108.057 Y110.901 E1.03103 F630.000
G1 X108.983 Y110.632 E1.06086
G1 X109.924 Y110.422 E1.09070
G1 X110.876 Y110.271 E1.12054
G1 X111.836 Y110.180 E1.15038
G1 X112.800 Y110.150 E1.18021
G1 X113.764 Y110.180 E1.21005
G1 X114.686 Y110.267 E1.23870
G1 X115.676 Y110.422 E1.26972
G1 X116.617 Y110.632 E1.29956
G1 X117.768 Y110.966 E1.33662
G1 X117.834 Y111.666 E1.35836
G1 X117.850 Y112.190 E1.37459
G1 X117.834 Y112.714 E1.39082
G1 X117.784 Y113.237 E1.40705
G1 X117.702 Y113.755 E1.42328
G1 X117.588 Y114.267 E1.43951
G1 X117.442 Y114.770 E1.45574
G1 X117.264 Y115.264 E1.47198
G1 X117.055 Y115.745 E1.48821
G1 X116.817 Y116.213 E1.50444
G1 X116.550 Y116.664 E1.52067
G1 X116.255 Y117.098 E1.53690
G1 X115.934 Y117.513 E1.55313
G1 X115.587 Y117.906 E1.56936
G1 X115.216 Y118.277 E1.58559
G1 X114.823 Y118.624 E1.60182
G1 X114.408 Y118.945 E1.61805
G1 X113.974 Y119.240 E1.63428
G1 X113.523 Y119.507 E1.65052
G1 X113.055 Y119.745 E1.66675
G1 X112.574 Y119.954 E1.68298
G1 X112.080 Y120.131 E1.69921
G1 X111.577 Y120.278 E1.71544
G1 X111.065 Y120.392 E1.73167
G1 X110.547 Y120.474 E1.74790
G1 X110.024 Y120.524 E1.76413
G1 X109.500 Y120.540 E1.78036
G1 X108.976 Y120.524 E1.79659
G1 X108.453 Y120.474 E1.81282
G1 X107.935 Y120.392 E1.82905
G1 X107.423 Y120.278 E1.84529
G1 X106.920 Y120.131 E1.86152
G1 X106.426 Y119.954 E1.87775
G1 X105.945 Y119.745 E1.89398
G1 X104.923 Y119.225 E1.92945
G1 X105.844 Y118.894 E1.95973
G1 X106.258 Y118.698 E1.97391
G1 X106.645 Y118.453 E1.98809
G1 X106.998 Y118.161 E2.00227
G1 X107.312 Y117.826 E2.01645
G1 X107.582 Y117.456 E2.03064
G1 X107.802 Y117.054 E2.04482
G1 X107.894 Y116.844 E2.05191
G1 X108.035 Y116.408 E2.06609
G1 X108.085 Y116.184 E2.07319
G1 X108.143 Y115.729 E2.08737
G1 X108.143 Y115.271 E2.10155
G1 X108.121 Y115.043 E2.10865
G1 X108.085 Y114.816 E2.11574
G1 X107.971 Y114.372 E2.12992
G1 X107.894 Y114.156 E2.13702
G1 X107.698 Y113.742 E2.15120
G1 X107.453 Y113.355 E2.16538
G1 X107.312 Y113.174 E2.17248
G1 X107.161 Y113.002 E2.17957
G1 X106.826 Y112.688 E2.19375
G1 X106.456 Y112.418 E2.20793
G1 X105.586 Y111.904 E2.23919
G1 X107.028 Y111.280 E2.28779
G1 X107.211 Y110.626 F7800.000
G1 F1800.000 E1.28779
G92 E0
G1 X101.693 Y106.518 F7800.000
G1 E1.00000 F1800.000
G1 X101.352 Y107.019 E1.01876 F630.000
G1 X101.044 Y107.541 E1.03751
G1 X100.769 Y108.081 E1.05627
G1 X100.528 Y108.638 E1.07503
G1 X100.322 Y109.208 E1.09379
G1 X100.153 Y109.790 E1.11254
G1 X100.021 Y110.382 E1.13130
G1 X99.926 Y110.981 E1.15006
G1 X99.869 Y111.584 E1.16881
G1 X99.850 Y112.190 E1.18757
G1 X99.869 Y112.796 E1.20633
G1 X99.926 Y113.399 E1.22508
G1 X100.021 Y113.998 E1.24384
G1 X100.169 Y114.662 E1.26489
G1 X99.971 Y114.887 E1.27417
G1 X99.330 Y115.713 E1.30653
G1 X98.742 Y116.579 E1.33890
G1 X98.210 Y117.479 E1.37126
G1 X97.735 Y118.411 E1.40362
G1 X97.319 Y119.371 E1.43599
G1 X96.965 Y120.355 E1.46835
G1 X96.673 Y121.359 E1.50071
G1 X96.445 Y122.380 E1.53308
G1 X96.281 Y123.413 E1.56544
G1 X96.183 Y124.455 E1.59781
G1 X96.150 Y125.500 E1.63017
G1 X96.183 Y126.545 E1.66253
G1 X96.281 Y127.587 E1.69490
G1 X96.437 Y128.571 E1.72572
G1 X95.477 Y127.919 E1.76163
G1 X94.715 Y127.328 E1.79147
G1 X93.992 Y126.690 E1.82130
G1 X93.310 Y126.008 E1.85114
G1 X92.672 Y125.285 E1.88098
G1 X92.081 Y124.523 E1.91082
G1 X91.539 Y123.725 E1.94065
G1 X91.049 Y122.895 E1.97049
G1 X90.611 Y122.036 E2.00033
G1 X90.228 Y121.151 E2.03016
G1 X89.901 Y120.243 E2.06000
G1 X89.632 Y119.317 E2.08984
G1 X89.422 Y118.376 E2.11968
G1 X89.271 Y117.424 E2.14951
G1 X89.179 Y116.425 E2.18054
G1 X89.150 Y115.500 E2.20919
G1 X89.180 Y114.536 E2.23902
G1 X89.271 Y113.576 E2.26886
G1 X89.422 Y112.624 E2.29870
G1 X89.632 Y111.683 E2.32854
G1 X89.901 Y110.757 E2.35837
G1 X90.228 Y109.849 E2.38821
G1 X90.611 Y108.964 E2.41805
G1 X91.049 Y108.105 E2.44789
G1 X91.539 Y107.275 E2.47772
G1 X92.081 Y106.477 E2.50756
G1 X92.672 Y105.715 E2.53740
G1 X93.310 Y104.992 E2.56724
G1 X93.992 Y104.310 E2.59707
G1 X94.715 Y103.672 E2.62691
G1 X95.477 Y103.081 E2.65675
G1 X96.275 Y102.539 E2.68658
G1 X97.072 Y102.068 E2.71523
G1 X97.964 Y101.611 E2.74626
G1 X98.849 Y101.228 E2.77609
G1 X99.687 Y100.926 E2.80365
G1 X100.683 Y100.632 E2.83576
G1 X101.624 Y100.422 E2.86560
G1 X102.576 Y100.271 E2.89544
G1 X103.536 Y100.180 E2.92528
G1 X104.500 Y100.150 E2.95511
G1 X105.425 Y100.179 E2.98376
G1 X106.424 Y100.271 E3.01479
G1 X107.376 Y100.422 E3.04462
G1 X108.317 Y100.632 E3.07446
G1 X109.243 Y100.901 E3.10430
G1 X110.151 Y101.228 E3.13414
G1 X111.036 Y101.611 E3.16397
G1 X112.242 Y102.225 E3.20587
G1 X112.011 Y102.868 E3.22700
G1 X111.308 Y102.711 E3.24928
G1 X110.709 Y102.616 E3.26804
G1 X110.106 Y102.559 E3.28679
G1 X109.500 Y102.540 E3.30555
G1 X108.894 Y102.559 E3.32431
G1 X108.291 Y102.616 E3.34306
G1 X107.692 Y102.711 E3.36182
G1 X107.100 Y102.843 E3.38058
G1 X106.518 Y103.012 E3.39934
G1 X105.948 Y103.218 E3.41809
G1 X105.391 Y103.459 E3.43685
G1 X104.851 Y103.734 E3.45561
G1 X104.329 Y104.042 E3.47436
G1 X103.828 Y104.383 E3.49312
G1 X103.349 Y104.755 E3.51188
G1 X102.894 Y105.156 E3.53064
G1 X102.466 Y105.584 E3.54939
G1 X102.065 Y106.039 E3.56815
G1 X101.751 Y106.444 E3.58401
G1 X101.945 Y107.069 F7800.000
G1 X100.655 Y116.075 F7800.000
G1 X101.044 Y116.839 E3.61052 F630.000
G1 X101.352 Y117.361 E3.62928
G1 X101.693 Y117.862 E3.64804
G1 X102.065 Y118.341 E3.66679
G1 X102.466 Y118.796 E3.68555
G1 X102.894 Y119.224 E3.70431
G1 X103.349 Y119.625 E3.72307
G1 X103.828 Y119.997 E3.74182
G1 X104.329 Y120.338 E3.76058
G1 X104.851 Y120.646 E3.77934
G1 X105.391 Y120.921 E3.79810
G1 X105.948 Y121.162 E3.81685
G1 X106.518 Y121.368 E3.83561
G1 X107.100 Y121.537 E3.85437
G1 X107.692 Y121.669 E3.87312
G1 X108.291 Y121.764 E3.89188
G1 X108.894 Y121.821 E3.91064
G1 X109.500 Y121.840 E3.92940
G1 X110.106 Y121.821 E3.94815
G1 X110.709 Y121.764 E3.96691
G1 X111.308 Y121.669 E3.98567
G1 X111.900 Y121.537 E4.00442
G1 X112.482 Y121.368 E4.02318
G1 X113.052 Y121.162 E4.04194
G1 X113.609 Y120.921 E4.06070
G1 X114.149 Y120.646 E4.07945
G1 X114.671 Y120.338 E4.09821
G1 X115.172 Y119.997 E4.11697
G1 X115.651 Y119.625 E4.13572
G1 X116.106 Y119.224 E4.15448
G1 X116.534 Y118.796 E4.17324
G1 X116.935 Y118.341 E4.19199
G1 X117.307 Y117.862 E4.21075
G1 X117.648 Y117.361 E4.22951
G1 X117.956 Y116.839 E4.24827
G1 X118.231 Y116.299 E4.26702
G1 X118.472 Y115.742 E4.28578
G1 X118.678 Y115.172 E4.30454
G1 X118.847 Y114.590 E4.32329
G1 X118.979 Y113.998 E4.34205
G1 X119.047 Y113.566 E4.35560
G1 X119.730 Y113.587 E4.37674
G1 X119.820 Y114.536 E4.40624
G1 X119.850 Y115.500 E4.43607
G1 X119.820 Y116.464 E4.46591
G1 X119.729 Y117.424 E4.49575
G1 X119.578 Y118.376 E4.52559
G1 X119.368 Y119.317 E4.55542
G1 X119.099 Y120.243 E4.58526
G1 X118.772 Y121.151 E4.61510
G1 X118.389 Y122.036 E4.64494
G1 X117.951 Y122.895 E4.67477
G1 X117.461 Y123.725 E4.70461
G1 X116.919 Y124.523 E4.73445
G1 X116.328 Y125.285 E4.76429
G1 X115.690 Y126.008 E4.79412
G1 X115.008 Y126.690 E4.82396
G1 X114.285 Y127.328 E4.85380
G1 X113.523 Y127.919 E4.88364
G1 X112.725 Y128.461 E4.91347
G1 X111.895 Y128.951 E4.94331
G1 X111.036 Y129.389 E4.97315
G1 X110.151 Y129.772 E5.00298
G1 X109.243 Y130.099 E5.03282
G1 X108.317 Y130.368 E5.06266
G1 X107.376 Y130.578 E5.09250
G1 X106.424 Y130.729 E5.12233
G1 X105.464 Y130.820 E5.15217
G1 X104.500 Y130.850 E5.18201
G1 X103.536 Y130.820 E5.21185
G1 X102.576 Y130.729 E5.24168
G1 X101.624 Y130.578 E5.27152
G1 X100.683 Y130.368 E5.30136
G1 X99.757 Y130.099 E5.33119
G1 X98.849 Y129.772 E5.36103
G1 X97.946 Y129.382 E5.39147
G1 X97.722 Y128.376 E5.42334
G1 X97.571 Y127.424 E5.45318
G1 X97.480 Y126.464 E5.48301
G1 X97.450 Y125.500 E5.51285
G1 X97.480 Y124.536 E5.54269
G1 X97.571 Y123.576 E5.57253
G1 X97.722 Y122.624 E5.60236
G1 X97.932 Y121.683 E5.63220
G1 X98.201 Y120.757 E5.66204
G1 X98.528 Y119.849 E5.69188
G1 X98.911 Y118.964 E5.72171
G1 X99.349 Y118.105 E5.75155
G1 X99.839 Y117.275 E5.78139
G1 X100.602 Y116.153 E5.82337
G1 X101.156 Y115.703 F7800.000
G1 X101.486 Y114.955 F7800.000
G1 X102.984 Y113.635 E5.88514 F540.000
G1 X103.748 Y113.042 E5.91507
G1 X104.356 Y112.629 E5.93781
G1 X105.786 Y113.474 E5.98920
G1 X106.029 Y113.651 E5.99852
G1 X106.349 Y113.971 E6.01249
G1 X106.603 Y114.344 E6.02647
G1 X106.782 Y114.759 E6.04044
G1 X106.857 Y115.050 E6.04976
G1 X106.895 Y115.349 E6.05909
G1 X106.881 Y115.801 E6.07306
G1 X106.782 Y116.241 E6.08703
G1 X106.603 Y116.656 E6.10101
G1 X106.349 Y117.029 E6.11498
G1 X106.029 Y117.349 E6.12895
G1 X105.786 Y117.526 E6.13828
G1 X105.383 Y117.731 E6.15225
G1 X103.755 Y118.317 E6.20581
G1 X103.377 Y117.940 E6.22233
G1 X103.028 Y117.544 E6.23866
G1 X102.705 Y117.127 E6.25499
G1 X102.408 Y116.691 E6.27131
G1 X102.140 Y116.236 E6.28764
G1 X101.529 Y115.038 E6.32925
G1 X100.849 Y114.836 F7800.000
G1 X100.820 Y114.709 E6.33328 F540.000
G1 X102.585 Y113.153 E6.40609
G1 X103.381 Y112.536 E6.43724
G1 X104.333 Y111.889 E6.47285
G1 X106.278 Y113.053 E6.54299
G1 X106.705 Y113.429 E6.56061
G1 X106.947 Y113.722 E6.57236
G1 X107.151 Y114.043 E6.58411
G1 X107.312 Y114.387 E6.59586
G1 X107.471 Y114.933 E6.61348
G1 X107.525 Y115.500 E6.63109
G1 X107.471 Y116.067 E6.64871
G1 X107.312 Y116.613 E6.66632
G1 X107.054 Y117.121 E6.68394
G1 X106.705 Y117.570 E6.70155
G1 X106.278 Y117.947 E6.71916
G1 X105.957 Y118.151 E6.73092
G1 X105.613 Y118.312 E6.74267
G1 X103.619 Y119.030 E6.80826
G1 X103.322 Y118.769 E6.82050
G1 X102.921 Y118.368 E6.83804
G1 X102.546 Y117.943 E6.85558
G1 X102.199 Y117.495 E6.87313
G1 X101.880 Y117.026 E6.89067
G1 X101.592 Y116.538 E6.90821
G1 X100.770 Y114.925 E6.96419
G1 X100.787 Y114.907 E6.96497
G1 F1800.000 E5.96497
G92 E0
G1 X112.378 Y103.692 F7800.000
G1 E1.00000 F1800.000
G1 X113.016 Y101.922 E1.05820 F540.000
G1 X113.919 Y102.536 E1.09200
G1 X114.714 Y103.153 E1.12315
G1 X115.470 Y103.819 E1.15429
G1 X116.181 Y104.530 E1.18544
G1 X116.847 Y105.286 E1.21659
G1 X117.464 Y106.081 E1.24774
G1 X118.030 Y106.914 E1.27889
G1 X118.542 Y107.780 E1.31004
G1 X119.000 Y108.677 E1.34119
