; generated by Slic3r 1.0.0RC3 on 2014-03-25 at 21:15:21

; layer_height = 0.25
; perimeters = 3
; top_solid_layers = 3
; bottom_solid_layers = 3
; fill_density = 0.2
; perimeter_speed = 50
; infill_speed = 70
; travel_speed = 130
; nozzle_diameter = 0.35
; filament_diameter = 3
; extrusion_multiplier = 1
; perimeters extrusion width = 0.35mm
; infill extrusion width = 0.39mm
; solid infill extrusion width = 0.39mm
; top infill extrusion width = 0.39mm
; first layer extrusion width = 0.70mm

G21 ; set units to millimeters
M107
M190 S115 ; wait for bed temperature to be reached
M104 S235 ; set temperature
G28 ; home all axes
M109 S235 ; wait for temperature to be reached
G90 ; use absolute coordinates
G92 E0
M82 ; use absolute distances for extrusion
G1 F1800.000 E-1.00000
G92 E0
G1 Z0.350 F7800.000
G1 X58.951 Y73.188 F7800.000
G1 E1.00000 F1800.000
G1 X61.991 Y70.978 E1.11629 F900.000
G1 X62.831 Y70.458 E1.14686
G1 X113.331 Y44.148 E2.90874
G1 X114.811 Y43.598 E2.95759
G1 X116.391 Y43.408 E3.00683
G1 X129.391 Y43.408 E3.40907
G1 X130.711 Y43.538 E3.45011
G1 X131.981 Y43.928 E3.49122
G1 X133.141 Y44.568 E3.53221
G1 X134.151 Y45.418 E3.57305
G1 X134.971 Y46.468 E3.61427
G1 X135.571 Y47.648 E3.65523
G1 X154.861 Y97.768 E5.31691
G1 X155.091 Y98.528 E5.34147
G1 X155.241 Y99.318 E5.36635
G1 X155.471 Y101.238 E5.42619
G1 X155.511 Y102.028 E5.45066
G1 X155.471 Y102.818 E5.47514
G1 X155.241 Y104.728 E5.53466
G1 X155.091 Y105.518 E5.55954
G1 X154.861 Y106.278 E5.58411
G1 X154.181 Y108.078 E5.64365
G1 X153.851 Y108.818 E5.66872
G1 X153.431 Y109.508 E5.69371
G1 X152.331 Y111.098 E5.75353
G1 X151.841 Y111.718 E5.77798
G1 X151.281 Y112.278 E5.80249
G1 X149.841 Y113.558 E5.86210
G1 X149.211 Y114.058 E5.88699
G1 X148.531 Y114.468 E5.91156
G1 X146.821 Y115.368 E5.97135
G1 X145.941 Y115.758 E6.00113
G1 X61.631 Y145.558 E8.76795
G1 X61.081 Y145.718 E8.78567
G1 X59.381 Y146.158 E8.84001
G1 X58.551 Y146.318 E8.86616
G1 X56.801 Y146.538 E8.92073
G1 X55.971 Y146.588 E8.94646
G1 X54.221 Y146.588 E9.00061
G1 X53.391 Y146.538 E9.02634
G1 X51.641 Y146.318 E9.08091
G1 X50.811 Y146.158 E9.10707
G1 X49.111 Y145.718 E9.16140
G1 X48.331 Y145.468 E9.18674
G1 X46.691 Y144.818 E9.24133
G1 X45.961 Y144.478 E9.26624
G1 X44.421 Y143.638 E9.32052
G1 X43.681 Y143.158 E9.34781
G1 X42.261 Y142.118 E9.40227
G1 X41.641 Y141.608 E9.42711
G1 X40.361 Y140.408 E9.48140
G1 X39.791 Y139.808 E9.50701
G1 X38.671 Y138.458 E9.56128
G1 X38.171 Y137.758 E9.58790
G1 X37.231 Y136.268 E9.64241
G1 X36.841 Y135.568 E9.66720
G1 X36.091 Y133.978 E9.72160
G1 X35.791 Y133.218 E9.74688
G1 X35.241 Y131.548 E9.80128
G1 X35.021 Y130.678 E9.82905
G1 X34.701 Y128.948 E9.88348
G1 X34.601 Y128.168 E9.90781
G1 X34.491 Y126.418 E9.96207
G1 X34.491 Y125.588 E9.98775
G1 X34.601 Y123.828 E10.04231
G1 X34.701 Y123.028 E10.06726
G1 X35.021 Y121.308 E10.12139
G1 X35.231 Y120.458 E10.14848
G1 X35.781 Y118.778 E10.20318
G1 X36.051 Y118.088 E10.22610
G1 X53.071 Y80.728 E11.49638
G1 X53.361 Y80.178 E11.51561
G1 X54.591 Y78.038 E11.59199
G1 X54.971 Y77.448 E11.61370
G1 X55.411 Y76.898 E11.63549
G1 X57.931 Y74.108 E11.75182
G1 X58.421 Y73.618 E11.77326
G1 X58.879 Y73.247 E11.79148
G1 F1800.000 E10.79148
G92 E0
G1 X55.830 Y114.420 F7800.000
G1 E1.00000 F1800.000
G1 X57.276 Y114.603 E1.04509 F900.000
G1 X58.687 Y114.965 E1.09017
G1 X59.846 Y115.424 E1.12874
G1 X60.042 Y115.501 E1.13525
G1 X61.319 Y116.203 E1.18034
G1 X62.497 Y117.060 E1.22542
G1 X63.560 Y118.057 E1.27051
G1 X64.488 Y119.180 E1.31559
G1 X65.269 Y120.410 E1.36068
G1 X65.889 Y121.729 E1.40576
G1 X66.340 Y123.114 E1.45085
G1 X66.814 Y125.600 E1.52913
G1 X59.429 Y125.600 E1.75763
G1 X59.454 Y126.000 E1.77004
G1 X59.429 Y126.400 E1.78245
G1 X66.814 Y126.400 E2.01094
G1 X66.340 Y128.886 E2.08923
G1 X65.889 Y130.271 E2.13431
G1 X65.269 Y131.590 E2.17940
G1 X64.488 Y132.820 E2.22448
G1 X63.560 Y133.943 E2.26957
G1 X62.497 Y134.940 E2.31465
G1 X61.319 Y135.797 E2.35974
G1 X60.042 Y136.499 E2.40482
G1 X58.687 Y137.035 E2.44991
G1 X57.276 Y137.397 E2.49499
G1 X55.830 Y137.580 E2.54007
G1 X54.373 Y137.580 E2.58516
G1 X52.927 Y137.397 E2.63025
G1 X51.516 Y137.035 E2.67533
G1 X50.161 Y136.499 E2.72041
G1 X48.884 Y135.797 E2.76550
G1 X47.705 Y134.940 E2.81058
G1 X46.643 Y133.943 E2.85567
G1 X45.927 Y133.077 E2.89042
G1 X45.878 Y133.077 E2.89195
G1 X44.934 Y131.590 E2.94647
G1 X44.313 Y130.271 E2.99155
G1 X43.863 Y128.886 E3.03664
G1 X43.590 Y127.454 E3.08172
G1 X43.498 Y126.000 E3.12681
G1 X43.590 Y124.546 E3.17189
G1 X43.863 Y123.114 E3.21698
G1 X44.313 Y121.729 E3.26206
G1 X44.934 Y120.410 E3.30715
G1 X45.714 Y119.180 E3.35223
G1 X46.643 Y118.057 E3.39732
G1 X47.705 Y117.060 E3.44240
G1 X48.714 Y116.327 E3.48097
G1 X48.884 Y116.203 E3.48749
G1 X50.161 Y115.501 E3.53257
G1 X51.516 Y114.965 E3.57766
G1 X52.927 Y114.603 E3.62274
G1 X54.373 Y114.420 E3.66783
G1 X55.736 Y114.420 E3.71001
G1 X55.791 Y115.045 F7800.000
G1 X57.158 Y115.218 E3.75266 F900.000
G1 X58.493 Y115.560 E3.79532
G1 X59.616 Y116.005 E3.83267
G1 X59.775 Y116.068 E3.83797
G1 X60.983 Y116.732 E3.88062
G1 X62.098 Y117.542 E3.92327
G1 X63.103 Y118.486 E3.96592
G1 X63.982 Y119.548 E4.00858
G1 X64.720 Y120.712 E4.05123
G1 X65.307 Y121.959 E4.09388
G1 X65.733 Y123.270 E4.13653
G1 X66.058 Y124.975 E4.19023
G1 X58.692 Y124.975 E4.41815
G1 X58.799 Y125.533 E4.43572
G1 X58.828 Y126.000 E4.45021
G1 X58.799 Y126.467 E4.46469
G1 X58.692 Y127.025 E4.48226
G1 X66.058 Y127.025 E4.71018
G1 X65.733 Y128.730 E4.76388
G1 X65.307 Y130.041 E4.80653
G1 X64.720 Y131.288 E4.84918
G1 X63.982 Y132.452 E4.89184
G1 X63.103 Y133.514 E4.93449
G1 X62.098 Y134.458 E4.97714
G1 X60.983 Y135.268 E5.01979
G1 X59.775 Y135.932 E5.06244
G1 X58.493 Y136.440 E5.10510
G1 X57.158 Y136.782 E5.14775
G1 X55.791 Y136.955 E5.19040
G1 X54.412 Y136.955 E5.23305
G1 X53.044 Y136.782 E5.27570
G1 X51.709 Y136.440 E5.31836
G1 X50.428 Y135.932 E5.36101
G1 X49.220 Y135.268 E5.40366
G1 X48.104 Y134.458 E5.44631
G1 X47.100 Y133.514 E5.48896
G1 X46.221 Y132.452 E5.53160
G1 X45.482 Y131.288 E5.57427
G1 X44.895 Y130.041 E5.61692
G1 X44.469 Y128.730 E5.65957
G1 X44.211 Y127.376 E5.70222
G1 X44.125 Y126.000 E5.74488
G1 X44.211 Y124.624 E5.78753
G1 X44.469 Y123.270 E5.83018
G1 X44.895 Y121.959 E5.87283
G1 X45.482 Y120.712 E5.91548
G1 X46.221 Y119.548 E5.95814
G1 X47.100 Y118.486 E6.00079
G1 X48.104 Y117.542 E6.04344
G1 X49.081 Y116.833 E6.08079
G1 X49.220 Y116.732 E6.08609
G1 X50.428 Y116.068 E6.12874
G1 X51.709 Y115.560 E6.17140
G1 X53.045 Y115.218 E6.21405
G1 X54.412 Y115.045 E6.25670
G1 X55.697 Y115.045 E6.29645
G1 X55.751 Y115.670 F7800.000
G1 X57.041 Y115.833 E6.33667 F630.000
G1 X58.300 Y116.156 E6.37689
G1 X59.386 Y116.586 E6.41303
G1 X59.508 Y116.634 E6.41711
G1 X60.648 Y117.261 E6.45733
G1 X61.699 Y118.025 E6.49755
G1 X62.647 Y118.914 E6.53777
G1 X63.475 Y119.916 E6.57799
G1 X64.172 Y121.014 E6.61820
G1 X64.725 Y122.190 E6.65842
G1 X65.127 Y123.426 E6.69864
G1 X65.303 Y124.350 E6.72775
G1 X57.745 Y124.350 E6.96161
G1 X57.984 Y124.859 E6.97900
G1 X58.105 Y125.229 E6.99105
G1 X58.178 Y125.611 E7.00310
G1 X58.202 Y126.000 E7.01515
G1 X58.178 Y126.389 E7.02719
G1 X58.105 Y126.771 E7.03924
G1 X57.984 Y127.141 E7.05129
G1 X57.745 Y127.650 E7.06868
G1 X65.303 Y127.650 E7.30254
G1 X65.127 Y128.574 E7.33165
G1 X64.725 Y129.810 E7.37187
G1 X64.172 Y130.986 E7.41209
G1 X63.475 Y132.084 E7.45231
G1 X62.647 Y133.086 E7.49253
G1 X61.699 Y133.975 E7.53274
G1 X60.648 Y134.739 E7.57296
G1 X59.508 Y135.366 E7.61318
G1 X58.300 Y135.844 E7.65340
G1 X57.041 Y136.167 E7.69362
G1 X55.751 Y136.330 E7.73384
G1 X54.451 Y136.330 E7.77406
G1 X53.162 Y136.167 E7.81428
G1 X51.903 Y135.844 E7.85450
G1 X50.694 Y135.366 E7.89472
G1 X49.555 Y134.739 E7.93494
G1 X48.504 Y133.975 E7.97515
G1 X47.556 Y133.086 E8.01537
G1 X46.727 Y132.084 E8.05559
G1 X46.031 Y130.986 E8.09581
G1 X45.478 Y129.810 E8.13603
G1 X45.076 Y128.574 E8.17625
G1 X44.832 Y127.297 E8.21647
G1 X44.751 Y126.000 E8.25669
G1 X44.832 Y124.703 E8.29691
G1 X45.076 Y123.426 E8.33713
G1 X45.478 Y122.190 E8.37735
G1 X46.031 Y121.014 E8.41756
G1 X46.727 Y119.916 E8.45778
G1 X47.556 Y118.914 E8.49800
G1 X48.504 Y118.025 E8.53822
G1 X49.448 Y117.338 E8.57436
G1 X49.555 Y117.261 E8.57844
G1 X50.694 Y116.634 E8.61866
G1 X51.903 Y116.156 E8.65888
G1 X53.162 Y115.833 E8.69910
G1 X54.451 Y115.670 E8.73932
G1 X55.658 Y115.670 E8.77664
G1 X56.108 Y115.157 F7800.000
G1 X55.880 Y113.627 F7800.000
G1 X57.424 Y113.823 E8.82481 F900.000
G1 X58.932 Y114.210 E8.87298
G1 X60.380 Y114.783 E8.92115
G1 X61.744 Y115.533 E8.96932
G1 X63.004 Y116.448 E9.01749
G1 X64.138 Y117.514 E9.06566
G1 X65.131 Y118.713 E9.11383
G1 X65.965 Y120.028 E9.16200
G1 X66.628 Y121.436 E9.21017
G1 X67.109 Y122.917 E9.25834
G1 X67.401 Y124.446 E9.30651
G1 X67.455 Y125.310 E9.33328
G1 X67.541 Y125.321 E9.33597
G1 X67.498 Y126.000 E9.35703
G1 X67.541 Y126.679 E9.37810
G1 X67.455 Y126.690 E9.38079
G1 X67.401 Y127.554 E9.40756
G1 X67.109 Y129.083 E9.45573
G1 X66.628 Y130.564 E9.50390
G1 X65.965 Y131.972 E9.55207
G1 X65.131 Y133.287 E9.60024
G1 X64.138 Y134.486 E9.64841
G1 X63.004 Y135.552 E9.69658
G1 X61.744 Y136.467 E9.74475
G1 X60.380 Y137.217 E9.79292
G1 X58.932 Y137.790 E9.84109
G1 X57.424 Y138.177 E9.88926
G1 X55.880 Y138.373 E9.93743
G1 X54.323 Y138.373 E9.98560
G1 X52.778 Y138.177 E10.03377
G1 X51.270 Y137.790 E10.08194
G1 X49.823 Y137.217 E10.13011
G1 X48.459 Y136.467 E10.17828
G1 X47.199 Y135.552 E10.22646
G1 X46.064 Y134.486 E10.27463
G1 X45.072 Y133.287 E10.32279
G1 X44.238 Y131.972 E10.37097
G1 X43.575 Y130.564 E10.41914
G1 X43.084 Y129.031 E10.46894
G1 X42.802 Y127.554 E10.51547
G1 X42.704 Y126.000 E10.56364
G1 X42.802 Y124.446 E10.61181
G1 X43.094 Y122.917 E10.65998
G1 X43.575 Y121.436 E10.70815
G1 X44.238 Y120.028 E10.75632
G1 X45.072 Y118.713 E10.80449
G1 X46.064 Y117.514 E10.85266
G1 X47.199 Y116.448 E10.90083
G1 X48.459 Y115.533 E10.94900
G1 X49.823 Y114.783 E10.99717
G1 X51.270 Y114.210 E11.04534
G1 X52.778 Y113.823 E11.09351
G1 X54.323 Y113.627 E11.14168
G1 X55.786 Y113.627 E11.18695
G1 X55.919 Y113.002 F7800.000
G1 X57.542 Y113.208 E11.23756 F900.000
G1 X59.126 Y113.614 E11.28816
G1 X60.646 Y114.216 E11.33876
G1 X62.080 Y115.004 E11.38937
G1 X63.403 Y115.965 E11.43997
G1 X64.595 Y117.085 E11.49057
G1 X65.637 Y118.345 E11.54118
G1 X66.514 Y119.726 E11.59178
G1 X67.210 Y121.206 E11.64238
G1 X67.715 Y122.761 E11.69299
G1 X68.022 Y124.368 E11.74359
G1 X68.125 Y126.000 E11.79419
G1 X68.022 Y127.632 E11.84480
G1 X67.715 Y129.239 E11.89540
G1 X67.210 Y130.794 E11.94600
G1 X66.514 Y132.274 E11.99661
G1 X65.637 Y133.655 E12.04721
G1 X64.595 Y134.915 E12.09782
G1 X63.403 Y136.035 E12.14842
G1 X62.080 Y136.996 E12.19902
G1 X60.560 Y137.818 E12.25247
G1 X59.126 Y138.386 E12.30021
G1 X57.542 Y138.792 E12.35081
G1 X55.919 Y138.998 E12.40142
G1 X54.284 Y138.998 E12.45202
G1 X52.661 Y138.792 E12.50262
G1 X51.077 Y138.386 E12.55323
G1 X49.556 Y137.784 E12.60383
G1 X48.123 Y136.996 E12.65443
G1 X46.800 Y136.035 E12.70504
G1 X45.608 Y134.915 E12.75564
G1 X44.565 Y133.655 E12.80624
G1 X43.689 Y132.274 E12.85685
G1 X42.993 Y130.794 E12.90745
G1 X42.487 Y129.239 E12.95805
G1 X42.181 Y127.632 E13.00866
G1 X42.078 Y126.000 E13.05926
G1 X42.181 Y124.368 E13.10986
G1 X42.487 Y122.761 E13.16047
G1 X42.993 Y121.206 E13.21107
G1 X43.689 Y119.726 E13.26167
G1 X44.565 Y118.345 E13.31228
G1 X45.608 Y117.085 E13.36288
G1 X46.800 Y115.965 E13.41348
G1 X48.123 Y115.004 E13.46409
G1 X49.556 Y114.216 E13.51469
G1 X51.077 Y113.614 E13.56529
G1 X52.661 Y113.208 E13.61590
G1 X54.284 Y113.002 E13.66650
G1 X55.825 Y113.002 E13.71420
G1 X55.958 Y112.378 F7800.000
G1 X57.659 Y112.592 E13.76724 F630.000
G1 X59.319 Y113.019 E13.82028
G1 X60.913 Y113.650 E13.87331
G1 X62.415 Y114.475 E13.92635
G1 X63.802 Y115.483 E13.97939
G1 X65.051 Y116.656 E14.03242
G1 X66.144 Y117.977 E14.08546
G1 X67.062 Y119.424 E14.13850
G1 X67.792 Y120.975 E14.19153
G1 X68.322 Y122.606 E14.24457
G1 X68.643 Y124.289 E14.29760
G1 X68.751 Y126.000 E14.35064
G1 X68.643 Y127.711 E14.40368
G1 X68.322 Y129.394 E14.45671
G1 X67.792 Y131.025 E14.50975
G1 X67.062 Y132.576 E14.56279
G1 X66.144 Y134.023 E14.61582
G1 X65.051 Y135.344 E14.66886
G1 X63.802 Y136.517 E14.72190
G1 X62.415 Y137.525 E14.77493
G1 X60.913 Y138.350 E14.82797
G1 X59.319 Y138.981 E14.88100
G1 X57.659 Y139.408 E14.93404
G1 X55.958 Y139.622 E14.98708
G1 X54.244 Y139.622 E15.04011
G1 X52.544 Y139.408 E15.09315
G1 X50.883 Y138.981 E15.14619
G1 X49.290 Y138.350 E15.19922
G1 X47.788 Y137.525 E15.25226
G1 X46.401 Y136.517 E15.30530
G1 X45.151 Y135.344 E15.35833
G1 X44.059 Y134.023 E15.41137
G1 X43.140 Y132.576 E15.46441
G1 X42.411 Y131.025 E15.51744
G1 X41.881 Y129.394 E15.57048
G1 X41.560 Y127.711 E15.62351
G1 X41.452 Y126.000 E15.67655
G1 X41.560 Y124.289 E15.72959
G1 X41.881 Y122.606 E15.78262
G1 X42.411 Y120.975 E15.83566
G1 X43.140 Y119.424 E15.88870
G1 X44.059 Y117.977 E15.94173
G1 X45.151 Y116.656 E15.99477
G1 X46.401 Y115.483 E16.04780
G1 X47.788 Y114.475 E16.10084
G1 X49.290 Y113.650 E16.15388
G1 X50.883 Y113.019 E16.20691
G1 X52.544 Y112.592 E16.25995
G1 X54.244 Y112.378 E16.31299
G1 X55.865 Y112.378 E16.36312
G1 X56.224 Y112.943 F7800.000
G1 F1800.000 E15.36312
G92 E0
G1 X58.287 Y128.107 F7800.000
G1 E1.00000 F1800.000
G1 X57.350 Y128.565 E1.03228 F630.000
G1 X57.350 Y128.013 E1.04936
G1 X57.166 Y127.927 E1.05562
G1 X57.031 Y128.098 E1.06235
G1 X57.222 Y128.626 E1.07972
G1 X56.033 Y129.248 E1.12124
G1 X54.945 Y129.371 E1.15513
G1 X53.946 Y129.175 E1.18662
G1 X52.994 Y128.635 E1.22050
G1 X52.300 Y127.890 E1.25200
G1 X51.847 Y126.893 E1.28588
G1 X51.725 Y125.883 E1.31737
G1 X51.939 Y124.824 E1.35080
G1 X52.429 Y123.932 E1.38229
G1 X53.234 Y123.189 E1.41617
G1 X54.155 Y122.756 E1.44767
G1 X54.992 Y122.623 E1.47387
G1 X55.835 Y122.702 E1.50008
G1 X58.320 Y123.825 E1.58446
G1 X57.178 Y124.080 F7800.000
G1 X57.030 Y123.970 E1.59015 F630.000
G1 X57.222 Y123.375 E1.60947
G1 F1800.000 E0.60947
G92 E0
G1 X57.350 Y128.565 F7800.000
G1 E1.00000 F1800.000
G1 X57.222 Y128.626 E1.00437 F630.000
G1 F1800.000 E0.00437
G92 E0
G1 X102.388 Y96.494 F7800.000
G1 E1.00000 F1800.000
G1 X101.566 Y94.328 E1.07169 F900.000
G1 X101.287 Y92.028 E1.14339
G1 X101.566 Y89.727 E1.21508
G1 X102.388 Y87.561 E1.28677
G1 X103.704 Y85.654 E1.35847
G1 X105.439 Y84.117 E1.43016
G1 X107.490 Y83.041 E1.50186
G1 X109.519 Y82.541 E1.56649
G1 X109.740 Y82.486 E1.57355
G1 X112.057 Y82.486 E1.64524
G1 X114.307 Y83.041 E1.71693
G1 X116.359 Y84.117 E1.78863
G1 X117.998 Y85.570 E1.85641
G1 X117.998 Y98.485 E2.25601
G1 X116.359 Y99.938 E2.32380
G1 X114.307 Y101.015 E2.39549
G1 X112.057 Y101.569 E2.46719
G1 X109.740 Y101.569 E2.53888
G1 X107.490 Y101.015 E2.61057
G1 X105.439 Y99.938 E2.68227
G1 X103.704 Y98.401 E2.75396
G1 X102.441 Y96.571 E2.82275
G1 X102.945 Y96.202 F7800.000
G1 X102.178 Y94.177 E2.88975 F900.000
G1 X101.917 Y92.028 E2.95675
G1 X102.178 Y89.878 E3.02375
G1 X102.945 Y87.853 E3.09075
G1 X104.175 Y86.071 E3.15774
G1 X105.796 Y84.636 E3.22474
G1 X107.714 Y83.629 E3.29174
G1 X109.668 Y83.147 E3.35403
G1 X109.816 Y83.111 E3.35874
G1 X111.981 Y83.111 E3.42574
G1 X114.084 Y83.629 E3.49273
G1 X116.001 Y84.636 E3.55973
G1 X117.374 Y85.851 E3.61647
G1 X117.374 Y98.204 E3.99867
G1 X116.001 Y99.420 E4.05540
G1 X114.084 Y100.426 E4.12240
G1 X111.981 Y100.944 E4.18940
G1 X109.816 Y100.944 E4.25640
G1 X107.714 Y100.426 E4.32339
G1 X105.796 Y99.420 E4.39039
G1 X104.175 Y97.984 E4.45739
G1 X102.999 Y96.279 E4.52149
G1 X103.503 Y95.909 F7800.000
G1 X102.789 Y94.026 E4.58379 F630.000
G1 X102.546 Y92.028 E4.64609
G1 X102.789 Y90.029 E4.70840
G1 X103.503 Y88.146 E4.77070
G1 X104.647 Y86.489 E4.83300
G1 X106.154 Y85.154 E4.89530
G1 X107.937 Y84.218 E4.95761
G1 X109.818 Y83.754 E5.01755
G1 X109.892 Y83.736 E5.01991
G1 X111.905 Y83.736 E5.08221
G1 X113.860 Y84.218 E5.14451
G1 X115.643 Y85.154 E5.20682
G1 X116.749 Y86.133 E5.25250
G1 X116.749 Y97.923 E5.61730
G1 X115.643 Y98.902 E5.66298
G1 X113.860 Y99.837 E5.72529
G1 X111.905 Y100.319 E5.78759
G1 X109.892 Y100.319 E5.84989
G1 X107.937 Y99.837 E5.91219
G1 X106.154 Y98.902 E5.97450
G1 X104.647 Y97.566 E6.03680
G1 X103.556 Y95.986 E6.09620
