; generated by Slic3r 0.8.2 on 2014-05-26 at 18:31:09

; layer_height = 0.25
; perimeters = 3
; solid_layers = 3
; fill_density = 0.5
; nozzle_diameter = 0.35
; filament_diameter = 3
; extrusion_multiplier = 1
; perimeter_speed = 60
; infill_speed = 80
; travel_speed = 150
; extrusion_width_ratio = 0
; scale = 1
; single wall width = 0.39mm

M107
G28 ; home all axes
G90 ; use absolute coordinates
G21 ; set units to millimeters
G92 E0 ; reset extrusion distance
M82 ; use absolute distances for extrusion
G1 Z1.100 F9000.000
G1 X53.000 Y68.180
G1 F1800.000 E1.00000
G1 X53.180 Y68.000 F1080.000 E1.00416
G1 X53.560 Y67.660 E1.01249
G1 X54.180 Y67.220 E1.02490
G1 X54.400 Y67.090 E1.02908
G1 X54.860 Y66.860 E1.03748
G1 X55.330 Y66.670 E1.04576
G1 X55.820 Y66.520 E1.05413
G1 X56.070 Y66.460 E1.05833
G1 X56.820 Y66.350 E1.07071
G1 X57.330 Y66.330 E1.07904
G1 X138.170 Y67.850 E2.39966
G1 X138.680 Y67.920 E2.40807
G1 X139.170 Y68.020 E2.41624
G1 X139.660 Y68.170 E2.42461
G1 X140.130 Y68.360 E2.43289
G1 X140.590 Y68.590 E2.44129
G1 X140.810 Y68.720 E2.44547
G1 X141.430 Y69.160 E2.45788
G1 X141.810 Y69.500 E2.46621
G1 X141.990 Y69.680 E2.47037
G1 X142.330 Y70.060 E2.47870
G1 X142.770 Y70.680 E2.49112
G1 X142.900 Y70.900 E2.49529
G1 X143.130 Y71.360 E2.50369
G1 X143.320 Y71.830 E2.51197
G1 X143.470 Y72.320 E2.52034
G1 X143.530 Y72.570 E2.52454
G1 X143.640 Y73.320 E2.53692
G1 X143.640 Y90.960 E2.82504
G1 X143.570 Y91.470 E2.83345
G1 X143.460 Y91.980 E2.84197
G1 X143.390 Y92.230 E2.84621
G1 X143.110 Y92.960 E2.85898
G1 X142.870 Y93.420 E2.86745
G1 X142.590 Y93.860 E2.87597
G1 X142.440 Y94.070 E2.88019
G1 X142.280 Y94.270 E2.88437
G1 X141.930 Y94.660 E2.89293
G1 X141.550 Y95.010 E2.90137
G1 X106.130 Y122.550 E3.63419
G1 X105.690 Y122.840 E3.64280
G1 X105.220 Y123.090 E3.65149
G1 X104.480 Y123.380 E3.66448
G1 X103.710 Y123.570 E3.67743
G1 X103.190 Y123.640 E3.68600
G1 X102.660 Y123.660 E3.69466
G1 X56.820 Y123.640 E4.44338
G1 X56.070 Y123.530 E4.45576
G1 X55.570 Y123.400 E4.46420
G1 X55.090 Y123.230 E4.47252
G1 X54.630 Y123.020 E4.48078
G1 X54.400 Y122.900 E4.48502
G1 X54.180 Y122.770 E4.48919
G1 X53.560 Y122.330 E4.50161
G1 X53.180 Y121.990 E4.50994
G1 X53.000 Y121.810 E4.51409
G1 X52.660 Y121.430 E4.52242
G1 X52.220 Y120.810 E4.53484
G1 X52.090 Y120.590 E4.53901
G1 X51.860 Y120.130 E4.54741
G1 X51.670 Y119.660 E4.55569
G1 X51.520 Y119.170 E4.56406
G1 X51.460 Y118.920 E4.56826
G1 X51.350 Y118.170 E4.58064
G1 X51.350 Y71.820 E5.33769
G1 X51.460 Y71.070 E5.35008
G1 X51.590 Y70.570 E5.35851
G1 X51.760 Y70.090 E5.36683
G1 X51.970 Y69.630 E5.37509
G1 X52.090 Y69.400 E5.37933
G1 X52.220 Y69.180 E5.38350
G1 X52.660 Y68.560 E5.39592
G1 X52.961 Y68.224 E5.40328
G1 F1800.000 E4.40328
G92 E0
G1 X60.322 Y75.322 F9000.000
G1 F1800.000 E1.00000
G1 X61.193 Y74.740 F1080.000 E1.01710
G1 X62.220 Y74.536 E1.03421
G1 X63.247 Y74.740 E1.05131
G1 X64.118 Y75.322 E1.06842
G1 X64.700 Y76.193 E1.08552
G1 X64.760 Y76.497 E1.09058
G1 X64.820 Y76.193 E1.09564
G1 X65.402 Y75.322 E1.11274
G1 X66.273 Y74.740 E1.12984
G1 X67.300 Y74.536 E1.14695
G1 X68.327 Y74.740 E1.16405
G1 X69.198 Y75.322 E1.18116
G1 X69.780 Y76.193 E1.19826
G1 X69.840 Y76.497 E1.20332
G1 X69.900 Y76.193 E1.20838
G1 X70.482 Y75.322 E1.22548
G1 X71.353 Y74.740 E1.24259
G1 X72.380 Y74.536 E1.25969
G1 X73.407 Y74.740 E1.27680
G1 X74.278 Y75.322 E1.29390
G1 X74.860 Y76.193 E1.31101
G1 X74.920 Y76.497 E1.31606
G1 X74.980 Y76.193 E1.32112
G1 X75.562 Y75.322 E1.33823
G1 X76.433 Y74.740 E1.35533
G1 X77.460 Y74.536 E1.37244
G1 X78.487 Y74.740 E1.38954
G1 X79.358 Y75.322 E1.40664
G1 X79.940 Y76.193 E1.42375
G1 X80.000 Y76.497 E1.42881
G1 X80.060 Y76.193 E1.43387
G1 X80.642 Y75.322 E1.45097
G1 X81.513 Y74.740 E1.46808
G1 X82.540 Y74.536 E1.48518
G1 X83.567 Y74.740 E1.50228
G1 X84.438 Y75.322 E1.51939
G1 X85.020 Y76.193 E1.53649
G1 X85.080 Y76.497 E1.54155
G1 X85.140 Y76.193 E1.54661
G1 X85.722 Y75.322 E1.56371
G1 X86.593 Y74.740 E1.58082
G1 X87.620 Y74.536 E1.59792
G1 X88.647 Y74.740 E1.61503
G1 X89.518 Y75.322 E1.63213
G1 X90.100 Y76.193 E1.64923
G1 X90.160 Y76.497 E1.65429
G1 X90.220 Y76.193 E1.65935
G1 X90.802 Y75.322 E1.67646
G1 X91.673 Y74.740 E1.69356
G1 X92.700 Y74.536 E1.71066
G1 X93.727 Y74.740 E1.72777
G1 X94.598 Y75.322 E1.74487
G1 X95.180 Y76.193 E1.76198
G1 X95.240 Y76.497 E1.76704
G1 X95.300 Y76.193 E1.77209
G1 X95.882 Y75.322 E1.78920
G1 X96.753 Y74.740 E1.80630
G1 X97.780 Y74.536 E1.82341
G1 X98.807 Y74.740 E1.84051
G1 X99.678 Y75.322 E1.85762
G1 X100.260 Y76.193 E1.87472
G1 X100.464 Y77.220 E1.89183
G1 X100.260 Y78.247 E1.90893
G1 X99.678 Y79.118 E1.92603
G1 X98.807 Y79.700 E1.94314
G1 X98.503 Y79.760 E1.94820
G1 X98.807 Y79.820 E1.95325
G1 X99.678 Y80.402 E1.97036
G1 X100.260 Y81.273 E1.98746
G1 X100.464 Y82.300 E2.00457
G1 X100.260 Y83.327 E2.02167
G1 X99.678 Y84.198 E2.03877
G1 X98.807 Y84.780 E2.05588
G1 X98.503 Y84.840 E2.06094
G1 X98.807 Y84.900 E2.06600
G1 X99.678 Y85.482 E2.08310
G1 X100.260 Y86.353 E2.10021
G1 X100.464 Y87.380 E2.11731
G1 X100.260 Y88.407 E2.13441
G1 X99.678 Y89.278 E2.15152
G1 X98.807 Y89.860 E2.16862
G1 X98.503 Y89.920 E2.17368
G1 X98.807 Y89.980 E2.17874
G1 X99.678 Y90.562 E2.19585
G1 X100.260 Y91.433 E2.21295
G1 X100.464 Y92.460 E2.23005
G1 X100.260 Y93.487 E2.24716
G1 X99.678 Y94.358 E2.26426
G1 X98.807 Y94.940 E2.28137
G1 X98.503 Y95.000 E2.28643
G1 X98.807 Y95.060 E2.29148
G1 X99.678 Y95.642 E2.30859
G1 X100.260 Y96.513 E2.32570
G1 X100.464 Y97.540 E2.34280
G1 X100.260 Y98.567 E2.35990
G1 X99.678 Y99.438 E2.37701
G1 X98.807 Y100.020 E2.39411
G1 X98.503 Y100.080 E2.39917
G1 X98.807 Y100.140 E2.40423
G1 X99.678 Y100.722 E2.42133
G1 X100.260 Y101.593 E2.43844
G1 X100.464 Y102.620 E2.45554
G1 X100.260 Y103.647 E2.47265
G1 X99.678 Y104.518 E2.48975
G1 X98.807 Y105.100 E2.50686
G1 X98.503 Y105.160 E2.51191
G1 X98.807 Y105.220 E2.51697
G1 X99.678 Y105.802 E2.53408
G1 X100.260 Y106.673 E2.55118
G1 X100.464 Y107.700 E2.56829
G1 X100.260 Y108.727 E2.58539
G1 X99.678 Y109.598 E2.60250
G1 X98.807 Y110.180 E2.61960
G1 X98.503 Y110.240 E2.62466
G1 X98.807 Y110.300 E2.62972
G1 X99.678 Y110.882 E2.64682
G1 X100.260 Y111.753 E2.66393
G1 X100.464 Y112.780 E2.68103
G1 X100.260 Y113.807 E2.69813
G1 X99.678 Y114.678 E2.71524
G1 X98.807 Y115.260 E2.73234
G1 X97.780 Y115.464 E2.74945
G1 X96.753 Y115.260 E2.76655
G1 X95.882 Y114.678 E2.78366
G1 X95.300 Y113.807 E2.80076
G1 X95.240 Y113.503 E2.80582
G1 X95.180 Y113.807 E2.81088
G1 X94.598 Y114.678 E2.82798
G1 X93.727 Y115.260 E2.84509
G1 X92.700 Y115.464 E2.86219
G1 X91.673 Y115.260 E2.87929
G1 X90.802 Y114.678 E2.89640
G1 X90.220 Y113.807 E2.91351
G1 X90.160 Y113.503 E2.91856
G1 X90.100 Y113.807 E2.92362
G1 X89.518 Y114.678 E2.94073
G1 X88.647 Y115.260 E2.95783
G1 X87.620 Y115.464 E2.97494
G1 X86.593 Y115.260 E2.99204
G1 X85.722 Y114.678 E3.00914
G1 X85.140 Y113.807 E3.02625
G1 X85.080 Y113.503 E3.03131
G1 X85.020 Y113.807 E3.03637
G1 X84.438 Y114.678 E3.05347
G1 X83.567 Y115.260 E3.07058
G1 X82.540 Y115.464 E3.08768
G1 X81.513 Y115.260 E3.10478
G1 X80.642 Y114.678 E3.12189
G1 X80.060 Y113.807 E3.13899
G1 X80.000 Y113.503 E3.14405
G1 X79.940 Y113.807 E3.14911
G1 X79.358 Y114.678 E3.16622
G1 X78.487 Y115.260 E3.18332
G1 X77.460 Y115.464 E3.20042
G1 X76.433 Y115.260 E3.21753
G1 X75.562 Y114.678 E3.23463
G1 X74.980 Y113.807 E3.25174
G1 X74.920 Y113.503 E3.25680
G1 X74.860 Y113.807 E3.26185
G1 X74.278 Y114.678 E3.27896
G1 X73.407 Y115.260 E3.29606
G1 X72.380 Y115.464 E3.31317
G1 X71.353 Y115.260 E3.33027
G1 X70.482 Y114.678 E3.34738
G1 X69.900 Y113.807 E3.36448
G1 X69.840 Y113.503 E3.36954
G1 X69.780 Y113.807 E3.37460
G1 X69.198 Y114.678 E3.39170
G1 X68.327 Y115.260 E3.40881
G1 X67.300 Y115.464 E3.42591
G1 X66.273 Y115.260 E3.44302
G1 X65.402 Y114.678 E3.46012
G1 X64.820 Y113.807 E3.47723
G1 X64.760 Y113.503 E3.48228
G1 X64.700 Y113.807 E3.48734
G1 X64.118 Y114.678 E3.50444
G1 X63.247 Y115.260 E3.52155
G1 X62.220 Y115.464 E3.53865
G1 X61.193 Y115.260 E3.55576
G1 X60.322 Y114.678 E3.57286
G1 X59.740 Y113.807 E3.58997
G1 X59.536 Y112.780 E3.60707
G1 X59.740 Y111.753 E3.62417
G1 X60.322 Y110.882 E3.64128
G1 X61.193 Y110.300 E3.65838
G1 X61.497 Y110.240 E3.66344
G1 X61.193 Y110.180 E3.66850
G1 X60.322 Y109.598 E3.68560
G1 X59.740 Y108.727 E3.70271
G1 X59.536 Y107.700 E3.71981
G1 X59.740 Y106.673 E3.73692
G1 X60.322 Y105.802 E3.75402
G1 X61.193 Y105.220 E3.77113
G1 X61.497 Y105.160 E3.77618
G1 X61.193 Y105.100 E3.78124
G1 X60.322 Y104.518 E3.79835
G1 X59.740 Y103.647 E3.81545
G1 X59.536 Y102.620 E3.83256
G1 X59.740 Y101.593 E3.84966
G1 X60.322 Y100.722 E3.86677
G1 X61.193 Y100.140 E3.88387
G1 X61.497 Y100.080 E3.88893
G1 X61.193 Y100.020 E3.89399
G1 X60.322 Y99.438 E3.91109
G1 X59.740 Y98.567 E3.92820
G1 X59.536 Y97.540 E3.94530
G1 X59.740 Y96.513 E3.96240
G1 X60.322 Y95.642 E3.97951
G1 X61.193 Y95.060 E3.99661
G1 X61.497 Y95.000 E4.00167
G1 X61.193 Y94.940 E4.00673
G1 X60.322 Y94.358 E4.02383
G1 X59.740 Y93.487 E4.04094
G1 X59.536 Y92.460 E4.05804
G1 X59.740 Y91.433 E4.07515
G1 X60.322 Y90.562 E4.09225
G1 X61.193 Y89.980 E4.10936
G1 X61.497 Y89.920 E4.11441
G1 X61.193 Y89.860 E4.11947
G1 X60.322 Y89.278 E4.13658
G1 X59.740 Y88.407 E4.15368
G1 X59.536 Y87.380 E4.17079
G1 X59.740 Y86.353 E4.18789
G1 X60.322 Y85.482 E4.20500
G1 X61.193 Y84.900 E4.22210
G1 X61.497 Y84.840 E4.22716
G1 X61.193 Y84.780 E4.23222
G1 X60.322 Y84.198 E4.24932
G1 X59.740 Y83.327 E4.26643
G1 X59.536 Y82.300 E4.28353
G1 X59.740 Y81.273 E4.30063
G1 X60.322 Y80.402 E4.31774
G1 X61.193 Y79.820 E4.33484
G1 X61.497 Y79.760 E4.33990
G1 X61.193 Y79.700 E4.34496
G1 X60.322 Y79.118 E4.36206
G1 X59.740 Y78.247 E4.37917
G1 X59.536 Y77.220 E4.39627
G1 X59.740 Y76.193 E4.41337
G1 X60.289 Y75.371 E4.42951
G1 F1800.000 E3.42951
G92 E0
G1 X65.175 Y76.340 F9000.000
G1 F1800.000 E1.00000
G1 X65.674 Y75.594 F720.000 E1.01465
G1 X66.420 Y75.095 E1.02931
G1 X67.300 Y74.920 E1.04397
G1 X68.180 Y75.095 E1.05862
G1 X68.926 Y75.594 E1.07328
G1 X69.424 Y76.340 E1.08793
G1 X69.600 Y77.220 E1.10258
G1 X69.424 Y78.100 E1.11724
G1 X68.926 Y78.846 E1.13189
G1 X68.180 Y79.345 E1.14655
G1 X67.300 Y79.520 E1.16120
G1 X66.420 Y79.345 E1.17586
G1 X65.674 Y78.846 E1.19052
G1 X65.175 Y78.100 E1.20517
G1 X65.000 Y77.220 E1.21983
G1 X65.164 Y76.398 E1.23351
G1 X65.531 Y76.487 F9000.000
G1 X65.946 Y75.866 F720.000 E1.24572
G1 X66.567 Y75.451 E1.25793
G1 X67.300 Y75.305 E1.27013
G1 X68.033 Y75.451 E1.28234
G1 X68.654 Y75.866 E1.29454
G1 X69.069 Y76.487 E1.30675
G1 X69.215 Y77.220 E1.31895
G1 X69.069 Y77.953 E1.33116
G1 X68.654 Y78.574 E1.34336
G1 X68.033 Y78.989 E1.35557
G1 X67.300 Y79.135 E1.36778
G1 X66.567 Y78.989 E1.37998
G1 X65.946 Y78.574 E1.39219
G1 X65.531 Y77.953 E1.40439
G1 X65.385 Y77.220 E1.41660
G1 X65.519 Y76.545 E1.42784
G1 X64.345 Y76.340 F9000.000
G1 X64.520 Y77.220 F720.000 E1.44249
G1 X64.345 Y78.100 E1.45715
G1 X63.846 Y78.846 E1.47180
G1 X63.100 Y79.345 E1.48646
G1 X62.220 Y79.520 E1.50111
G1 X61.340 Y79.345 E1.51577
G1 X60.594 Y78.846 E1.53042
G1 X60.095 Y78.100 E1.54508
G1 X59.920 Y77.220 E1.55973
G1 X60.095 Y76.340 E1.57439
G1 X60.594 Y75.594 E1.58904
G1 X61.340 Y75.095 E1.60370
G1 X62.220 Y74.920 E1.61835
G1 X63.100 Y75.095 E1.63301
G1 X63.846 Y75.594 E1.64766
G1 X64.312 Y76.291 E1.66135
G1 X63.989 Y76.487 F9000.000
G1 X64.135 Y77.220 F720.000 E1.67356
G1 X63.989 Y77.953 E1.68576
G1 X63.574 Y78.574 E1.69797
G1 X62.953 Y78.989 E1.71018
G1 X62.220 Y79.135 E1.72238
G1 X61.487 Y78.989 E1.73459
G1 X60.866 Y78.574 E1.74679
G1 X60.451 Y77.953 E1.75900
G1 X60.305 Y77.220 E1.77120
G1 X60.451 Y76.487 E1.78341
G1 X60.866 Y75.866 E1.79562
G1 X61.487 Y75.451 E1.80782
G1 X62.220 Y75.305 E1.82003
G1 X62.953 Y75.451 E1.83223
G1 X63.574 Y75.866 E1.84444
G1 X63.957 Y76.438 E1.85568
G1 F1800.000 E0.85568
G92 E0
G1 X63.100 Y80.175 F9000.000
G1 F1800.000 E1.00000
G1 X63.846 Y80.674 F720.000 E1.01466
G1 X64.345 Y81.420 E1.02931
G1 X64.520 Y82.300 E1.04397
G1 X64.345 Y83.180 E1.05862
G1 X63.846 Y83.926 E1.07328
G1 X63.100 Y84.424 E1.08793
G1 X62.220 Y84.600 E1.10259
G1 X61.340 Y84.424 E1.11724
G1 X60.594 Y83.926 E1.13189
G1 X60.095 Y83.180 E1.14655
G1 X59.920 Y82.300 E1.16121
G1 X60.095 Y81.420 E1.17586
G1 X60.594 Y80.674 E1.19052
G1 X61.340 Y80.175 E1.20517
G1 X62.220 Y80.000 E1.21983
G1 X63.042 Y80.164 E1.23351
G1 X62.953 Y80.531 F9000.000
G1 X63.574 Y80.946 F720.000 E1.24572
G1 X63.989 Y81.567 E1.25793
G1 X64.135 Y82.300 E1.27013
G1 X63.989 Y83.033 E1.28234
G1 X63.574 Y83.654 E1.29454
G1 X62.953 Y84.069 E1.30675
G1 X62.220 Y84.215 E1.31895
G1 X61.487 Y84.069 E1.33116
G1 X60.866 Y83.654 E1.34336
G1 X60.451 Y83.033 E1.35557
G1 X60.305 Y82.300 E1.36778
G1 X60.451 Y81.567 E1.37998
G1 X60.866 Y80.946 E1.39219
G1 X61.487 Y80.531 E1.40439
G1 X62.220 Y80.385 E1.41660
G1 X62.895 Y80.519 E1.42784
G1 F1800.000 E0.42784
G92 E0
G1 X65.175 Y81.420 F9000.000
G1 F1800.000 E1.00000
G1 X65.674 Y80.674 F720.000 E1.01465
G1 X66.420 Y80.175 E1.02931
G1 X67.300 Y80.000 E1.04397
G1 X68.180 Y80.175 E1.05862
G1 X68.926 Y80.674 E1.07328
G1 X69.424 Y81.420 E1.08793
G1 X69.600 Y82.300 E1.10259
G1 X69.425 Y83.180 E1.11724
G1 X68.926 Y83.926 E1.13190
G1 X68.180 Y84.425 E1.14655
G1 X67.300 Y84.600 E1.16120
G1 X66.420 Y84.424 E1.17586
G1 X65.674 Y83.926 E1.19051
G1 X65.175 Y83.180 E1.20517
G1 X65.000 Y82.300 E1.21983
G1 X65.164 Y81.478 E1.23351
G1 X65.531 Y81.567 F9000.000
G1 X65.946 Y80.946 F720.000 E1.24572
G1 X66.567 Y80.531 E1.25793
G1 X67.300 Y80.385 E1.27013
G1 X68.033 Y80.531 E1.28234
G1 X68.654 Y80.946 E1.29454
G1 X69.069 Y81.567 E1.30675
G1 X69.215 Y82.300 E1.31895
G1 X69.069 Y83.033 E1.33116
G1 X68.654 Y83.654 E1.34337
G1 X68.033 Y84.069 E1.35557
G1 X67.300 Y84.215 E1.36778
G1 X66.567 Y84.069 E1.37998
G1 X65.946 Y83.654 E1.39219
G1 X65.531 Y83.033 E1.40439
G1 X65.385 Y82.300 E1.41660
G1 X65.519 Y81.625 E1.42784
G1 F1800.000 E0.42784
G92 E0
G1 X70.080 Y82.300 F9000.000
G1 F1800.000 E1.00000
G1 X70.255 Y81.420 F720.000 E1.01465
G1 X70.754 Y80.674 E1.02931
G1 X71.500 Y80.175 E1.04397
G1 X72.380 Y80.000 E1.05862
G1 X73.260 Y80.175 E1.07327
G1 X74.006 Y80.674 E1.08793
G1 X74.504 Y81.420 E1.10259
G1 X74.680 Y82.300 E1.11724
G1 X74.505 Y83.180 E1.13189
G1 X74.006 Y83.926 E1.14655
G1 X73.260 Y84.425 E1.16121
G1 X72.380 Y84.600 E1.17586
G1 X71.500 Y84.425 E1.19051
G1 X70.754 Y83.926 E1.20517
G1 X70.255 Y83.180 E1.21983
G1 X70.092 Y82.358 E1.23351
G1 X70.465 Y82.300 F9000.000
G1 X70.611 Y81.567 F720.000 E1.24572
G1 X71.026 Y80.946 E1.25792
G1 X71.647 Y80.531 E1.27013
G1 X72.380 Y80.385 E1.28234
G1 X73.113 Y80.531 E1.29454
G1 X73.734 Y80.946 E1.30675
G1 X74.149 Y81.567 E1.31895
G1 X74.295 Y82.300 E1.33116
G1 X74.149 Y83.033 E1.34336
G1 X73.734 Y83.654 E1.35557
G1 X73.113 Y84.069 E1.36778
G1 X72.380 Y84.215 E1.37998
G1 X71.647 Y84.069 E1.39219
G1 X71.026 Y83.654 E1.40439
G1 X70.611 Y83.033 E1.41660
G1 X70.476 Y82.358 E1.42784
G1 F1800.000 E0.42784
G92 E0
G1 X71.500 Y79.345 F9000.000
G1 F1800.000 E1.00000
G1 X70.754 Y78.846 F720.000 E1.01466
G1 X70.255 Y78.100 E1.02931
G1 X70.080 Y77.220 E1.04397
G1 X70.255 Y76.340 E1.05862
G1 X70.754 Y75.594 E1.07328
G1 X71.500 Y75.095 E1.08793
G1 X72.380 Y74.920 E1.10259
G1 X73.260 Y75.095 E1.11724
G1 X74.006 Y75.594 E1.13190
G1 X74.504 Y76.340 E1.14655
G1 X74.680 Y77.220 E1.16121
G1 X74.504 Y78.100 E1.17586
G1 X74.006 Y78.846 E1.19052
G1 X73.260 Y79.345 E1.20517
G1 X72.380 Y79.520 E1.21983
G1 X71.558 Y79.356 E1.23351
G1 X71.647 Y78.989 F9000.000
G1 X71.026 Y78.574 F720.000 E1.24572
G1 X70.611 Y77.953 E1.25793
G1 X70.465 Y77.220 E1.27013
G1 X70.611 Y76.487 E1.28234
G1 X71.026 Y75.866 E1.29454
G1 X71.647 Y75.451 E1.30675
G1 X72.380 Y75.305 E1.31895
G1 X73.113 Y75.451 E1.33116
G1 X73.734 Y75.866 E1.34337
G1 X74.149 Y76.487 E1.35557
G1 X74.295 Y77.220 E1.36778
G1 X74.149 Y77.953 E1.37998
G1 X73.734 Y78.574 E1.39219
G1 X73.113 Y78.989 E1.40439
G1 X72.380 Y79.135 E1.41660
G1 X71.705 Y79.001 E1.42784
G1 F1800.000 E0.42784
G92 E0
G1 X75.335 Y78.100 F9000.000
G1 F1800.000 E1.00000
G1 X75.160 Y77.220 F720.000 E1.01465
G1 X75.335 Y76.340 E1.02931
G1 X75.834 Y75.594 E1.04396
G1 X76.580 Y75.095 E1.05862
G1 X77.460 Y74.920 E1.07327
G1 X78.340 Y75.095 E1.08793
G1 X79.086 Y75.594 E1.10259
