; generated by Slic3r 0.8.2 on 2014-05-22 at 18:55:29

; layer_height = 0.25
; perimeters = 3
; solid_layers = 3
; fill_density = 0.2
; nozzle_diameter = 0.35
; filament_diameter = 3
; extrusion_multiplier = 1
; perimeter_speed = 60
; infill_speed = 80
; travel_speed = 150
; extrusion_width_ratio = 0
; scale = 1
; single wall width = 0.39mm

M107
G28 ; home all axes
G90 ; use absolute coordinates
G21 ; set units to millimeters
G92 E0 ; reset extrusion distance
M82 ; use absolute distances for extrusion
G1 Z1.100 F9000.000
G1 X63.830 Y104.192
G1 F1800.000 E1.00000
G1 X98.310 Y74.072 F1080.000 E1.74779
G1 X98.490 Y73.942 E1.75142
G1 X99.060 Y73.592 E1.76234
G1 X99.470 Y73.372 E1.76994
G1 X100.370 Y72.982 E1.78596
G1 X100.810 Y72.832 E1.79355
G1 X101.720 Y72.602 E1.80889
G1 X102.180 Y72.522 E1.81651
G1 X103.210 Y72.432 E1.83340
G1 X117.760 Y72.472 E2.07105
G1 X118.770 Y72.562 E2.08761
G1 X119.230 Y72.642 E2.09524
G1 X120.180 Y72.882 E2.11124
G1 X120.610 Y73.032 E2.11868
G1 X121.470 Y73.412 E2.13404
G1 X121.880 Y73.632 E2.14164
G1 X122.660 Y74.142 E2.15686
G1 X123.370 Y74.692 E2.17153
G1 X124.440 Y75.832 E2.19706
G1 X127.680 Y79.972 E2.28293
G1 X127.970 Y80.412 E2.29154
G1 X128.220 Y80.882 E2.30023
G1 X128.430 Y81.372 E2.30894
G1 X128.590 Y81.882 E2.31767
G1 X128.710 Y82.402 E2.32639
G1 X128.780 Y82.932 E2.33512
G1 X128.780 Y97.602 E2.57473
G1 X128.710 Y98.132 E2.58346
G1 X128.590 Y98.652 E2.59218
G1 X128.430 Y99.162 E2.60091
G1 X128.220 Y99.652 E2.60962
G1 X127.970 Y100.122 E2.61831
G1 X127.520 Y100.782 E2.63136
G1 X124.440 Y104.702 E2.71278
G1 X123.530 Y105.692 E2.73475
G1 X123.370 Y105.842 E2.73833
G1 X122.660 Y106.392 E2.75300
G1 X121.880 Y106.902 E2.76822
G1 X121.470 Y107.122 E2.77582
G1 X120.610 Y107.492 E2.79111
G1 X120.210 Y107.632 E2.79803
G1 X119.370 Y107.862 E2.81226
G1 X70.080 Y117.432 E3.63236
G1 X69.170 Y117.542 E3.64733
G1 X68.910 Y117.552 E3.65158
G1 X67.990 Y117.512 E3.66662
G1 X67.510 Y117.452 E3.67453
G1 X66.870 Y117.322 E3.68519
G1 X66.190 Y117.112 E3.69682
G1 X65.580 Y116.862 E3.70758
G1 X65.150 Y116.642 E3.71547
G1 X64.460 Y116.222 E3.72867
G1 X63.550 Y115.542 E3.74722
G1 X62.960 Y114.962 E3.76073
G1 X62.610 Y114.532 E3.76979
G1 X62.450 Y114.302 E3.77437
G1 X62.170 Y113.832 E3.78330
G1 X61.930 Y113.342 E3.79221
G1 X61.430 Y111.982 E3.81588
G1 X61.280 Y111.442 E3.82504
G1 X61.180 Y110.882 E3.83433
G1 X61.140 Y110.312 E3.84366
G1 X61.150 Y109.752 E3.85281
G1 X61.400 Y108.112 E3.87990
G1 X61.460 Y107.842 E3.88442
G1 X61.630 Y107.312 E3.89351
G1 X61.840 Y106.792 E3.90267
G1 X62.100 Y106.302 E3.91173
G1 X62.410 Y105.832 E3.92093
G1 X63.370 Y104.642 E3.94590
G1 X63.787 Y104.232 E3.95545
G1 F1800.000 E2.95545
G92 E0
G1 X68.423 Y111.527 F9000.000
G1 F1800.000 E1.00000
G1 X68.170 Y111.449 F720.000 E1.00433
G1 X67.935 Y111.331 E1.00862
G1 X67.768 Y111.207 E1.01202
G1 X69.731 Y111.207 E1.04407
G1 X69.673 Y111.258 E1.04532
G1 X69.448 Y111.396 E1.04964
G1 X69.204 Y111.494 E1.05394
G1 X68.946 Y111.549 E1.05824
G1 X68.684 Y111.561 E1.06252
G1 X68.482 Y111.535 E1.06586
G1 X70.070 Y110.956 F9000.000
G1 X70.311 Y110.482 F1080.000 E1.07455
G1 X70.371 Y109.807 E1.08561
G1 X70.067 Y109.042 E1.09906
G1 X69.426 Y108.523 E1.11253
G1 X68.616 Y108.381 E1.12596
G1 X68.202 Y108.474 E1.13289
G1 X67.785 Y108.719 E1.14079
G1 X67.277 Y109.355 E1.15409
G1 X67.145 Y110.161 E1.16742
G1 X67.452 Y110.982 E1.18175
G1 F1800.000 E0.18175
G92 E0
G1 X115.921 Y97.462 F9000.000
G1 F1800.000 E1.00000
G1 X116.250 Y97.219 F720.000 E1.00668
G1 X116.615 Y97.034 E1.01336
G1 X117.006 Y96.915 E1.02004
G1 X117.412 Y96.863 E1.02672
G1 X117.820 Y96.880 E1.03340
G1 X118.220 Y96.966 E1.04008
G1 X118.599 Y97.119 E1.04675
G1 X118.952 Y97.336 E1.05351
G1 X119.270 Y97.623 E1.06052
G1 X119.511 Y97.922 E1.06679
G1 X119.711 Y98.279 E1.07347
G1 X119.847 Y98.664 E1.08015
G1 X119.916 Y99.067 E1.08683
G1 X119.916 Y99.476 E1.09351
G1 X119.847 Y99.879 E1.10018
G1 X119.711 Y100.265 E1.10686
G1 X119.511 Y100.622 E1.11354
G1 X119.255 Y100.940 E1.12022
G1 X118.944 Y101.213 E1.12698
G1 X118.576 Y101.434 E1.13399
G1 X118.220 Y101.577 E1.14026
G1 X117.820 Y101.663 E1.14694
G1 X117.412 Y101.680 E1.15361
G1 X117.006 Y101.629 E1.16029
G1 X116.615 Y101.509 E1.16697
G1 X116.250 Y101.325 E1.17365
G1 X115.921 Y101.082 E1.18033
G1 X115.638 Y100.786 E1.18701
G1 X115.406 Y100.444 E1.19377
G1 X115.234 Y100.050 E1.20078
G1 X115.138 Y99.679 E1.20704
G1 X115.103 Y99.272 E1.21372
G1 X115.138 Y98.864 E1.22040
G1 X115.242 Y98.464 E1.22716
G1 X115.423 Y98.075 E1.23417
G1 X115.638 Y97.757 E1.24044
G1 X115.880 Y97.504 E1.24615
G1 X116.171 Y97.746 F9000.000
G1 X116.448 Y97.541 F720.000 E1.25178
G1 X116.756 Y97.386 E1.25741
G1 X117.086 Y97.285 E1.26304
G1 X117.428 Y97.241 E1.26867
G1 X117.772 Y97.255 E1.27431
G1 X118.109 Y97.328 E1.27994
G1 X118.429 Y97.457 E1.28557
G1 X118.725 Y97.639 E1.29124
G1 X118.996 Y97.883 E1.29720
G1 X119.198 Y98.133 E1.30246
G1 X119.366 Y98.434 E1.30809
G1 X119.481 Y98.759 E1.31372
G1 X119.539 Y99.099 E1.31935
G1 X119.539 Y99.444 E1.32498
G1 X119.481 Y99.784 E1.33061
G1 X119.366 Y100.109 E1.33625
G1 X119.198 Y100.410 E1.34188
G1 X118.981 Y100.678 E1.34751
G1 X118.721 Y100.908 E1.35318
G1 X118.408 Y101.095 E1.35914
G1 X118.109 Y101.215 E1.36440
G1 X117.772 Y101.288 E1.37003
G1 X117.428 Y101.303 E1.37566
G1 X117.086 Y101.259 E1.38129
G1 X116.756 Y101.158 E1.38692
G1 X116.448 Y101.003 E1.39255
G1 X116.171 Y100.798 E1.39818
G1 X115.932 Y100.549 E1.40382
G1 X115.738 Y100.261 E1.40949
G1 X115.592 Y99.926 E1.41545
G1 X115.510 Y99.615 E1.42071
G1 X115.481 Y99.272 E1.42634
G1 X115.510 Y98.928 E1.43197
G1 X115.598 Y98.592 E1.43764
G1 X115.752 Y98.261 E1.44360
G1 X115.932 Y97.995 E1.44886
G1 X116.130 Y97.788 E1.45352
G1 F1800.000 E0.45352
G92 E0
G1 X105.888 Y99.067 F9000.000
G1 F1800.000 E1.00000
G1 X105.888 Y99.476 F720.000 E1.00668
G1 X105.819 Y99.879 E1.01336
G1 X105.683 Y100.265 E1.02004
G1 X105.484 Y100.622 E1.02672
G1 X105.227 Y100.940 E1.03340
G1 X104.916 Y101.213 E1.04015
G1 X104.548 Y101.434 E1.04716
G1 X104.192 Y101.577 E1.05343
G1 X103.792 Y101.663 E1.06011
G1 X103.384 Y101.680 E1.06679
G1 X102.978 Y101.629 E1.07347
G1 X102.587 Y101.509 E1.08015
G1 X102.222 Y101.325 E1.08683
G1 X101.893 Y101.082 E1.09351
G1 X101.610 Y100.786 E1.10018
G1 X101.381 Y100.447 E1.10686
G1 X101.211 Y100.071 E1.11362
G1 X101.108 Y99.654 E1.12063
G1 X101.075 Y99.272 E1.12690
G1 X101.110 Y98.864 E1.13358
G1 X101.214 Y98.464 E1.14033
G1 X101.395 Y98.075 E1.14734
G1 X101.610 Y97.757 E1.15361
G1 X101.893 Y97.462 E1.16029
G1 X102.222 Y97.219 E1.16697
G1 X102.587 Y97.034 E1.17365
G1 X102.978 Y96.915 E1.18033
G1 X103.384 Y96.863 E1.18701
G1 X103.792 Y96.880 E1.19369
G1 X104.192 Y96.966 E1.20037
G1 X104.572 Y97.119 E1.20704
G1 X104.924 Y97.336 E1.21380
G1 X105.243 Y97.623 E1.22081
G1 X105.484 Y97.922 E1.22708
G1 X105.683 Y98.279 E1.23376
G1 X105.819 Y98.664 E1.24044
G1 X105.878 Y99.009 E1.24615
G1 X105.511 Y99.099 F9000.000
G1 X105.511 Y99.444 F720.000 E1.25178
G1 X105.453 Y99.784 E1.25741
G1 X105.338 Y100.109 E1.26304
G1 X105.170 Y100.410 E1.26867
G1 X104.954 Y100.678 E1.27431
G1 X104.693 Y100.908 E1.27998
G1 X104.380 Y101.095 E1.28594
G1 X104.081 Y101.215 E1.29120
G1 X103.744 Y101.288 E1.29683
G1 X103.400 Y101.303 E1.30246
G1 X103.058 Y101.259 E1.30809
G1 X102.728 Y101.158 E1.31372
G1 X102.420 Y101.003 E1.31935
G1 X102.143 Y100.798 E1.32498
G1 X101.905 Y100.549 E1.33061
G1 X101.711 Y100.263 E1.33625
G1 X101.568 Y99.947 E1.34192
G1 X101.481 Y99.592 E1.34788
G1 X101.453 Y99.272 E1.35313
G1 X101.483 Y98.928 E1.35877
G1 X101.570 Y98.592 E1.36444
G1 X101.724 Y98.261 E1.37040
G1 X101.905 Y97.995 E1.37566
G1 X102.143 Y97.746 E1.38129
G1 X102.420 Y97.541 E1.38692
G1 X102.728 Y97.386 E1.39255
G1 X103.058 Y97.285 E1.39818
G1 X103.400 Y97.241 E1.40381
G1 X103.744 Y97.255 E1.40944
G1 X104.081 Y97.328 E1.41507
G1 X104.401 Y97.457 E1.42071
G1 X104.697 Y97.639 E1.42638
G1 X104.968 Y97.883 E1.43234
G1 X105.170 Y98.133 E1.43759
G1 X105.338 Y98.434 E1.44323
G1 X105.453 Y98.759 E1.44886
G1 X105.501 Y99.041 E1.45352
G1 X105.889 Y97.874 F9000.000
G1 X105.797 Y97.710 F720.000 E1.45659
G1 X105.517 Y97.363 E1.46387
G1 X105.361 Y97.223 E1.46729
G1 X106.363 Y97.223 E1.48366
G1 X106.096 Y97.535 E1.49037
G1 X105.920 Y97.823 E1.49589
G1 F1800.000 E0.49589
G92 E0
G1 X101.600 Y97.223 F9000.000
G1 F1800.000 E1.00000
G1 X101.316 Y97.519 F720.000 E1.00671
G1 X101.080 Y97.868 E1.01359
G1 X100.876 Y97.535 E1.01997
G1 X100.609 Y97.223 E1.02669
G1 X101.541 Y97.223 E1.04191
G1 F1800.000 E0.04191
G92 E0
G1 X119.389 Y97.223 F9000.000
G1 F1800.000 E1.00000
G1 X120.391 Y97.223 F720.000 E1.01636
G1 X120.124 Y97.535 E1.02308
G1 X119.917 Y97.874 E1.02956
G1 X119.825 Y97.710 E1.03263
G1 X119.545 Y97.363 E1.03991
G1 X119.433 Y97.262 E1.04237
G1 F1800.000 E0.04237
G92 E0
G1 X115.628 Y97.223 F9000.000
G1 F1800.000 E1.00000
G1 X115.344 Y97.519 F720.000 E1.00671
G1 X115.108 Y97.868 E1.01359
G1 X114.904 Y97.535 E1.01997
G1 X114.637 Y97.223 E1.02669
G1 X115.569 Y97.223 E1.04191
G1 F1800.000 E0.04191
G92 E0
G1 X107.641 Y96.846 F9000.000
G1 F1800.000 E1.00000
G1 X107.319 Y96.975 F720.000 E1.00566
G1 X106.972 Y97.188 E1.01231
G1 X106.665 Y97.450 E1.01891
G1 X106.402 Y97.758 E1.02552
G1 X106.191 Y98.102 E1.03212
G1 X106.036 Y98.476 E1.03872
G1 X105.942 Y98.868 E1.04531
G1 X105.877 Y99.671 E1.05847
G1 X105.779 Y100.059 E1.06500
G1 X105.618 Y100.425 E1.07154
G1 X105.399 Y100.760 E1.07808
G1 X105.128 Y101.055 E1.08462
G1 X104.812 Y101.301 E1.09116
G1 X104.460 Y101.491 E1.09770
G1 X104.081 Y101.621 E1.10423
G1 X103.686 Y101.687 E1.11077
G1 X103.286 Y101.687 E1.11731
G1 X102.891 Y101.621 E1.12385
G1 X102.512 Y101.491 E1.13039
G1 X102.160 Y101.301 E1.13693
G1 X101.844 Y101.055 E1.14347
G1 X101.573 Y100.760 E1.15001
G1 X101.354 Y100.425 E1.15654
G1 X101.193 Y100.059 E1.16308
G1 X101.095 Y99.671 E1.16961
G1 X101.030 Y98.868 E1.18277
G1 X100.936 Y98.476 E1.18936
G1 X100.781 Y98.102 E1.19597
G1 X100.570 Y97.758 E1.20257
G1 X100.308 Y97.450 E1.20917
G1 X100.000 Y97.188 E1.21577
G1 X99.656 Y96.976 E1.22237
G1 X99.340 Y96.846 E1.22795
G1 X107.582 Y96.846 E1.36257
G1 F1800.000 E0.36257
G92 E0
G1 X113.368 Y96.846 F9000.000
G1 F1800.000 E1.00000
G1 X121.660 Y96.846 F720.000 E1.13544
G1 X121.344 Y96.976 E1.14102
G1 X121.000 Y97.188 E1.14762
G1 X120.692 Y97.450 E1.15423
G1 X120.430 Y97.758 E1.16083
G1 X120.219 Y98.102 E1.16743
G1 X120.064 Y98.476 E1.17403
G1 X119.970 Y98.868 E1.18062
G1 X119.905 Y99.671 E1.19378
G1 X119.807 Y100.059 E1.20031
G1 X119.646 Y100.425 E1.20685
G1 X119.427 Y100.760 E1.21339
G1 X119.156 Y101.055 E1.21993
G1 X118.840 Y101.301 E1.22647
G1 X118.488 Y101.491 E1.23301
G1 X118.141 Y101.610 E1.23899
G1 X117.711 Y101.687 E1.24613
G1 X117.314 Y101.687 E1.25261
G1 X116.919 Y101.621 E1.25915
G1 X116.540 Y101.491 E1.26569
G1 X116.188 Y101.301 E1.27223
G1 X115.872 Y101.055 E1.27877
G1 X115.601 Y100.760 E1.28531
G1 X115.382 Y100.425 E1.29185
G1 X115.221 Y100.059 E1.29839
G1 X115.123 Y99.671 E1.30492
G1 X115.058 Y98.868 E1.31808
G1 X114.964 Y98.476 E1.32467
G1 X114.809 Y98.102 E1.33127
G1 X114.598 Y97.758 E1.33787
G1 X114.335 Y97.450 E1.34447
G1 X114.028 Y97.188 E1.35108
G1 X113.683 Y96.976 E1.35768
G1 X113.422 Y96.868 E1.36229
G1 X113.193 Y97.181 F9000.000
G1 X112.858 Y97.101 F1080.000 E1.36792
G1 X112.522 Y97.074 E1.37343
G1 X108.478 Y97.074 E1.43947
G1 X108.142 Y97.101 E1.44498
G1 X107.831 Y97.176 E1.45021
G1 X107.489 Y97.313 E1.45622
G1 X107.194 Y97.494 E1.46187
G1 X106.932 Y97.718 E1.46750
G1 X106.708 Y97.980 E1.47314
G1 X106.528 Y98.274 E1.47877
G1 X106.396 Y98.592 E1.48440
G1 X106.315 Y98.928 E1.49003
G1 X106.250 Y99.733 E1.50323
G1 X106.136 Y100.181 E1.51079
G1 X105.950 Y100.605 E1.51835
G1 X105.697 Y100.993 E1.52591
G1 X105.384 Y101.333 E1.53346
G1 X105.019 Y101.617 E1.54102
G1 X104.612 Y101.838 E1.54858
G1 X104.174 Y101.988 E1.55614
G1 X103.717 Y102.064 E1.56370
G1 X103.255 Y102.064 E1.57126
G1 X102.798 Y101.988 E1.57882
G1 X102.360 Y101.838 E1.58638
G1 X101.953 Y101.617 E1.59394
G1 X101.588 Y101.333 E1.60150
G1 X101.275 Y100.993 E1.60905
G1 X101.022 Y100.605 E1.61661
G1 X100.836 Y100.181 E1.62417
G1 X100.722 Y99.733 E1.63173
G1 X100.657 Y98.928 E1.64493
G1 X100.576 Y98.592 E1.65056
G1 X100.444 Y98.274 E1.65619
G1 X100.264 Y97.980 E1.66182
G1 X100.040 Y97.718 E1.66746
G1 X99.778 Y97.494 E1.67309
G1 X99.484 Y97.313 E1.67872
G1 X99.165 Y97.181 E1.68435
G1 X98.830 Y97.101 E1.68999
G1 X98.494 Y97.074 E1.69549
G1 X98.197 Y97.074 E1.70034
G1 X98.197 Y96.469 E1.71023
G1 X122.197 Y96.469 E2.10223
G1 X122.197 Y92.419 E2.16838
G1 X122.803 Y92.419 E2.17827
G1 X122.803 Y97.074 E2.25431
G1 X122.506 Y97.074 E2.25916
G1 X122.170 Y97.101 E2.26467
G1 X121.835 Y97.181 E2.27030
G1 X121.516 Y97.313 E2.27593
G1 X121.222 Y97.494 E2.28156
G1 X120.960 Y97.718 E2.28720
G1 X120.736 Y97.980 E2.29283
G1 X120.556 Y98.274 E2.29846
G1 X120.424 Y98.592 E2.30410
G1 X120.343 Y98.928 E2.30972
G1 X120.278 Y99.733 E2.32292
G1 X120.164 Y100.181 E2.33048
G1 X119.978 Y100.605 E2.33804
G1 X119.725 Y100.993 E2.34560
G1 X119.412 Y101.333 E2.35316
G1 X119.047 Y101.617 E2.36072
G1 X118.640 Y101.838 E2.36827
G1 X118.236 Y101.976 E2.37525
G1 X117.744 Y102.064 E2.38340
G1 X117.283 Y102.064 E2.39094
G1 X116.826 Y101.988 E2.39850
G1 X116.388 Y101.838 E2.40606
G1 X115.981 Y101.617 E2.41362
G1 X115.616 Y101.333 E2.42118
G1 X115.303 Y100.993 E2.42874
G1 X115.050 Y100.605 E2.43630
G1 X114.864 Y100.181 E2.44386
G1 X114.750 Y99.733 E2.45141
G1 X114.685 Y98.928 E2.46461
G1 X114.604 Y98.592 E2.47024
G1 X114.472 Y98.274 E2.47587
G1 X114.292 Y97.980 E2.48151
G1 X114.068 Y97.718 E2.48714
G1 X113.806 Y97.494 E2.49277
G1 X113.512 Y97.313 E2.49841
G1 X113.248 Y97.204 E2.50307
G1 F1800.000 E1.50307
G92 E0
G1 X104.535 Y83.384 F9000.000
G1 F1800.000 E1.00000
G1 X104.155 Y83.537 F720.000 E1.00668
G1 X103.756 Y83.623 E1.01336
G1 X103.347 Y83.640 E1.02004
G1 X102.941 Y83.588 E1.02672
G1 X102.550 Y83.469 E1.03340
G1 X102.185 Y83.284 E1.04008
G1 X101.857 Y83.041 E1.04675
G1 X101.574 Y82.746 E1.05343
G1 X101.342 Y82.403 E1.06019
G1 X101.170 Y82.010 E1.06720
G1 X101.073 Y81.639 E1.07347
G1 X101.038 Y81.231 E1.08015
G1 X101.073 Y80.824 E1.08683
G1 X101.176 Y80.428 E1.09351
G1 X101.345 Y80.056 E1.10018
G1 X101.574 Y79.717 E1.10686
G1 X101.857 Y79.422 E1.11354
G1 X102.185 Y79.178 E1.12022
G1 X102.550 Y78.994 E1.12690
G1 X102.941 Y78.875 E1.13358
G1 X103.347 Y78.823 E1.14026
G1 X103.756 Y78.840 E1.14694
G1 X104.160 Y78.927 E1.15370
G1 X104.556 Y79.092 E1.16071
G1 X104.883 Y79.293 E1.16697
G1 X105.190 Y79.563 E1.17365
G1 X105.447 Y79.881 E1.18033
G1 X105.646 Y80.238 E1.18701
G1 X105.783 Y80.624 E1.19369
G1 X105.852 Y81.027 E1.20037
G1 X105.852 Y81.436 E1.20705
G1 X105.783 Y81.839 E1.21373
G1 X105.646 Y82.225 E1.22041
G1 X105.447 Y82.582 E1.22709
G1 X105.190 Y82.900 E1.23377
G1 X104.883 Y83.170 E1.24045
G1 X104.585 Y83.353 E1.24616
G1 X104.365 Y83.046 F9000.000
G1 X104.045 Y83.175 F720.000 E1.25179
G1 X103.708 Y83.248 E1.25742
G1 X103.363 Y83.262 E1.26305
G1 X103.021 Y83.218 E1.26868
G1 X102.692 Y83.118 E1.27431
G1 X102.384 Y82.962 E1.27995
G1 X102.106 Y82.757 E1.28558
G1 X101.868 Y82.508 E1.29121
G1 X101.674 Y82.221 E1.29688
G1 X101.527 Y81.886 E1.30284
G1 X101.446 Y81.575 E1.30810
G1 X101.417 Y81.231 E1.31373
G1 X101.446 Y80.888 E1.31936
G1 X101.533 Y80.554 E1.32499
G1 X101.675 Y80.240 E1.33062
G1 X101.868 Y79.954 E1.33625
G1 X102.106 Y79.706 E1.34189
G1 X102.384 Y79.501 E1.34752
G1 X102.692 Y79.345 E1.35315
G1 X103.021 Y79.244 E1.35878
G1 X103.363 Y79.201 E1.36441
G1 X103.708 Y79.215 E1.37004
G1 X104.047 Y79.288 E1.37571
G1 X104.384 Y79.428 E1.38168
G1 X104.658 Y79.597 E1.38693
G1 X104.917 Y79.825 E1.39256
G1 X105.134 Y80.093 E1.39819
G1 X105.302 Y80.394 E1.40382
G1 X105.417 Y80.719 E1.40946
G1 X105.475 Y81.059 E1.41509
G1 X105.475 Y81.404 E1.42072
G1 X105.417 Y81.744 E1.42635
G1 X105.302 Y82.069 E1.43198
G1 X105.134 Y82.370 E1.43761
G1 X104.917 Y82.638 E1.44324
G1 X104.658 Y82.866 E1.44887
G1 X104.415 Y83.015 E1.45354
G1 F1800.000 E0.45354
G92 E0
G1 X115.138 Y81.679 F9000.000
G1 F1800.000 E1.00000
G1 X115.103 Y81.272 F720.000 E1.00668
G1 X115.138 Y80.864 E1.01336
G1 X115.242 Y80.464 E1.02011
