; generated by Slic3r 0.8.2 on 2014-05-16 at 20:11:42

; layer_height = 0.25
; perimeters = 3
; solid_layers = 3
; fill_density = 0.2
; nozzle_diameter = 0.35
; filament_diameter = 3
; extrusion_multiplier = 1
; perimeter_speed = 50
; infill_speed = 70
; travel_speed = 130
; extrusion_width_ratio = 0
; scale = 1
; single wall width = 0.39mm

M107
G28 ; home all axes
G90 ; use absolute coordinates
G21 ; set units to millimeters
G92 E0 ; reset extrusion distance
M82 ; use absolute distances for extrusion
G1 Z0.800 F7800.000
G1 X59.610 Y53.040
G1 F1800.000 E1.00000
G1 X59.790 Y52.860 F900.000 E1.00416
G1 X60.170 Y52.520 E1.01249
G1 X60.790 Y52.080 E1.02490
G1 X61.010 Y51.950 E1.02908
G1 X61.470 Y51.720 E1.03748
G1 X61.940 Y51.530 E1.04576
G1 X62.430 Y51.380 E1.05413
G1 X62.680 Y51.320 E1.05833
G1 X63.430 Y51.210 E1.07071
G1 X63.940 Y51.190 E1.07904
G1 X126.560 Y51.210 E2.10184
G1 X127.310 Y51.320 E2.11422
G1 X127.810 Y51.450 E2.12266
G1 X128.290 Y51.620 E2.13097
G1 X128.750 Y51.830 E2.13923
G1 X128.980 Y51.950 E2.14347
G1 X129.200 Y52.080 E2.14764
G1 X129.820 Y52.520 E2.16006
G1 X130.200 Y52.860 E2.16839
G1 X130.380 Y53.040 E2.17255
G1 X130.720 Y53.420 E2.18088
G1 X131.160 Y54.040 E2.19329
G1 X131.290 Y54.260 E2.19747
G1 X131.520 Y54.720 E2.20587
G1 X131.710 Y55.190 E2.21415
G1 X131.860 Y55.680 E2.22252
G1 X131.920 Y55.930 E2.22672
G1 X132.030 Y56.680 E2.23910
G1 X132.030 Y133.310 E3.49072
G1 X131.920 Y134.060 E3.50310
G1 X131.790 Y134.560 E3.51154
G1 X131.620 Y135.040 E3.51986
G1 X131.410 Y135.500 E3.52812
G1 X131.290 Y135.730 E3.53236
G1 X131.160 Y135.950 E3.53653
G1 X130.720 Y136.570 E3.54895
G1 X130.380 Y136.950 E3.55728
G1 X130.200 Y137.130 E3.56143
G1 X129.820 Y137.470 E3.56976
G1 X129.200 Y137.910 E3.58218
G1 X128.980 Y138.040 E3.58635
G1 X128.520 Y138.270 E3.59475
G1 X128.050 Y138.460 E3.60303
G1 X127.560 Y138.610 E3.61140
G1 X127.310 Y138.670 E3.61560
G1 X126.560 Y138.780 E3.62798
G1 X126.050 Y138.800 E3.63632
G1 X63.430 Y138.780 E4.65911
G1 X62.680 Y138.670 E4.67149
G1 X62.180 Y138.540 E4.67993
G1 X61.700 Y138.370 E4.68825
G1 X61.240 Y138.160 E4.69651
G1 X61.010 Y138.040 E4.70075
G1 X60.790 Y137.910 E4.70492
G1 X60.170 Y137.470 E4.71734
G1 X59.790 Y137.130 E4.72567
G1 X59.610 Y136.950 E4.72982
G1 X59.270 Y136.570 E4.73815
G1 X58.830 Y135.950 E4.75057
G1 X58.700 Y135.730 E4.75474
G1 X58.470 Y135.270 E4.76314
G1 X58.280 Y134.800 E4.77142
G1 X58.130 Y134.310 E4.77979
G1 X58.070 Y134.060 E4.78399
G1 X57.960 Y133.310 E4.79637
G1 X57.960 Y56.680 E6.04800
G1 X58.070 Y55.930 E6.06038
G1 X58.200 Y55.430 E6.06882
G1 X58.370 Y54.950 E6.07713
G1 X58.580 Y54.490 E6.08539
G1 X58.700 Y54.260 E6.08963
G1 X58.830 Y54.040 E6.09380
G1 X59.270 Y53.420 E6.10622
G1 X59.571 Y53.084 E6.11358
G1 F1800.000 E5.11358
G92 E0
G1 X70.549 Y59.549 F7800.000
G1 F1800.000 E1.00000
G1 X106.951 Y59.549 F900.000 E1.59457
G1 X106.951 Y69.049 E1.74973
G1 X109.049 Y69.049 E1.78400
G1 X109.049 Y59.549 E1.93917
G1 X123.201 Y59.549 E2.17032
G1 X123.201 Y79.709 E2.49960
G1 X122.485 Y79.959 E2.51199
G1 X122.466 Y79.975 E2.51240
G1 X122.460 Y79.990 E2.51265
G1 X122.459 Y80.000 E2.51282
G1 X122.460 Y80.010 E2.51299
G1 X122.466 Y80.025 E2.51325
G1 X122.485 Y80.041 E2.51366
G1 X123.201 Y80.291 E2.52605
G1 X123.201 Y109.709 E3.00654
G1 X122.485 Y109.959 E3.01893
G1 X122.466 Y109.975 E3.01934
G1 X122.460 Y109.990 E3.01960
G1 X122.459 Y110.000 E3.01977
G1 X122.460 Y110.010 E3.01994
G1 X122.466 Y110.025 E3.02019
G1 X122.485 Y110.041 E3.02060
G1 X123.201 Y110.291 E3.03299
G1 X123.201 Y130.451 E3.36227
G1 X115.549 Y130.451 E3.48726
G1 X115.549 Y120.951 E3.64242
G1 X113.451 Y120.951 E3.67669
G1 X113.451 Y130.451 E3.83185
G1 X95.361 Y130.451 E4.12732
G1 X95.034 Y129.865 E4.13829
G1 X95.022 Y129.855 E4.13854
G1 X95.010 Y129.850 E4.13875
G1 X94.997 Y129.849 E4.13896
G1 X94.987 Y129.851 E4.13913
G1 X94.978 Y129.855 E4.13930
G1 X94.966 Y129.865 E4.13955
G1 X94.639 Y130.451 E4.15052
G1 X76.549 Y130.451 E4.44598
G1 X76.549 Y120.951 E4.60115
G1 X74.451 Y120.951 E4.63542
G1 X74.451 Y130.451 E4.79058
G1 X66.799 Y130.451 E4.91557
G1 X66.799 Y110.291 E5.24485
G1 X67.515 Y110.041 E5.25724
G1 X67.534 Y110.025 E5.25765
G1 X67.540 Y110.010 E5.25790
G1 X67.541 Y110.000 E5.25807
G1 X67.540 Y109.990 E5.25824
G1 X67.534 Y109.975 E5.25850
G1 X67.515 Y109.959 E5.25891
G1 X66.799 Y109.709 E5.27130
G1 X66.799 Y80.291 E5.75179
G1 X67.515 Y80.041 E5.76418
G1 X67.534 Y80.025 E5.76459
G1 X67.540 Y80.010 E5.76485
G1 X67.541 Y80.000 E5.76502
G1 X67.540 Y79.990 E5.76519
G1 X67.534 Y79.975 E5.76544
G1 X67.515 Y79.959 E5.76585
G1 X66.799 Y79.709 E5.77824
G1 X66.799 Y69.049 E5.95235
G1 X70.549 Y69.049 E6.01360
G1 X70.549 Y59.608 E6.16780
G1 X70.926 Y59.926 F7800.000
G1 X106.574 Y59.926 F900.000 E6.75006
G1 X106.574 Y69.426 E6.90523
G1 X109.426 Y69.426 E6.95180
G1 X109.426 Y59.926 E7.10697
G1 X122.824 Y59.926 E7.32581
G1 X122.824 Y79.441 E7.64456
G1 X122.309 Y79.621 E7.65348
G1 X122.288 Y79.633 E7.65386
G1 X122.179 Y79.723 E7.65618
G1 X122.156 Y79.750 E7.65676
G1 X122.138 Y79.780 E7.65733
G1 X122.092 Y79.895 E7.65935
G1 X122.079 Y80.000 E7.66108
G1 X122.092 Y80.105 E7.66280
G1 X122.138 Y80.220 E7.66483
G1 X122.156 Y80.250 E7.66540
G1 X122.179 Y80.277 E7.66598
G1 X122.288 Y80.367 E7.66830
G1 X122.309 Y80.379 E7.66868
G1 X122.824 Y80.559 E7.67760
G1 X122.824 Y109.441 E8.14935
G1 X122.309 Y109.621 E8.15826
G1 X122.288 Y109.633 E8.15864
G1 X122.179 Y109.723 E8.16097
G1 X122.156 Y109.750 E8.16154
G1 X122.138 Y109.780 E8.16212
G1 X122.092 Y109.895 E8.16414
G1 X122.079 Y110.000 E8.16586
G1 X122.092 Y110.105 E8.16759
G1 X122.138 Y110.220 E8.16961
G1 X122.156 Y110.250 E8.17019
G1 X122.179 Y110.277 E8.17076
G1 X122.288 Y110.367 E8.17308
G1 X122.309 Y110.379 E8.17347
G1 X122.824 Y110.559 E8.18238
G1 X122.824 Y130.074 E8.50113
G1 X115.926 Y130.074 E8.61381
G1 X115.926 Y120.574 E8.76897
G1 X113.074 Y120.574 E8.81555
G1 X113.074 Y130.074 E8.97072
G1 X95.583 Y130.074 E9.25641
G1 X95.333 Y129.628 E9.26476
G1 X95.321 Y129.613 E9.26507
G1 X95.226 Y129.534 E9.26710
G1 X95.114 Y129.481 E9.26912
G1 X95.097 Y129.477 E9.26940
G1 X94.974 Y129.470 E9.27142
G1 X94.870 Y129.489 E9.27315
G1 X94.774 Y129.534 E9.27487
G1 X94.679 Y129.613 E9.27690
G1 X94.667 Y129.628 E9.27720
G1 X94.417 Y130.074 E9.28555
G1 X76.926 Y130.074 E9.57125
G1 X76.926 Y120.574 E9.72642
G1 X74.074 Y120.574 E9.77299
G1 X74.074 Y130.074 E9.92816
G1 X67.176 Y130.074 E10.04083
G1 X67.176 Y110.559 E10.35959
G1 X67.691 Y110.379 E10.36850
G1 X67.712 Y110.367 E10.36888
G1 X67.821 Y110.277 E10.37121
G1 X67.844 Y110.250 E10.37178
G1 X67.862 Y110.220 E10.37235
G1 X67.908 Y110.105 E10.37438
G1 X67.921 Y110.000 E10.37610
G1 X67.908 Y109.895 E10.37783
G1 X67.862 Y109.780 E10.37985
G1 X67.844 Y109.750 E10.38042
G1 X67.821 Y109.723 E10.38100
G1 X67.712 Y109.633 E10.38332
G1 X67.691 Y109.621 E10.38370
G1 X67.176 Y109.441 E10.39262
G1 X67.176 Y80.559 E10.86437
G1 X67.691 Y80.379 E10.87329
G1 X67.712 Y80.367 E10.87367
G1 X67.821 Y80.277 E10.87599
G1 X67.844 Y80.250 E10.87656
G1 X67.862 Y80.220 E10.87714
G1 X67.908 Y80.105 E10.87916
G1 X67.921 Y80.000 E10.88089
G1 X67.908 Y79.895 E10.88261
G1 X67.862 Y79.780 E10.88463
G1 X67.844 Y79.750 E10.88521
G1 X67.821 Y79.723 E10.88578
G1 X67.712 Y79.633 E10.88811
G1 X67.691 Y79.621 E10.88849
G1 X67.176 Y79.441 E10.89740
G1 X67.176 Y69.426 E11.06099
G1 X70.926 Y69.426 E11.12224
G1 X70.926 Y59.985 E11.27644
G1 X71.303 Y60.303 F7800.000
G1 X106.197 Y60.303 F900.000 E11.84638
G1 X106.197 Y69.803 E12.00155
G1 X109.803 Y69.803 E12.06044
G1 X109.803 Y60.303 E12.21561
G1 X122.447 Y60.303 E12.42213
G1 X122.447 Y79.174 E12.73036
G1 X122.155 Y79.276 E12.73542
G1 X122.076 Y79.320 E12.73689
G1 X121.911 Y79.456 E12.74038
G1 X121.851 Y79.528 E12.74192
G1 X121.800 Y79.608 E12.74347
G1 X121.724 Y79.801 E12.74685
G1 X121.699 Y80.000 E12.75013
G1 X121.724 Y80.199 E12.75341
G1 X121.800 Y80.392 E12.75679
G1 X121.851 Y80.472 E12.75834
G1 X121.911 Y80.544 E12.75988
G1 X122.076 Y80.680 E12.76337
G1 X122.155 Y80.724 E12.76485
G1 X122.447 Y80.826 E12.76990
G1 X122.447 Y109.174 E13.23291
G1 X122.155 Y109.276 E13.23797
G1 X122.076 Y109.320 E13.23945
G1 X121.911 Y109.456 E13.24294
G1 X121.851 Y109.528 E13.24448
G1 X121.800 Y109.608 E13.24602
G1 X121.724 Y109.801 E13.24941
G1 X121.699 Y110.000 E13.25269
G1 X121.724 Y110.199 E13.25597
G1 X121.800 Y110.392 E13.25935
G1 X121.851 Y110.472 E13.26090
G1 X121.911 Y110.544 E13.26244
G1 X122.076 Y110.680 E13.26593
G1 X122.155 Y110.724 E13.26740
G1 X122.447 Y110.826 E13.27246
G1 X122.447 Y129.697 E13.58069
G1 X116.303 Y129.697 E13.68105
G1 X116.303 Y120.197 E13.83621
G1 X112.697 Y120.197 E13.89510
G1 X112.697 Y129.697 E14.05027
G1 X95.804 Y129.697 E14.32620
G1 X95.646 Y129.414 E14.33149
G1 X95.589 Y129.346 E14.33295
G1 X95.429 Y129.213 E14.33633
G1 X95.242 Y129.125 E14.33971
G1 X95.156 Y129.103 E14.34115
G1 X94.950 Y129.090 E14.34454
G1 X94.752 Y129.128 E14.34782
G1 X94.571 Y129.213 E14.35110
G1 X94.411 Y129.346 E14.35448
G1 X94.354 Y129.414 E14.35593
G1 X94.196 Y129.697 E14.36123
G1 X77.303 Y129.697 E14.63716
G1 X77.303 Y120.197 E14.79232
G1 X73.697 Y120.197 E14.85122
G1 X73.697 Y129.697 E15.00638
G1 X67.553 Y129.697 E15.10674
G1 X67.553 Y110.826 E15.41497
G1 X67.845 Y110.724 E15.42003
G1 X67.924 Y110.680 E15.42150
G1 X68.089 Y110.544 E15.42499
G1 X68.149 Y110.472 E15.42653
G1 X68.200 Y110.392 E15.42808
G1 X68.276 Y110.199 E15.43146
G1 X68.301 Y110.000 E15.43474
G1 X68.276 Y109.801 E15.43802
G1 X68.200 Y109.608 E15.44140
G1 X68.149 Y109.528 E15.44295
G1 X68.089 Y109.456 E15.44449
G1 X67.924 Y109.320 E15.44798
G1 X67.845 Y109.276 E15.44945
G1 X67.553 Y109.174 E15.45451
G1 X67.553 Y80.826 E15.91752
G1 X67.845 Y80.724 E15.92258
G1 X67.924 Y80.680 E15.92406
G1 X68.089 Y80.544 E15.92755
G1 X68.149 Y80.472 E15.92909
G1 X68.200 Y80.392 E15.93063
G1 X68.276 Y80.199 E15.93402
G1 X68.301 Y80.000 E15.93730
G1 X68.276 Y79.801 E15.94058
G1 X68.200 Y79.608 E15.94396
G1 X68.149 Y79.528 E15.94550
G1 X68.089 Y79.456 E15.94705
G1 X67.924 Y79.320 E15.95053
G1 X67.845 Y79.276 E15.95201
G1 X67.553 Y79.174 E15.95707
G1 X67.553 Y69.803 E16.11013
G1 X71.303 Y69.803 E16.17138
G1 X71.303 Y60.362 E16.32558
G1 F1800.000 E15.32558
G92 E0
G1 X64.701 Y57.951 F7800.000
G1 F1800.000 E1.00000
G1 X125.299 Y57.951 F900.000 E1.98977
G1 X125.299 Y132.049 E3.20003
G1 X64.701 Y132.049 E4.18980
G1 X64.701 Y58.010 E5.39909
G1 X64.324 Y57.574 F7800.000
G1 X125.676 Y57.574 F900.000 E6.40117
G1 X125.676 Y132.426 E7.62375
G1 X64.324 Y132.426 E8.62583
G1 X64.324 Y57.633 E9.84744
G1 X63.947 Y57.197 F7800.000
G1 X126.053 Y57.197 F900.000 E10.86183
G1 X126.053 Y132.803 E12.09673
G1 X63.947 Y132.803 E13.11112
G1 X63.947 Y57.256 E14.34504
G1 X64.966 Y58.280 F7800.000
G1 X70.284 Y63.597 F1080.000 E14.46851
G1 X70.284 Y64.132 F7800.000
G1 X64.967 Y58.815 F1080.000 E14.59198
G1 X64.966 Y59.350 F7800.000
G1 X70.283 Y64.667 F1080.000 E14.71544
G1 X70.283 Y65.202 F7800.000
G1 X64.966 Y59.885 F1080.000 E14.83891
G1 X64.966 Y60.420 F7800.000
G1 X70.284 Y65.737 F1080.000 E14.96237
G1 X70.284 Y66.272 F7800.000
G1 X64.966 Y60.954 F1080.000 E15.08584
G1 X64.967 Y61.489 F7800.000
G1 X70.284 Y66.806 F1080.000 E15.20931
G1 X70.283 Y67.342 F7800.000
G1 X64.966 Y62.025 F1080.000 E15.33277
G1 X64.966 Y62.559 F7800.000
G1 X70.284 Y67.877 F1080.000 E15.45624
G1 X70.284 Y68.411 F7800.000
G1 X64.966 Y63.094 F1080.000 E15.57971
G1 X64.967 Y63.629 F7800.000
G1 X70.121 Y68.783 F1080.000 E15.69940
G1 X69.586 Y68.784 F7800.000
G1 X64.966 Y64.164 F1080.000 E15.80666
G1 X64.966 Y64.699 F7800.000
G1 X69.051 Y68.784 F1080.000 E15.90151
G1 X68.516 Y68.784 F7800.000
G1 X64.966 Y65.234 F1080.000 E15.98394
G1 X64.966 Y65.768 F7800.000
G1 X67.982 Y68.783 F1080.000 E16.05395
G1 X67.447 Y68.783 F7800.000
G1 X64.967 Y66.303 F1080.000 E16.11154
G1 X64.966 Y66.839 F7800.000
G1 X66.911 Y68.784 F1080.000 E16.15671
G1 X66.534 Y68.941 F7800.000
G1 X64.966 Y67.373 F1080.000 E16.19310
G1 X64.966 Y67.908 F7800.000
G1 X66.534 Y69.475 F1080.000 E16.22949
G1 X66.534 Y70.010 F7800.000
G1 X64.967 Y68.443 F1080.000 E16.26589
G1 X64.966 Y68.978 F7800.000
G1 X66.533 Y70.546 F1080.000 E16.30228
G1 X66.534 Y71.080 F7800.000
G1 X64.966 Y69.513 F1080.000 E16.33867
G1 X64.966 Y70.048 F7800.000
G1 X66.534 Y71.615 F1080.000 E16.37506
G1 X66.534 Y72.150 F7800.000
G1 X64.967 Y70.582 F1080.000 E16.41145
G1 X64.967 Y71.117 F7800.000
G1 X66.534 Y72.684 F1080.000 E16.44785
G1 X66.533 Y73.220 F7800.000
G1 X64.966 Y71.653 F1080.000 E16.48424
G1 X64.966 Y72.187 F7800.000
G1 X66.534 Y73.755 F1080.000 E16.52063
G1 X66.534 Y74.289 F7800.000
G1 X64.966 Y72.722 F1080.000 E16.55702
G1 X64.967 Y73.257 F7800.000
G1 X66.534 Y74.824 F1080.000 E16.59342
G1 X66.533 Y75.360 F7800.000
G1 X64.966 Y73.792 F1080.000 E16.62981
G1 X64.966 Y74.327 F7800.000
G1 X66.534 Y75.894 F1080.000 E16.66620
G1 X66.534 Y76.429 F7800.000
G1 X64.966 Y74.862 F1080.000 E16.70259
G1 X64.967 Y75.396 F7800.000
G1 X66.534 Y76.964 F1080.000 E16.73898
G1 X66.533 Y77.499 F7800.000
G1 X64.966 Y75.932 F1080.000 E16.77538
G1 X64.966 Y76.467 F7800.000
G1 X66.534 Y78.034 F1080.000 E16.81177
G1 X66.534 Y78.569 F7800.000
G1 X64.966 Y77.001 F1080.000 E16.84816
G1 X64.966 Y77.536 F7800.000
G1 X66.534 Y79.103 F1080.000 E16.88455
G1 X66.534 Y79.638 F7800.000
G1 X64.967 Y78.071 F1080.000 E16.92095
G1 X64.966 Y78.606 F7800.000
G1 X66.533 Y80.174 F1080.000 E16.95734
G1 X66.534 Y80.708 F7800.000
G1 X64.966 Y79.141 F1080.000 E16.99373
G1 X64.966 Y79.676 F7800.000
G1 X66.534 Y81.243 F1080.000 E17.03012
G1 X66.534 Y81.778 F7800.000
G1 X64.967 Y80.210 F1080.000 E17.06651
G1 X64.966 Y80.746 F7800.000
G1 X66.533 Y82.313 F1080.000 E17.10291
G1 X66.534 Y82.848 F7800.000
G1 X64.966 Y81.281 F1080.000 E17.13930
G1 X64.966 Y81.815 F7800.000
G1 X66.534 Y83.383 F1080.000 E17.17569
G1 X66.534 Y83.917 F7800.000
G1 X64.966 Y82.350 F1080.000 E17.21208
G1 X64.967 Y82.885 F7800.000
G1 X66.534 Y84.452 F1080.000 E17.24848
G1 X66.533 Y84.988 F7800.000
G1 X64.966 Y83.420 F1080.000 E17.28487
G1 X64.966 Y83.955 F7800.000
G1 X66.534 Y85.522 F1080.000 E17.32126
G1 X66.534 Y86.057 F7800.000
G1 X64.966 Y84.490 F1080.000 E17.35765
G1 X64.967 Y85.024 F7800.000
G1 X66.534 Y86.592 F1080.000 E17.39404
G1 X66.533 Y87.127 F7800.000
G1 X64.966 Y85.560 F1080.000 E17.43044
G1 X64.966 Y86.095 F7800.000
G1 X66.534 Y87.662 F1080.000 E17.46683
G1 X66.534 Y88.197 F7800.000
G1 X64.966 Y86.629 F1080.000 E17.50322
G1 X64.967 Y87.164 F7800.000
G1 X66.534 Y88.731 F1080.000 E17.53961
G1 X66.533 Y89.267 F7800.000
G1 X64.966 Y87.700 F1080.000 E17.57601
G1 X64.966 Y88.234 F7800.000
G1 X66.533 Y89.802 F1080.000 E17.61240
G1 X66.534 Y90.336 F7800.000
G1 X64.966 Y88.769 F1080.000 E17.64879
G1 X64.966 Y89.304 F7800.000
G1 X66.534 Y90.871 F1080.000 E17.68518
G1 X66.534 Y91.406 F7800.000
G1 X64.967 Y89.838 F1080.000 E17.72157
G1 X64.966 Y90.374 F7800.000
G1 X66.533 Y91.941 F1080.000 E17.75797
G1 X66.534 Y92.476 F7800.000
G1 X64.966 Y90.909 F1080.000 E17.79436
G1 X64.966 Y91.443 F7800.000
G1 X66.534 Y93.011 F1080.000 E17.83075
G1 X66.534 Y93.545 F7800.000
G1 X64.967 Y91.978 F1080.000 E17.86714
G1 X64.966 Y92.514 F7800.000
G1 X66.533 Y94.081 F1080.000 E17.90354
G1 X66.534 Y94.616 F7800.000
G1 X64.966 Y93.048 F1080.000 E17.93993
G1 X64.966 Y93.583 F7800.000
G1 X66.534 Y95.150 F1080.000 E17.97632
G1 X66.534 Y95.685 F7800.000
G1 X64.966 Y94.118 F1080.000 E18.01271
G1 X64.967 Y94.652 F7800.000
G1 X66.534 Y96.220 F1080.000 E18.04910
G1 X66.533 Y96.755 F7800.000
G1 X64.966 Y95.188 F1080.000 E18.08550
G1 X64.966 Y95.723 F7800.000
G1 X66.534 Y97.290 F1080.000 E18.12189
G1 X66.534 Y97.825 F7800.000
G1 X64.966 Y96.257 F1080.000 E18.15828
G1 X64.967 Y96.792 F7800.000
G1 X66.534 Y98.359 F1080.000 E18.19467
G1 X66.533 Y98.895 F7800.000
G1 X64.966 Y97.328 F1080.000 E18.23107
G1 X64.966 Y97.862 F7800.000
G1 X66.534 Y99.430 F1080.000 E18.26746
G1 X66.534 Y99.964 F7800.000
G1 X64.966 Y98.397 F1080.000 E18.30385
G1 X64.966 Y98.932 F7800.000
G1 X66.534 Y100.499 F1080.000 E18.34024
G1 X66.534 Y101.034 F7800.000
G1 X64.967 Y99.466 F1080.000 E18.37663
G1 X64.966 Y100.002 F7800.000
G1 X66.533 Y101.569 F1080.000 E18.41303
G1 X66.534 Y102.104 F7800.000
