; generated by Slic3r 1.0.0RC3 on 2014-03-04 at 19:57:56

; layer_height = 0.25
; perimeters = 3
; top_solid_layers = 3
; bottom_solid_layers = 3
; fill_density = 0.2
; perimeter_speed = 50
; infill_speed = 70
; travel_speed = 130
; nozzle_diameter = 0.35
; filament_diameter = 3
; extrusion_multiplier = 1
; perimeters extrusion width = 0.35mm
; infill extrusion width = 0.39mm
; solid infill extrusion width = 0.39mm
; top infill extrusion width = 0.39mm
; first layer extrusion width = 0.70mm

G21 ; set units to millimeters
M107
G28 ; home all axes
G90 ; use absolute coordinates
G92 E0
M82 ; use absolute distances for extrusion
G1 F1800.000 E-1.00000
G92 E0
G1 Z0.350 F7800.000
G1 X59.070 Y52.320 F7800.000
G1 E1.00000 F1800.000
G1 X60.070 Y51.490 E1.04021 F900.000
G1 X61.210 Y50.880 E1.08022
G1 X62.460 Y50.500 E1.12064
G1 X63.750 Y50.380 E1.16073
G1 X126.250 Y50.380 E3.09456
G1 X127.540 Y50.500 E3.13465
G1 X128.790 Y50.880 E3.17507
G1 X129.930 Y51.490 E3.21508
G1 X130.930 Y52.320 E3.25529
G1 X131.760 Y53.320 E3.29550
G1 X132.370 Y54.460 E3.33550
G1 X132.750 Y55.710 E3.37593
G1 X132.870 Y57.000 E3.41601
G1 X132.870 Y133.000 E5.76755
G1 X132.750 Y134.290 E5.80764
G1 X132.370 Y135.540 E5.84806
G1 X131.760 Y136.680 E5.88807
G1 X130.930 Y137.680 E5.92828
G1 X129.930 Y138.510 E5.96849
G1 X128.790 Y139.120 E6.00850
G1 X127.540 Y139.500 E6.04892
G1 X126.250 Y139.620 E6.08901
G1 X63.750 Y139.620 E8.02284
G1 X62.460 Y139.500 E8.06293
G1 X61.210 Y139.120 E8.10335
G1 X60.070 Y138.510 E8.14336
G1 X59.070 Y137.680 E8.18357
G1 X58.240 Y136.680 E8.22378
G1 X57.630 Y135.540 E8.26378
G1 X57.250 Y134.290 E8.30421
G1 X57.130 Y133.000 E8.34429
G1 X57.130 Y57.000 E10.69583
G1 X57.250 Y55.710 E10.73592
G1 X57.630 Y54.460 E10.77634
G1 X58.240 Y53.320 E10.81635
G1 X59.010 Y52.392 E10.85366
G1 F1800.000 E9.85366
G92 E0
G1 X70.525 Y59.525 F7800.000
G1 E1.00000 F1800.000
G1 X106.975 Y59.525 E2.12780 F900.000
G1 X106.975 Y69.025 E2.42175
G1 X109.025 Y69.025 E2.48518
G1 X109.025 Y59.525 E2.77913
G1 X123.225 Y59.525 E3.21849
G1 X123.225 Y130.475 E5.41377
G1 X115.525 Y130.475 E5.65201
G1 X115.525 Y120.975 E5.94595
G1 X113.475 Y120.975 E6.00939
G1 X113.475 Y130.475 E6.30333
G1 X95.301 Y130.475 E6.86566
G1 X95.000 Y129.836 E6.88752
G1 X94.699 Y130.475 E6.90938
G1 X76.525 Y130.475 E7.47171
G1 X76.525 Y120.975 E7.76566
G1 X74.475 Y120.975 E7.82909
G1 X74.475 Y130.475 E8.12304
G1 X66.775 Y130.475 E8.36128
G1 X66.775 Y69.025 E10.26261
G1 X70.525 Y69.025 E10.37864
G1 X70.525 Y59.619 E10.66969
G1 X71.150 Y60.150 F7800.000
G1 X106.350 Y60.150 E11.75882 F630.000
G1 X106.350 Y69.650 E12.05276
G1 X109.650 Y69.650 E12.15487
G1 X109.650 Y60.150 E12.44881
G1 X122.600 Y60.150 E12.84950
G1 X122.600 Y79.305 E13.44220
G1 X122.299 Y79.382 E13.45180
G1 X122.086 Y79.500 E13.45933
G1 X121.931 Y79.687 E13.46686
G1 X121.871 Y79.838 E13.47189
G1 X121.851 Y80.000 E13.47693
G1 X121.871 Y80.162 E13.48197
G1 X121.931 Y80.313 E13.48700
G1 X122.086 Y80.500 E13.49453
G1 X122.299 Y80.618 E13.50206
G1 X122.600 Y80.694 E13.51166
G1 X122.600 Y109.305 E14.39693
G1 X122.299 Y109.382 E14.40653
G1 X122.086 Y109.500 E14.41406
G1 X121.931 Y109.687 E14.42159
G1 X121.871 Y109.838 E14.42662
G1 X121.851 Y110.000 E14.43166
G1 X121.871 Y110.162 E14.43670
G1 X121.931 Y110.313 E14.44173
G1 X122.086 Y110.500 E14.44926
G1 X122.299 Y110.618 E14.45679
G1 X122.600 Y110.694 E14.46639
G1 X122.600 Y129.850 E15.05909
G1 X116.150 Y129.850 E15.25866
G1 X116.150 Y120.350 E15.55260
G1 X112.850 Y120.350 E15.65471
G1 X112.850 Y129.850 E15.94865
G1 X95.697 Y129.850 E16.47938
G1 X95.569 Y129.577 E16.48871
G1 X95.414 Y129.390 E16.49624
G1 X95.201 Y129.272 E16.50377
G1 X95.041 Y129.242 E16.50880
G1 X94.799 Y129.272 E16.51633
G1 X94.586 Y129.390 E16.52386
G1 X94.431 Y129.577 E16.53139
G1 X94.303 Y129.850 E16.54072
G1 X77.150 Y129.850 E17.07144
G1 X77.150 Y120.350 E17.36539
G1 X73.850 Y120.350 E17.46749
G1 X73.850 Y129.850 E17.76143
G1 X67.400 Y129.850 E17.96101
G1 X67.400 Y110.694 E18.55370
G1 X67.701 Y110.618 E18.56331
G1 X67.914 Y110.500 E18.57083
G1 X68.069 Y110.313 E18.57836
G1 X68.129 Y110.162 E18.58340
G1 X68.149 Y110.000 E18.58843
G1 X68.129 Y109.838 E18.59347
G1 X68.069 Y109.687 E18.59851
G1 X67.914 Y109.500 E18.60604
G1 X67.701 Y109.382 E18.61356
G1 X67.400 Y109.306 E18.62317
G1 X67.400 Y80.694 E19.50843
G1 X67.701 Y80.618 E19.51803
G1 X67.914 Y80.500 E19.52556
G1 X68.069 Y80.313 E19.53309
G1 X68.129 Y80.162 E19.53813
G1 X68.149 Y80.000 E19.54316
G1 X68.129 Y79.838 E19.54820
G1 X68.069 Y79.687 E19.55324
G1 X67.914 Y79.500 E19.56076
G1 X67.701 Y79.382 E19.56829
G1 X67.400 Y79.306 E19.57790
G1 X67.400 Y69.650 E19.87665
G1 X71.150 Y69.650 E19.99268
G1 X71.150 Y60.244 E20.28372
G1 X71.150 Y59.525 F7800.000
G1 X123.850 Y58.600 F7800.000
G1 X124.650 Y58.600 E20.30849 F900.000
G1 X124.650 Y131.400 E22.56103
G1 X123.850 Y131.400 E22.58580
G1 X123.850 Y58.694 E24.83544
G1 X108.400 Y58.600 F7800.000
G1 X108.400 Y68.400 E25.13868 F540.000
G1 X107.600 Y68.400 E25.16344
G1 X107.600 Y58.600 E25.46668
G1 X108.306 Y58.600 E25.48855
G1 X69.900 Y58.600 F7800.000
G1 X69.900 Y68.400 E25.79179 F900.000
G1 X66.150 Y68.400 E25.90782
G1 X66.150 Y131.400 E27.85712
G1 X65.350 Y131.400 E27.88189
G1 X65.350 Y58.600 E30.13443
G1 X69.806 Y58.600 E30.27232
G1 F1800.000 E29.27232
G92 E0
G1 X75.100 Y121.600 F7800.000
G1 E1.00000 F1800.000
G1 X75.900 Y121.600 E1.02477 F540.000
G1 X75.900 Y131.400 E1.32801
G1 X75.100 Y131.400 E1.35277
G1 X75.100 Y121.694 E1.65311
G1 F1800.000 E0.65311
G92 E0
G1 X114.100 Y121.600 F7800.000
G1 E1.00000 F1800.000
G1 X114.900 Y121.600 E1.02477 F540.000
G1 X114.900 Y131.400 E1.32801
G1 X114.100 Y131.400 E1.35277
G1 X114.100 Y121.694 E1.65311
G1 F1800.000 E0.65311
G92 E0
G1 X125.275 Y132.025 F7800.000
G1 E1.00000 F1800.000
G1 X64.725 Y132.025 E2.87350 F900.000
G1 X64.725 Y57.975 E5.16471
G1 X125.275 Y57.975 E7.03822
G1 X125.275 Y131.931 E9.32653
G1 X125.900 Y132.650 F7800.000
G1 X64.100 Y132.650 E11.23870 F630.000
G1 X64.100 Y57.350 E13.56858
G1 X125.900 Y57.350 E15.48076
G1 X125.900 Y132.556 E17.80774
G1 X125.359 Y132.338 F7800.000
G1 F1800.000 E16.80774
G92 E0
G1 X65.813 Y67.645 F7800.000
G1 E1.00000 F1800.000
G1 X65.793 Y67.625 E1.00091 F1080.000
G1 X65.793 Y66.708 E1.03031
G1 X66.729 Y67.645 E1.07281
G1 X67.646 Y67.645 E1.10221
G1 X65.793 Y65.792 E1.18630
G1 X65.793 Y64.875 E1.21570
G1 X68.562 Y67.645 E1.34137
G1 X69.145 Y67.311 E1.36292
G1 X65.793 Y63.959 E1.51502
G1 X65.793 Y63.042 E1.54443
G1 X69.145 Y66.394 E1.69653
G1 X69.145 Y65.478 E1.72594
G1 X65.793 Y62.126 E1.87804
G1 X65.793 Y61.210 E1.90745
G1 X69.145 Y64.562 E2.05956
G1 X69.145 Y63.645 E2.08896
G1 X65.793 Y60.293 E2.24107
G1 X65.793 Y59.377 E2.27047
G1 X69.145 Y62.729 E2.42258
G1 X69.145 Y61.812 E2.45198
G1 X66.375 Y59.043 E2.57765
G1 X67.292 Y59.043 E2.60706
G1 X69.145 Y60.896 E2.69114
G1 X69.145 Y59.979 E2.72055
G1 X68.208 Y59.043 E2.76304
G1 X69.125 Y59.043 E2.79245
G1 X69.145 Y59.063 E2.79335
G1 X70.553 Y58.853 F7800.000
G1 X71.220 Y58.627 E2.81537 F360.000
G1 X71.465 Y58.873 E2.82621 F360.000
G1 X72.113 Y58.627 E2.84785 F360.000
G1 X72.358 Y58.873 E2.85869 F360.000
G1 X73.005 Y58.627 E2.88033 F360.000
G1 X73.251 Y58.873 E2.89118 F360.000
G1 X73.898 Y58.627 E2.91281 F360.000
G1 X74.143 Y58.873 E2.92366 F360.000
G1 X74.791 Y58.627 E2.94529 F360.000
G1 X75.036 Y58.873 E2.95614 F360.000
G1 X75.683 Y58.627 E2.97777 F360.000
G1 X75.929 Y58.873 E2.98862 F360.000
G1 X76.576 Y58.627 E3.01026 F360.000
G1 X76.821 Y58.873 E3.02110 F360.000
G1 X77.469 Y58.627 E3.04274 F360.000
G1 X77.714 Y58.873 E3.05358 F360.000
G1 X78.361 Y58.627 E3.07522 F360.000
G1 X78.607 Y58.873 E3.08606 F360.000
G1 X79.254 Y58.627 E3.10770 F360.000
G1 X79.499 Y58.873 E3.11854 F360.000
G1 X80.147 Y58.627 E3.14018 F360.000
G1 X80.392 Y58.873 E3.15102 F360.000
G1 X81.040 Y58.627 E3.17266 F360.000
G1 X81.285 Y58.873 E3.18351 F360.000
G1 X81.932 Y58.627 E3.20514 F360.000
G1 X82.178 Y58.873 E3.21599 F360.000
G1 X82.825 Y58.627 E3.23762 F360.000
G1 X83.070 Y58.873 E3.24847 F360.000
G1 X83.718 Y58.627 E3.27011 F360.000
G1 X83.963 Y58.873 E3.28095 F360.000
G1 X84.610 Y58.627 E3.30259 F360.000
G1 X84.856 Y58.873 E3.31343 F360.000
G1 X85.503 Y58.627 E3.33507 F360.000
G1 X85.748 Y58.873 E3.34591 F360.000
G1 X86.396 Y58.627 E3.36755 F360.000
G1 X86.641 Y58.873 E3.37839 F360.000
G1 X87.288 Y58.627 E3.40003 F360.000
G1 X87.534 Y58.873 E3.41087 F360.000
G1 X88.181 Y58.627 E3.43251 F360.000
G1 X88.426 Y58.873 E3.44335 F360.000
G1 X89.074 Y58.627 E3.46499 F360.000
G1 X89.319 Y58.873 E3.47584 F360.000
G1 X89.966 Y58.627 E3.49747 F360.000
G1 X90.212 Y58.873 E3.50832 F360.000
G1 X90.859 Y58.627 E3.52995 F360.000
G1 X91.104 Y58.873 E3.54080 F360.000
G1 X91.752 Y58.627 E3.56244 F360.000
G1 X91.997 Y58.873 E3.57328 F360.000
G1 X92.644 Y58.627 E3.59492 F360.000
G1 X92.890 Y58.873 E3.60576 F360.000
G1 X93.537 Y58.627 E3.62740 F360.000
G1 X93.782 Y58.873 E3.63824 F360.000
G1 X94.430 Y58.627 E3.65988 F360.000
G1 X94.675 Y58.873 E3.67072 F360.000
G1 X95.322 Y58.627 E3.69236 F360.000
G1 X95.568 Y58.873 E3.70320 F360.000
G1 X96.215 Y58.627 E3.72484 F360.000
G1 X96.460 Y58.873 E3.73569 F360.000
G1 X97.108 Y58.627 E3.75732 F360.000
G1 X97.353 Y58.873 E3.76817 F360.000
G1 X98.001 Y58.627 E3.78980 F360.000
G1 X98.246 Y58.873 E3.80065 F360.000
G1 X98.893 Y58.627 E3.82228 F360.000
G1 X99.139 Y58.873 E3.83313 F360.000
G1 X99.786 Y58.627 E3.85477 F360.000
G1 X100.031 Y58.873 E3.86561 F360.000
G1 X100.679 Y58.627 E3.88725 F360.000
G1 X100.924 Y58.873 E3.89809 F360.000
G1 X101.571 Y58.627 E3.91973 F360.000
G1 X101.817 Y58.873 E3.93057 F360.000
G1 X102.464 Y58.627 E3.95221 F360.000
G1 X102.709 Y58.873 E3.96305 F360.000
G1 X103.357 Y58.627 E3.98469 F360.000
G1 X103.602 Y58.873 E3.99553 F360.000
G1 X104.249 Y58.627 E4.01717 F360.000
G1 X104.495 Y58.873 E4.02802 F360.000
G1 X105.142 Y58.627 E4.04965 F360.000
G1 X105.387 Y58.873 E4.06050 F360.000
G1 X106.035 Y58.627 E4.08213 F360.000
G1 X106.280 Y58.873 E4.09298 F360.000
G1 X106.927 Y58.627 E4.11462 F360.000
G1 X106.947 Y58.647 E4.11550 F360.000
G1 X109.053 Y58.853 F7800.000
G1 X109.724 Y58.627 E4.13774 F360.000
G1 X109.970 Y58.873 E4.14864 F360.000
G1 X110.621 Y58.627 E4.17050 F360.000
G1 X110.866 Y58.873 E4.18139 F360.000
G1 X111.518 Y58.627 E4.20326 F360.000
G1 X111.763 Y58.873 E4.21415 F360.000
G1 X112.415 Y58.627 E4.23601 F360.000
G1 X112.660 Y58.873 E4.24691 F360.000
G1 X113.312 Y58.627 E4.26877 F360.000
G1 X113.557 Y58.873 E4.27966 F360.000
G1 X114.209 Y58.627 E4.30153 F360.000
G1 X114.454 Y58.873 E4.31242 F360.000
G1 X115.105 Y58.627 E4.33428 F360.000
G1 X115.351 Y58.873 E4.34518 F360.000
G1 X116.002 Y58.627 E4.36704 F360.000
G1 X116.248 Y58.873 E4.37793 F360.000
G1 X116.899 Y58.627 E4.39980 F360.000
G1 X117.145 Y58.873 E4.41069 F360.000
G1 X117.796 Y58.627 E4.43255 F360.000
G1 X118.041 Y58.873 E4.44345 F360.000
G1 X118.693 Y58.627 E4.46531 F360.000
G1 X118.938 Y58.873 E4.47620 F360.000
G1 X119.590 Y58.627 E4.49807 F360.000
G1 X119.835 Y58.873 E4.50896 F360.000
G1 X120.487 Y58.627 E4.53082 F360.000
G1 X120.732 Y58.873 E4.54172 F360.000
G1 X121.384 Y58.627 E4.56358 F360.000
G1 X121.629 Y58.873 E4.57448 F360.000
G1 X122.280 Y58.627 E4.59634 F360.000
G1 X122.526 Y58.873 E4.60723 F360.000
G1 X123.177 Y58.627 E4.62909 F360.000
G1 X123.197 Y58.647 E4.62998 F360.000
G1 X109.073 Y58.873 F7800.000
G1 X109.053 Y58.853 E4.63087 F360.000
G1 F1800.000 E3.63087
G92 E0
G1 X122.558 Y80.000 F7800.000
G1 E1.00000 F1800.000
G1 X122.561 Y80.003 E1.00012 F360.000
G1 X122.558 Y110.000 F7800.000
G1 X122.561 Y110.003 E1.00023 F360.000
G1 F1800.000 E0.00023
G92 E0
G1 X122.196 Y131.127 F7800.000
G1 E1.00000 F1800.000
G1 X122.441 Y131.373 E1.01192 F360.000
G1 X123.177 Y131.127 E1.03857 F360.000
G1 X123.197 Y131.147 E1.03954 F360.000
G1 X122.196 Y131.127 F7800.000
G1 X121.460 Y131.373 E1.06619 F360.000
G1 X121.215 Y131.127 E1.07811 F360.000
G1 X120.479 Y131.373 E1.10476 F360.000
G1 X120.234 Y131.127 E1.11668 F360.000
G1 X119.498 Y131.373 E1.14334 F360.000
G1 X119.252 Y131.127 E1.15526 F360.000
G1 X118.516 Y131.373 E1.18191 F360.000
G1 X118.271 Y131.127 E1.19383 F360.000
G1 X117.535 Y131.373 E1.22048 F360.000
G1 X117.290 Y131.127 E1.23240 F360.000
G1 X116.554 Y131.373 E1.25905 F360.000
G1 X116.309 Y131.127 E1.27097 F360.000
G1 X115.553 Y131.353 E1.29807 F360.000
G1 X115.573 Y131.373 E1.29904 F360.000
G1 X113.447 Y131.147 F7800.000
G1 X113.427 Y131.127 E1.29993 F360.000
G1 X112.768 Y131.373 E1.32223 F360.000
G1 X112.522 Y131.127 E1.33322 F360.000
G1 X111.863 Y131.373 E1.35552 F360.000
G1 X111.618 Y131.127 E1.36651 F360.000
G1 X110.958 Y131.373 E1.38880 F360.000
G1 X110.713 Y131.127 E1.39979 F360.000
G1 X110.053 Y131.373 E1.42209 F360.000
G1 X109.808 Y131.127 E1.43308 F360.000
G1 X109.148 Y131.373 E1.45538 F360.000
G1 X108.903 Y131.127 E1.46637 F360.000
G1 X108.243 Y131.373 E1.48866 F360.000
G1 X107.998 Y131.127 E1.49965 F360.000
G1 X107.339 Y131.373 E1.52195 F360.000
G1 X107.093 Y131.127 E1.53294 F360.000
G1 X106.434 Y131.373 E1.55524 F360.000
G1 X106.188 Y131.127 E1.56623 F360.000
G1 X105.529 Y131.373 E1.58852 F360.000
G1 X105.283 Y131.127 E1.59951 F360.000
G1 X104.624 Y131.373 E1.62181 F360.000
G1 X104.379 Y131.127 E1.63280 F360.000
G1 X103.719 Y131.373 E1.65510 F360.000
G1 X103.474 Y131.127 E1.66609 F360.000
G1 X102.814 Y131.373 E1.68838 F360.000
G1 X102.569 Y131.127 E1.69937 F360.000
G1 X101.909 Y131.373 E1.72167 F360.000
G1 X101.664 Y131.127 E1.73266 F360.000
G1 X101.004 Y131.373 E1.75496 F360.000
G1 X100.759 Y131.127 E1.76595 F360.000
G1 X100.100 Y131.373 E1.78824 F360.000
G1 X99.854 Y131.127 E1.79923 F360.000
G1 X99.195 Y131.373 E1.82153 F360.000
G1 X98.949 Y131.127 E1.83252 F360.000
G1 X98.290 Y131.373 E1.85482 F360.000
G1 X98.044 Y131.127 E1.86581 F360.000
G1 X97.385 Y131.373 E1.88810 F360.000
G1 X97.140 Y131.127 E1.89909 F360.000
G1 X96.480 Y131.373 E1.92139 F360.000
G1 X96.235 Y131.127 E1.93238 F360.000
G1 X95.575 Y131.373 E1.95467 F360.000
G1 X95.330 Y131.127 E1.96567 F360.000
G1 X94.670 Y131.373 E1.98796 F360.000
G1 X94.425 Y131.127 E1.99895 F360.000
G1 X93.765 Y131.373 E2.02125 F360.000
G1 X93.520 Y131.127 E2.03224 F360.000
G1 X92.860 Y131.373 E2.05453 F360.000
G1 X92.615 Y131.127 E2.06553 F360.000
G1 X91.956 Y131.373 E2.08782 F360.000
G1 X91.710 Y131.127 E2.09881 F360.000
G1 X91.051 Y131.373 E2.12111 F360.000
G1 X90.805 Y131.127 E2.13210 F360.000
G1 X90.146 Y131.373 E2.15439 F360.000
G1 X89.901 Y131.127 E2.16539 F360.000
G1 X89.241 Y131.373 E2.18768 F360.000
G1 X88.996 Y131.127 E2.19867 F360.000
G1 X88.336 Y131.373 E2.22097 F360.000
G1 X88.091 Y131.127 E2.23196 F360.000
G1 X87.431 Y131.373 E2.25425 F360.000
G1 X87.186 Y131.127 E2.26525 F360.000
G1 X86.526 Y131.373 E2.28754 F360.000
G1 X86.281 Y131.127 E2.29853 F360.000
G1 X85.621 Y131.373 E2.32083 F360.000
G1 X85.376 Y131.127 E2.33182 F360.000
G1 X84.717 Y131.373 E2.35411 F360.000
G1 X84.471 Y131.127 E2.36511 F360.000
G1 X83.812 Y131.373 E2.38740 F360.000
G1 X83.566 Y131.127 E2.39839 F360.000
G1 X82.907 Y131.373 E2.42069 F360.000
G1 X82.661 Y131.127 E2.43168 F360.000
G1 X82.002 Y131.373 E2.45397 F360.000
G1 X81.757 Y131.127 E2.46497 F360.000
G1 X81.097 Y131.373 E2.48726 F360.000
G1 X80.852 Y131.127 E2.49825 F360.000
G1 X80.192 Y131.373 E2.52055 F360.000
G1 X79.947 Y131.127 E2.53154 F360.000
G1 X79.287 Y131.373 E2.55383 F360.000
G1 X79.042 Y131.127 E2.56483 F360.000
G1 X78.382 Y131.373 E2.58712 F360.000
G1 X78.137 Y131.127 E2.59811 F360.000
G1 X77.478 Y131.373 E2.62041 F360.000
G1 X77.232 Y131.127 E2.63140 F360.000
G1 X76.553 Y131.353 E2.65408 F360.000
G1 X76.573 Y131.373 E2.65498 F360.000
G1 X74.447 Y131.147 F7800.000
G1 X74.427 Y131.127 E2.65595 F360.000
G1 X73.691 Y131.373 E2.68260 F360.000
G1 X73.446 Y131.127 E2.69452 F360.000
G1 X72.710 Y131.373 E2.72117 F360.000
G1 X72.465 Y131.127 E2.73309 F360.000
G1 X71.729 Y131.373 E2.75974 F360.000
G1 X71.484 Y131.127 E2.77166 F360.000
G1 X70.748 Y131.373 E2.79831 F360.000
G1 X70.502 Y131.127 E2.81023 F360.000
G1 X69.766 Y131.373 E2.83688 F360.000
G1 X69.521 Y131.127 E2.84880 F360.000
G1 X68.785 Y131.373 E2.87545 F360.000
G1 X68.540 Y131.127 E2.88737 F360.000
