; generated by Slic3r 1.0.1 on 2014-07-11 at 21:09:10

; layer_height = 0.25
; perimeters = 3
; top_solid_layers = 3
; bottom_solid_layers = 3
; fill_density = 0.5
; perimeter_speed = 60
; infill_speed = 80
; travel_speed = 150
; nozzle_diameter = 0.35
; filament_diameter = 3
; extrusion_multiplier = 1
; perimeters extrusion width = 0.35mm
; infill extrusion width = 0.39mm
; solid infill extrusion width = 0.39mm
; top infill extrusion width = 0.39mm
; first layer extrusion width = 0.70mm

G21 ; set units to millimeters
M107
G28 ; home all axes
G90 ; use absolute coordinates
G92 E0
M82 ; use absolute distances for extrusion
G1 F1800.000 E-1.00000
G92 E0
G1 Z1.150 F9000.000
G1 X50.280 Y55.350 F9000.000
G1 E1.00000 F1800.000
G1 X51.260 Y54.530 E1.03954 F1080.000
G1 X52.390 Y53.910 E1.07942
G1 X53.610 Y53.520 E1.11905
G1 X54.890 Y53.380 E1.15889
G1 X84.890 Y52.880 E2.08726
G1 X105.110 Y52.880 E2.71289
G1 X135.110 Y53.380 E3.64126
G1 X136.390 Y53.520 E3.68110
G1 X137.610 Y53.910 E3.72073
G1 X138.740 Y54.530 E3.76061
G1 X139.720 Y55.350 E3.80015
G1 X140.530 Y56.350 E3.83997
G1 X141.130 Y57.490 E3.87983
G1 X141.500 Y58.720 E3.91957
G1 X141.620 Y60.000 E3.95935
G1 X141.620 Y130.000 E6.12524
G1 X141.500 Y131.280 E6.16502
G1 X141.130 Y132.510 E6.20476
G1 X140.530 Y133.650 E6.24462
G1 X139.720 Y134.650 E6.28444
G1 X138.740 Y135.470 E6.32398
G1 X137.610 Y136.090 E6.36386
G1 X136.390 Y136.480 E6.40349
G1 X135.110 Y136.620 E6.44333
G1 X105.110 Y137.120 E7.37170
G1 X84.890 Y137.120 E7.99733
G1 X54.890 Y136.620 E8.92570
G1 X53.610 Y136.480 E8.96554
G1 X52.390 Y136.090 E9.00517
G1 X51.260 Y135.470 E9.04505
G1 X50.280 Y134.650 E9.08459
G1 X49.470 Y133.650 E9.12441
G1 X48.870 Y132.510 E9.16427
G1 X48.500 Y131.280 E9.20401
G1 X48.380 Y130.000 E9.24379
G1 X48.380 Y60.000 E11.40968
G1 X48.500 Y58.720 E11.44946
G1 X48.870 Y57.490 E11.48920
G1 X49.470 Y56.350 E11.52906
G1 X50.221 Y55.423 E11.56598
G1 F1800.000 E10.56598
G92 E0
G1 X52.813 Y59.094 F9000.000
G1 E1.00000 F1800.000
G1 X54.094 Y57.813 E1.05606 F1080.000
G1 X83.460 Y57.813 E1.96467
G1 X83.689 Y57.718 E1.97236
G1 X84.094 Y57.313 E1.99008
G1 X105.906 Y57.313 E2.66496
G1 X106.311 Y57.718 E2.68268
G1 X106.540 Y57.813 E2.69037
G1 X135.906 Y57.813 E3.59898
G1 X137.187 Y59.094 E3.65504
G1 X137.187 Y130.906 E5.87699
G1 X135.906 Y132.187 E5.93305
G1 X106.540 Y132.187 E6.84166
G1 X106.311 Y132.282 E6.84935
G1 X105.906 Y132.687 E6.86707
G1 X84.094 Y132.687 E7.54195
G1 X83.689 Y132.282 E7.55967
G1 X83.460 Y132.187 E7.56736
G1 X54.094 Y132.187 E8.47597
G1 X52.813 Y130.906 E8.53203
G1 X52.813 Y59.188 E10.75108
G1 X53.438 Y59.353 F9000.000
G1 X54.353 Y58.438 E10.79113 F1080.000
G1 X83.718 Y58.438 E11.69973
G1 X83.948 Y58.343 E11.70743
G1 X84.353 Y57.938 E11.72514
G1 X105.647 Y57.938 E12.38401
G1 X106.052 Y58.343 E12.40173
G1 X106.282 Y58.438 E12.40942
G1 X135.647 Y58.438 E13.31803
G1 X136.562 Y59.353 E13.35807
G1 X136.562 Y130.647 E15.56401
G1 X135.647 Y131.562 E15.60405
G1 X106.282 Y131.562 E16.51266
G1 X106.052 Y131.657 E16.52035
G1 X105.647 Y132.062 E16.53806
G1 X84.353 Y132.062 E17.19693
G1 X83.948 Y131.657 E17.21465
G1 X83.718 Y131.562 E17.22234
G1 X54.353 Y131.562 E18.13095
G1 X53.438 Y130.647 E18.17099
G1 X53.438 Y59.447 E20.37403
G1 X54.063 Y59.612 F9000.000
G1 X54.612 Y59.063 E20.39805 F1080.000
G1 X83.977 Y59.063 E21.30666
G1 X84.207 Y58.968 E21.31435
G1 X84.612 Y58.563 E21.33207
G1 X105.388 Y58.563 E21.97492
G1 X105.793 Y58.968 E21.99264
G1 X106.023 Y59.063 E22.00033
G1 X135.388 Y59.063 E22.90893
G1 X135.937 Y59.612 E22.93296
G1 X135.937 Y130.388 E25.12288
G1 X135.388 Y130.937 E25.14690
G1 X106.023 Y130.937 E26.05551
G1 X105.793 Y131.032 E26.06320
G1 X105.388 Y131.437 E26.08092
G1 X84.612 Y131.437 E26.72377
G1 X84.207 Y131.032 E26.74149
G1 X83.977 Y130.937 E26.74918
G1 X54.612 Y130.937 E27.65778
G1 X54.063 Y130.388 E27.68181
G1 X54.063 Y59.705 E29.86883
G1 X54.688 Y59.871 F9000.000
G1 X54.871 Y59.688 E29.87684 F1080.000
G1 X84.236 Y59.688 E30.78544
G1 X84.466 Y59.592 E30.79314
G1 X84.871 Y59.188 E30.81085
G1 X105.129 Y59.188 E31.43769
G1 X105.534 Y59.592 E31.45540
G1 X105.764 Y59.688 E31.46310
G1 X135.129 Y59.688 E32.37170
G1 X135.312 Y59.871 E32.37971
G1 X135.312 Y130.129 E34.55361
G1 X135.129 Y130.312 E34.56162
G1 X105.764 Y130.312 E35.47023
G1 X105.534 Y130.408 E35.47792
G1 X105.129 Y130.812 E35.49563
G1 X84.871 Y130.812 E36.12247
G1 X84.466 Y130.408 E36.14018
G1 X84.236 Y130.312 E36.14788
G1 X54.871 Y130.312 E37.05648
G1 X54.688 Y130.129 E37.06449
G1 X54.688 Y59.964 E39.23549
G1 X55.350 Y60.350 F9000.000
G1 X85.350 Y60.350 E40.16373 F756.000
G1 X85.350 Y59.850 E40.17920
G1 X104.650 Y59.850 E40.77637
G1 X104.650 Y60.350 E40.79184
G1 X134.650 Y60.350 E41.72008
G1 X134.650 Y129.650 E43.86431
G1 X104.650 Y129.650 E44.79255
G1 X104.650 Y130.150 E44.80802
G1 X85.350 Y130.150 E45.40519
G1 X85.350 Y129.650 E45.42066
G1 X55.350 Y129.650 E46.34890
G1 X55.350 Y60.444 E48.49023
G1 X55.891 Y60.662 F9000.000
G1 X55.975 Y60.975 F9000.000
G1 X85.975 Y60.975 E49.41847 F1080.000
G1 X85.975 Y60.475 E49.43394
G1 X104.025 Y60.475 E49.99244
G1 X104.025 Y60.975 E50.00791
G1 X134.025 Y60.975 E50.93615
G1 X134.025 Y129.025 E53.04171
G1 X104.025 Y129.025 E53.96995
G1 X104.025 Y129.525 E53.98542
G1 X85.975 Y129.525 E54.54392
G1 X85.975 Y129.025 E54.55939
G1 X55.975 Y129.025 E55.48763
G1 X55.975 Y61.069 E57.59030
G1 X56.600 Y61.600 F9000.000
G1 X86.600 Y61.600 E58.51854 F1080.000
G1 X86.600 Y61.100 E58.53401
G1 X103.400 Y61.100 E59.05383
G1 X103.400 Y61.600 E59.06930
G1 X133.400 Y61.600 E59.99754
G1 X133.400 Y128.400 E62.06444
G1 X103.400 Y128.400 E62.99268
G1 X103.400 Y128.900 E63.00815
G1 X86.600 Y128.900 E63.52798
G1 X86.600 Y128.400 E63.54345
G1 X56.600 Y128.400 E64.47169
G1 X56.600 Y61.694 E66.53568
G1 X59.650 Y114.650 F9000.000
G1 X130.350 Y114.650 E68.72323 F756.000
G1 X130.350 Y125.350 E69.05430
G1 X59.650 Y125.350 E71.24185
G1 X59.650 Y114.744 E71.57002
G1 X59.650 Y114.025 F9000.000
G1 X59.025 Y114.025 F9000.000
G1 X130.975 Y114.025 E73.79625 F1080.000
G1 X130.975 Y125.975 E74.16599
G1 X59.025 Y125.975 E76.39221
G1 X59.025 Y114.119 E76.75905
G1 X58.400 Y113.400 F9000.000
G1 X131.600 Y113.400 E79.02394 F1080.000
G1 X131.600 Y126.600 E79.43235
G1 X58.400 Y126.600 E81.69724
G1 X58.400 Y113.494 E82.10275
G1 X59.650 Y105.350 F9000.000
G1 X59.650 Y84.650 E82.74324 F756.000
G1 X130.350 Y84.650 E84.93079
G1 X130.350 Y105.350 E85.57128
G1 X59.744 Y105.350 E87.75593
G1 X59.025 Y105.350 F9000.000
G1 X59.025 Y105.975 F9000.000
G1 X59.025 Y84.025 E88.43508 F1080.000
G1 X130.975 Y84.025 E90.66130
G1 X130.975 Y105.975 E91.34046
G1 X59.119 Y105.975 E93.56378
G1 X58.400 Y106.600 F9000.000
G1 X58.400 Y83.400 E94.28160 F1080.000
G1 X131.600 Y83.400 E96.54649
G1 X131.600 Y106.600 E97.26432
G1 X58.494 Y106.600 E99.52631
G1 X59.650 Y75.350 F9000.000
G1 X59.650 Y64.650 E99.85738 F756.000
G1 X130.350 Y64.650 E102.04493
G1 X130.350 Y75.350 E102.37600
G1 X59.744 Y75.350 E104.56066
G1 X59.025 Y75.350 F9000.000
G1 X59.025 Y75.975 F9000.000
G1 X59.025 Y64.025 E104.93040 F1080.000
G1 X130.975 Y64.025 E107.15662
G1 X130.975 Y75.975 E107.52636
G1 X59.119 Y75.975 E109.74968
G1 X58.400 Y76.600 F9000.000
G1 X58.400 Y63.400 E110.15809 F1080.000
G1 X131.600 Y63.400 E112.42298
G1 X131.600 Y76.600 E112.83139
G1 X58.494 Y76.600 E115.09338
G1 F1800.000 E114.09338
G92 E0
G1 X87.375 Y128.457 F9000.000
G1 E1.00000 F1800.000
G1 X87.355 Y128.437 E1.00092 F1080.000
G1 X87.355 Y127.511 E1.03092
G1 X88.301 Y128.457 E1.07428
G1 X89.227 Y128.457 E1.10429
G1 X87.812 Y127.043 E1.16912
G1 X88.738 Y127.043 E1.19913
G1 X90.153 Y128.457 E1.26396
G1 X91.078 Y128.457 E1.29397
G1 X89.664 Y127.043 E1.35881
G1 X90.590 Y127.043 E1.38881
G1 X92.004 Y128.457 E1.45365
G1 X92.930 Y128.457 E1.48366
G1 X91.515 Y127.043 E1.54849
G1 X92.441 Y127.043 E1.57850
G1 X93.856 Y128.457 E1.64333
G1 X94.781 Y128.457 E1.67334
G1 X93.367 Y127.043 E1.73818
G1 X94.293 Y127.043 E1.76818
G1 X95.707 Y128.457 E1.83302
G1 X96.633 Y128.457 E1.86303
G1 X95.219 Y127.043 E1.92786
G1 X96.144 Y127.043 E1.95787
G1 X97.559 Y128.457 E2.02270
G1 X98.485 Y128.457 E2.05271
G1 X97.070 Y127.043 E2.11755
G1 X97.996 Y127.043 E2.14756
G1 X99.410 Y128.457 E2.21239
G1 X100.336 Y128.457 E2.24240
G1 X98.922 Y127.043 E2.30723
G1 X99.847 Y127.043 E2.33724
G1 X101.262 Y128.457 E2.40208
G1 X102.188 Y128.457 E2.43208
G1 X100.773 Y127.043 E2.49692
G1 X101.699 Y127.043 E2.52693
G1 X102.645 Y127.989 E2.57028
G1 X102.645 Y127.063 E2.60029
G1 X102.625 Y127.043 E2.60120
G1 X103.428 Y127.728 F9000.000
G1 X103.842 Y127.252 E2.62085 F360.000
G1 X104.338 Y127.748 E2.64268 F360.000
G1 X104.732 Y127.252 E2.66241 F360.000
G1 X105.227 Y127.748 E2.68425 F360.000
G1 X105.622 Y127.252 E2.70397 F360.000
G1 X106.117 Y127.748 E2.72581 F360.000
G1 X106.511 Y127.252 E2.74553 F360.000
G1 X107.007 Y127.748 E2.76737 F360.000
G1 X107.401 Y127.252 E2.78710 F360.000
G1 X107.897 Y127.748 E2.80893 F360.000
G1 X108.291 Y127.252 E2.82866 F360.000
G1 X108.787 Y127.748 E2.85049 F360.000
G1 X109.181 Y127.252 E2.87022 F360.000
G1 X109.676 Y127.748 E2.89205 F360.000
G1 X110.071 Y127.252 E2.91178 F360.000
G1 X110.566 Y127.748 E2.93361 F360.000
G1 X110.960 Y127.252 E2.95334 F360.000
G1 X111.456 Y127.748 E2.97517 F360.000
G1 X111.850 Y127.252 E2.99490 F360.000
G1 X112.346 Y127.748 E3.01674 F360.000
G1 X112.740 Y127.252 E3.03646 F360.000
G1 X113.236 Y127.748 E3.05830 F360.000
G1 X113.630 Y127.252 E3.07803 F360.000
G1 X114.125 Y127.748 E3.09986 F360.000
G1 X114.520 Y127.252 E3.11959 F360.000
G1 X115.015 Y127.748 E3.14142 F360.000
G1 X115.409 Y127.252 E3.16115 F360.000
G1 X115.905 Y127.748 E3.18298 F360.000
G1 X116.299 Y127.252 E3.20271 F360.000
G1 X116.795 Y127.748 E3.22454 F360.000
G1 X117.189 Y127.252 E3.24427 F360.000
G1 X117.685 Y127.748 E3.26610 F360.000
G1 X118.079 Y127.252 E3.28583 F360.000
G1 X118.574 Y127.748 E3.30766 F360.000
G1 X118.969 Y127.252 E3.32739 F360.000
G1 X119.464 Y127.748 E3.34923 F360.000
G1 X119.858 Y127.252 E3.36895 F360.000
G1 X120.354 Y127.748 E3.39079 F360.000
G1 X120.748 Y127.252 E3.41052 F360.000
G1 X121.244 Y127.748 E3.43235 F360.000
G1 X121.638 Y127.252 E3.45208 F360.000
G1 X122.134 Y127.748 E3.47391 F360.000
G1 X122.528 Y127.252 E3.49364 F360.000
G1 X123.023 Y127.748 E3.51547 F360.000
G1 X123.418 Y127.252 E3.53520 F360.000
G1 X123.913 Y127.748 E3.55703 F360.000
G1 X124.307 Y127.252 E3.57676 F360.000
G1 X124.803 Y127.748 E3.59859 F360.000
G1 X125.197 Y127.252 E3.61832 F360.000
G1 X125.693 Y127.748 E3.64016 F360.000
G1 X126.087 Y127.252 E3.65988 F360.000
G1 X126.582 Y127.748 E3.68172 F360.000
G1 X126.977 Y127.252 E3.70144 F360.000
G1 X127.472 Y127.748 E3.72328 F360.000
G1 X127.867 Y127.252 E3.74301 F360.000
G1 X128.362 Y127.748 E3.76484 F360.000
G1 X128.756 Y127.252 E3.78457 F360.000
G1 X129.252 Y127.748 E3.80640 F360.000
G1 X129.646 Y127.252 E3.82613 F360.000
G1 X130.142 Y127.748 E3.84796 F360.000
G1 X130.536 Y127.252 E3.86769 F360.000
G1 X131.031 Y127.748 E3.88952 F360.000
G1 X131.426 Y127.252 E3.90925 F360.000
G1 X131.921 Y127.748 E3.93108 F360.000
G1 X132.252 Y127.189 E3.95132 F360.000
G1 X132.748 Y127.684 E3.97315 F360.000
G1 X132.748 Y126.795 E4.00087 F360.000
G1 X132.252 Y126.299 E4.02271 F360.000
G1 X132.748 Y125.905 E4.04243 F360.000
G1 X132.252 Y125.409 E4.06427 F360.000
G1 X132.748 Y125.015 E4.08399 F360.000
G1 X132.252 Y124.520 E4.10583 F360.000
G1 X132.748 Y124.125 E4.12556 F360.000
G1 X132.252 Y123.630 E4.14739 F360.000
G1 X132.748 Y123.236 E4.16712 F360.000
G1 X132.252 Y122.740 E4.18895 F360.000
G1 X132.748 Y122.346 E4.20868 F360.000
G1 X132.252 Y121.850 E4.23051 F360.000
G1 X132.748 Y121.456 E4.25024 F360.000
G1 X132.252 Y120.960 E4.27207 F360.000
G1 X132.748 Y120.566 E4.29180 F360.000
G1 X132.252 Y120.071 E4.31363 F360.000
G1 X132.748 Y119.676 E4.33336 F360.000
G1 X132.252 Y119.181 E4.35520 F360.000
G1 X132.748 Y118.787 E4.37492 F360.000
G1 X132.252 Y118.291 E4.39676 F360.000
G1 X132.748 Y117.897 E4.41649 F360.000
G1 X132.252 Y117.401 E4.43832 F360.000
G1 X132.748 Y117.007 E4.45805 F360.000
G1 X132.252 Y116.511 E4.47988 F360.000
G1 X132.748 Y116.117 E4.49961 F360.000
G1 X132.252 Y115.622 E4.52144 F360.000
G1 X132.748 Y115.227 E4.54117 F360.000
G1 X132.252 Y114.732 E4.56300 F360.000
G1 X132.748 Y114.338 E4.58273 F360.000
G1 X132.252 Y113.842 E4.60456 F360.000
G1 X132.728 Y113.428 E4.62421 F360.000
G1 X132.748 Y113.448 E4.62509 F360.000
G1 X132.272 Y106.572 F9000.000
G1 X132.252 Y106.552 E4.62599 F360.000
G1 X132.748 Y106.140 E4.64647 F360.000
G1 X132.252 Y105.645 E4.66875 F360.000
G1 X132.748 Y105.232 E4.68923 F360.000
G1 X132.252 Y104.737 E4.71150 F360.000
G1 X132.748 Y104.325 E4.73199 F360.000
G1 X132.252 Y103.829 E4.75426 F360.000
G1 X132.748 Y103.417 E4.77474 F360.000
G1 X132.252 Y102.921 E4.79702 F360.000
G1 X132.748 Y102.509 E4.81750 F360.000
G1 X132.252 Y102.014 E4.83977 F360.000
G1 X132.748 Y101.602 E4.86025 F360.000
G1 X132.252 Y101.106 E4.88253 F360.000
G1 X132.748 Y100.694 E4.90301 F360.000
G1 X132.252 Y100.198 E4.92528 F360.000
G1 X132.748 Y99.786 E4.94577 F360.000
G1 X132.252 Y99.291 E4.96804 F360.000
G1 X132.748 Y98.879 E4.98852 F360.000
G1 X132.252 Y98.383 E5.01080 F360.000
G1 X132.748 Y97.971 E5.03128 F360.000
G1 X132.252 Y97.475 E5.05355 F360.000
G1 X132.748 Y97.063 E5.07404 F360.000
G1 X132.252 Y96.568 E5.09631 F360.000
G1 X132.748 Y96.155 E5.11679 F360.000
G1 X132.252 Y95.660 E5.13906 F360.000
G1 X132.748 Y95.248 E5.15955 F360.000
G1 X132.252 Y94.752 E5.18182 F360.000
G1 X132.748 Y94.340 E5.20230 F360.000
G1 X132.252 Y93.845 E5.22458 F360.000
G1 X132.748 Y93.432 E5.24506 F360.000
G1 X132.252 Y92.937 E5.26733 F360.000
G1 X132.748 Y92.525 E5.28782 F360.000
G1 X132.252 Y92.029 E5.31009 F360.000
G1 X132.748 Y91.617 E5.33057 F360.000
G1 X132.252 Y91.121 E5.35284 F360.000
G1 X132.748 Y90.709 E5.37333 F360.000
G1 X132.252 Y90.214 E5.39560 F360.000
G1 X132.748 Y89.802 E5.41608 F360.000
G1 X132.252 Y89.306 E5.43836 F360.000
G1 X132.748 Y88.894 E5.45884 F360.000
G1 X132.252 Y88.398 E5.48111 F360.000
G1 X132.748 Y87.986 E5.50160 F360.000
G1 X132.252 Y87.491 E5.52387 F360.000
G1 X132.748 Y87.079 E5.54435 F360.000
G1 X132.252 Y86.583 E5.56663 F360.000
G1 X132.748 Y86.171 E5.58711 F360.000
G1 X132.252 Y85.675 E5.60938 F360.000
G1 X132.748 Y85.263 E5.62986 F360.000
G1 X132.252 Y84.768 E5.65214 F360.000
G1 X132.748 Y84.355 E5.67262 F360.000
G1 X132.252 Y83.860 E5.69489 F360.000
G1 X132.728 Y83.428 E5.71531 F360.000
G1 X132.748 Y83.448 E5.71621 F360.000
G1 X132.611 Y76.572 F9000.000
G1 X132.252 Y76.213 E5.73225 F360.000
G1 X132.748 Y75.807 E5.75250 F360.000
G1 X132.252 Y75.311 E5.77464 F360.000
G1 X132.748 Y74.904 E5.79489 F360.000
G1 X132.252 Y74.409 E5.81703 F360.000
G1 X132.748 Y74.002 E5.83729 F360.000
G1 X132.252 Y73.506 E5.85943 F360.000
G1 X132.748 Y73.100 E5.87968 F360.000
G1 X132.252 Y72.604 E5.90182 F360.000
G1 X132.748 Y72.197 E5.92207 F360.000
G1 X132.252 Y71.702 E5.94421 F360.000
G1 X132.748 Y71.295 E5.96447 F360.000
G1 X132.252 Y70.800 E5.98661 F360.000
G1 X132.748 Y70.393 E6.00686 F360.000
G1 X132.252 Y69.897 E6.02900 F360.000
G1 X132.748 Y69.491 E6.04925 F360.000
G1 X132.252 Y68.995 E6.07139 F360.000
G1 X132.748 Y68.588 E6.09165 F360.000
G1 X132.252 Y68.093 E6.11379 F360.000
G1 X132.748 Y67.686 E6.13404 F360.000
G1 X132.252 Y67.190 E6.15618 F360.000
G1 X132.748 Y66.784 E6.17643 F360.000
G1 X132.252 Y66.288 E6.19857 F360.000
G1 X132.748 Y65.881 E6.21882 F360.000
G1 X132.252 Y65.386 E6.24096 F360.000
G1 X132.748 Y64.979 E6.26122 F360.000
G1 X132.252 Y64.484 E6.28336 F360.000
G1 X132.748 Y64.077 E6.30361 F360.000
G1 X132.252 Y63.581 E6.32575 F360.000
G1 X132.748 Y63.174 E6.34600 F360.000
G1 X131.826 Y62.252 E6.38721 F360.000
G1 X131.419 Y62.748 E6.40746 F360.000
G1 X130.923 Y62.252 E6.42960 F360.000
G1 X130.516 Y62.748 E6.44985 F360.000
G1 X130.021 Y62.252 E6.47199 F360.000
G1 X129.614 Y62.748 E6.49225 F360.000
G1 X129.119 Y62.252 E6.51439 F360.000
G1 X128.712 Y62.748 E6.53464 F360.000
G1 X128.216 Y62.252 E6.55678 F360.000
G1 X127.810 Y62.748 E6.57703 F360.000
G1 X127.314 Y62.252 E6.59917 F360.000
G1 X126.907 Y62.748 E6.61942 F360.000
