; generated by Slic3r 1.0.0RC3 on 2014-03-04 at 12:40:59

; layer_height = 0.25
; perimeters = 3
; top_solid_layers = 3
; bottom_solid_layers = 3
; fill_density = 0.2
; perimeter_speed = 50
; infill_speed = 70
; travel_speed = 130
; nozzle_diameter = 0.35
; filament_diameter = 3
; extrusion_multiplier = 1
; perimeters extrusion width = 0.35mm
; infill extrusion width = 0.39mm
; solid infill extrusion width = 0.39mm
; top infill extrusion width = 0.39mm
; first layer extrusion width = 0.70mm

G21 ; set units to millimeters
M107
G28 ; home all axes
G90 ; use absolute coordinates
G92 E0
M82 ; use absolute distances for extrusion
G1 F1800.000 E-1.00000
G92 E0
G1 Z0.350 F7800.000
G1 X61.820 Y53.820 F7800.000
G1 E1.00000 F1800.000
G1 X62.820 Y52.990 E1.04021 F900.000
G1 X63.960 Y52.380 E1.08022
G1 X65.210 Y52.000 E1.12064
G1 X66.500 Y51.880 E1.16073
G1 X123.500 Y51.880 E2.92438
G1 X124.790 Y52.000 E2.96447
G1 X126.040 Y52.380 E3.00489
G1 X127.180 Y52.990 E3.04490
G1 X128.180 Y53.820 E3.08511
G1 X129.010 Y54.820 E3.12532
G1 X129.620 Y55.960 E3.16532
G1 X130.000 Y57.210 E3.20575
G1 X130.120 Y58.500 E3.24584
G1 X130.120 Y131.500 E5.50455
G1 X130.000 Y132.790 E5.54464
G1 X129.620 Y134.040 E5.58506
G1 X129.010 Y135.180 E5.62507
G1 X128.180 Y136.180 E5.66528
G1 X127.180 Y137.010 E5.70549
G1 X126.040 Y137.620 E5.74549
G1 X124.790 Y138.000 E5.78592
G1 X123.500 Y138.120 E5.82601
G1 X66.500 Y138.120 E7.58966
G1 X65.210 Y138.000 E7.62975
G1 X63.960 Y137.620 E7.67017
G1 X62.820 Y137.010 E7.71018
G1 X61.820 Y136.180 E7.75039
G1 X60.990 Y135.180 E7.79060
G1 X60.380 Y134.040 E7.83060
G1 X60.000 Y132.790 E7.87103
G1 X59.880 Y131.500 E7.91111
G1 X59.880 Y58.500 E10.16983
G1 X60.000 Y57.210 E10.20992
G1 X60.380 Y55.960 E10.25034
G1 X60.990 Y54.820 E10.29035
G1 X61.760 Y53.892 E10.32766
G1 F1800.000 E9.32766
G92 E0
G1 X69.900 Y61.900 F7800.000
G1 E1.00000 F1800.000
G1 X120.100 Y61.900 E2.55324 F900.000
G1 X120.100 Y128.100 E4.60154
G1 X69.900 Y128.100 E6.15478
G1 X69.900 Y61.994 E8.20018
G1 X70.525 Y62.525 F7800.000
G1 X119.475 Y62.525 E9.71475 F900.000
G1 X119.475 Y127.475 E11.72439
G1 X70.525 Y127.475 E13.23896
G1 X70.525 Y62.619 E15.24569
G1 X71.150 Y63.150 F7800.000
G1 X118.850 Y63.150 E16.72159 F630.000
G1 X118.850 Y126.850 E18.69255
G1 X71.150 Y126.850 E20.16845
G1 X71.150 Y63.244 E22.13651
G1 X71.150 Y62.525 F7800.000
G1 X68.100 Y60.100 F7800.000
G1 X121.900 Y60.100 E23.80117 F900.000
G1 X121.900 Y129.900 E25.96089
G1 X68.100 Y129.900 E27.62554
G1 X68.100 Y60.194 E29.78236
G1 X67.475 Y59.475 F7800.000
G1 X122.525 Y59.475 E31.48569 F900.000
G1 X122.525 Y130.525 E33.68407
G1 X67.475 Y130.525 E35.38740
G1 X67.475 Y59.569 E37.58289
G1 X66.850 Y58.850 F7800.000
G1 X123.150 Y58.850 E39.32488 F630.000
G1 X123.150 Y131.150 E41.56194
G1 X66.850 Y131.150 E43.30394
G1 X66.850 Y58.944 E45.53809
G1 X67.391 Y59.162 F7800.000
G1 X68.764 Y60.760 F7800.000
G1 X68.752 Y61.637 E45.56541 F360.000
G1 X69.248 Y62.133 E45.58724 F360.000
G1 X68.752 Y62.527 E45.60694 F360.000
G1 X69.248 Y63.022 E45.62877 F360.000
G1 X68.752 Y63.416 E45.64848 F360.000
G1 X69.248 Y63.912 E45.67030 F360.000
G1 X68.752 Y64.305 E45.69001 F360.000
G1 X69.248 Y64.801 E45.71183 F360.000
G1 X68.752 Y65.195 E45.73154 F360.000
G1 X69.248 Y65.690 E45.75336 F360.000
G1 X68.752 Y66.084 E45.77307 F360.000
G1 X69.248 Y66.580 E45.79489 F360.000
G1 X68.752 Y66.973 E45.81460 F360.000
G1 X69.248 Y67.469 E45.83642 F360.000
G1 X68.752 Y67.863 E45.85613 F360.000
G1 X69.248 Y68.358 E45.87796 F360.000
G1 X68.752 Y68.752 E45.89767 F360.000
G1 X69.248 Y69.248 E45.91949 F360.000
G1 X68.752 Y69.642 E45.93920 F360.000
G1 X69.248 Y70.137 E45.96102 F360.000
G1 X68.752 Y70.531 E45.98073 F360.000
G1 X69.248 Y71.026 E46.00255 F360.000
G1 X68.752 Y71.420 E46.02226 F360.000
G1 X69.248 Y71.916 E46.04408 F360.000
G1 X68.752 Y72.310 E46.06379 F360.000
G1 X69.248 Y72.805 E46.08561 F360.000
G1 X68.752 Y73.199 E46.10532 F360.000
G1 X69.248 Y73.694 E46.12715 F360.000
G1 X68.752 Y74.088 E46.14686 F360.000
G1 X69.248 Y74.584 E46.16868 F360.000
G1 X68.752 Y74.978 E46.18839 F360.000
G1 X69.248 Y75.473 E46.21021 F360.000
G1 X68.752 Y75.867 E46.22992 F360.000
G1 X69.248 Y76.363 E46.25174 F360.000
G1 X68.752 Y76.756 E46.27145 F360.000
G1 X69.248 Y77.252 E46.29327 F360.000
G1 X68.752 Y77.646 E46.31298 F360.000
G1 X69.248 Y78.141 E46.33480 F360.000
G1 X68.752 Y78.535 E46.35451 F360.000
G1 X69.248 Y79.031 E46.37634 F360.000
G1 X68.752 Y79.424 E46.39605 F360.000
G1 X69.248 Y79.920 E46.41787 F360.000
G1 X68.752 Y80.314 E46.43758 F360.000
G1 X69.248 Y80.809 E46.45940 F360.000
G1 X68.752 Y81.203 E46.47911 F360.000
G1 X69.248 Y81.699 E46.50093 F360.000
G1 X68.752 Y82.092 E46.52064 F360.000
G1 X69.248 Y82.588 E46.54246 F360.000
G1 X68.752 Y82.982 E46.56217 F360.000
G1 X69.248 Y83.477 E46.58399 F360.000
G1 X68.752 Y83.871 E46.60370 F360.000
G1 X69.248 Y84.367 E46.62553 F360.000
G1 X68.752 Y84.760 E46.64524 F360.000
G1 X69.248 Y85.256 E46.66706 F360.000
G1 X68.752 Y85.650 E46.68677 F360.000
G1 X69.248 Y86.145 E46.70859 F360.000
G1 X68.752 Y86.539 E46.72830 F360.000
G1 X69.248 Y87.035 E46.75012 F360.000
G1 X68.752 Y87.428 E46.76983 F360.000
G1 X69.248 Y87.924 E46.79165 F360.000
G1 X68.752 Y88.318 E46.81136 F360.000
G1 X69.248 Y88.813 E46.83318 F360.000
G1 X68.752 Y89.207 E46.85289 F360.000
G1 X69.248 Y89.703 E46.87472 F360.000
G1 X68.752 Y90.097 E46.89442 F360.000
G1 X69.248 Y90.592 E46.91625 F360.000
G1 X68.752 Y90.986 E46.93596 F360.000
G1 X69.248 Y91.481 E46.95778 F360.000
G1 X68.752 Y91.875 E46.97749 F360.000
G1 X69.248 Y92.371 E46.99931 F360.000
G1 X68.752 Y92.765 E47.01902 F360.000
G1 X69.248 Y93.260 E47.04084 F360.000
G1 X68.752 Y93.654 E47.06055 F360.000
G1 X69.248 Y94.149 E47.08237 F360.000
G1 X68.752 Y94.543 E47.10208 F360.000
G1 X69.248 Y95.039 E47.12391 F360.000
G1 X68.752 Y95.433 E47.14361 F360.000
G1 X69.248 Y95.928 E47.16544 F360.000
G1 X68.752 Y96.322 E47.18515 F360.000
G1 X69.248 Y96.817 E47.20697 F360.000
G1 X68.752 Y97.211 E47.22668 F360.000
G1 X69.248 Y97.707 E47.24850 F360.000
G1 X68.752 Y98.101 E47.26821 F360.000
G1 X69.248 Y98.596 E47.29003 F360.000
G1 X68.752 Y98.990 E47.30974 F360.000
G1 X69.248 Y99.486 E47.33156 F360.000
G1 X68.752 Y99.879 E47.35127 F360.000
G1 X69.248 Y100.375 E47.37309 F360.000
G1 X68.752 Y100.769 E47.39280 F360.000
G1 X69.248 Y101.264 E47.41463 F360.000
G1 X68.752 Y101.658 E47.43434 F360.000
G1 X69.248 Y102.154 E47.45616 F360.000
G1 X68.752 Y102.547 E47.47587 F360.000
G1 X69.248 Y103.043 E47.49769 F360.000
G1 X68.752 Y103.437 E47.51740 F360.000
G1 X69.248 Y103.932 E47.53922 F360.000
G1 X68.752 Y104.326 E47.55893 F360.000
G1 X69.248 Y104.822 E47.58075 F360.000
G1 X68.752 Y105.215 E47.60046 F360.000
G1 X69.248 Y105.711 E47.62228 F360.000
G1 X68.752 Y106.105 E47.64199 F360.000
G1 X69.248 Y106.600 E47.66382 F360.000
G1 X68.752 Y106.994 E47.68353 F360.000
G1 X69.248 Y107.490 E47.70535 F360.000
G1 X68.752 Y107.883 E47.72506 F360.000
G1 X69.248 Y108.379 E47.74688 F360.000
G1 X68.752 Y108.773 E47.76659 F360.000
G1 X69.248 Y109.268 E47.78841 F360.000
G1 X68.752 Y109.662 E47.80812 F360.000
G1 X69.248 Y110.158 E47.82994 F360.000
G1 X68.752 Y110.551 E47.84965 F360.000
G1 X69.248 Y111.047 E47.87147 F360.000
G1 X68.752 Y111.441 E47.89118 F360.000
G1 X69.248 Y111.936 E47.91301 F360.000
G1 X68.752 Y112.330 E47.93272 F360.000
G1 X69.248 Y112.826 E47.95454 F360.000
G1 X68.752 Y113.220 E47.97425 F360.000
G1 X69.248 Y113.715 E47.99607 F360.000
G1 X68.752 Y114.109 E48.01578 F360.000
G1 X69.248 Y114.604 E48.03760 F360.000
G1 X68.752 Y114.998 E48.05731 F360.000
G1 X69.248 Y115.494 E48.07913 F360.000
G1 X68.752 Y115.888 E48.09884 F360.000
G1 X69.248 Y116.383 E48.12066 F360.000
G1 X68.752 Y116.777 E48.14037 F360.000
G1 X69.248 Y117.272 E48.16220 F360.000
G1 X68.752 Y117.666 E48.18191 F360.000
G1 X69.248 Y118.162 E48.20373 F360.000
G1 X68.752 Y118.556 E48.22344 F360.000
G1 X69.248 Y119.051 E48.24526 F360.000
G1 X68.752 Y119.445 E48.26497 F360.000
G1 X69.248 Y119.941 E48.28679 F360.000
G1 X68.752 Y120.334 E48.30650 F360.000
G1 X69.248 Y120.830 E48.32832 F360.000
G1 X68.752 Y121.224 E48.34803 F360.000
G1 X69.248 Y121.719 E48.36985 F360.000
G1 X68.752 Y122.113 E48.38956 F360.000
G1 X69.248 Y122.609 E48.41139 F360.000
G1 X68.752 Y123.002 E48.43109 F360.000
G1 X69.248 Y123.498 E48.45292 F360.000
G1 X68.752 Y123.892 E48.47263 F360.000
G1 X69.248 Y124.387 E48.49445 F360.000
G1 X68.752 Y124.781 E48.51416 F360.000
G1 X69.248 Y125.277 E48.53598 F360.000
G1 X68.752 Y125.670 E48.55569 F360.000
G1 X69.248 Y126.166 E48.57751 F360.000
G1 X68.752 Y126.560 E48.59722 F360.000
G1 X69.248 Y127.055 E48.61904 F360.000
G1 X68.752 Y127.449 E48.63875 F360.000
G1 X69.248 Y127.945 E48.66058 F360.000
G1 X68.752 Y128.338 F7800.000
G1 X69.662 Y129.248 E48.70062 F360.000
G1 X70.055 Y128.752 E48.72033 F360.000
G1 X70.551 Y129.248 E48.74215 F360.000
G1 X70.945 Y128.752 E48.76186 F360.000
G1 X71.440 Y129.248 E48.78368 F360.000
G1 X71.834 Y128.752 E48.80339 F360.000
G1 X72.330 Y129.248 E48.82521 F360.000
G1 X72.723 Y128.752 E48.84492 F360.000
G1 X73.219 Y129.248 E48.86675 F360.000
G1 X73.613 Y128.752 E48.88645 F360.000
G1 X74.108 Y129.248 E48.90828 F360.000
G1 X74.502 Y128.752 E48.92799 F360.000
G1 X74.998 Y129.248 E48.94981 F360.000
G1 X75.391 Y128.752 E48.96952 F360.000
G1 X75.887 Y129.248 E48.99134 F360.000
G1 X76.281 Y128.752 E49.01105 F360.000
G1 X76.776 Y129.248 E49.03287 F360.000
G1 X77.170 Y128.752 E49.05258 F360.000
G1 X77.666 Y129.248 E49.07440 F360.000
G1 X78.059 Y128.752 E49.09411 F360.000
G1 X78.555 Y129.248 E49.11593 F360.000
G1 X78.949 Y128.752 E49.13564 F360.000
G1 X79.444 Y129.248 E49.15747 F360.000
G1 X79.838 Y128.752 E49.17718 F360.000
G1 X80.334 Y129.248 E49.19900 F360.000
G1 X80.728 Y128.752 E49.21871 F360.000
G1 X81.223 Y129.248 E49.24053 F360.000
G1 X81.617 Y128.752 E49.26024 F360.000
G1 X82.112 Y129.248 E49.28206 F360.000
G1 X82.506 Y128.752 E49.30177 F360.000
G1 X83.002 Y129.248 E49.32359 F360.000
G1 X83.396 Y128.752 E49.34330 F360.000
G1 X83.891 Y129.248 E49.36512 F360.000
G1 X84.285 Y128.752 E49.38483 F360.000
G1 X84.780 Y129.248 E49.40666 F360.000
G1 X85.174 Y128.752 E49.42637 F360.000
G1 X85.670 Y129.248 E49.44819 F360.000
G1 X86.064 Y128.752 E49.46790 F360.000
G1 X86.559 Y129.248 E49.48972 F360.000
G1 X86.953 Y128.752 E49.50943 F360.000
G1 X87.449 Y129.248 E49.53125 F360.000
G1 X87.842 Y128.752 E49.55096 F360.000
G1 X88.338 Y129.248 E49.57278 F360.000
G1 X88.732 Y128.752 E49.59249 F360.000
G1 X89.227 Y129.248 E49.61431 F360.000
G1 X89.621 Y128.752 E49.63402 F360.000
G1 X90.117 Y129.248 E49.65585 F360.000
G1 X90.510 Y128.752 E49.67555 F360.000
G1 X91.006 Y129.248 E49.69738 F360.000
G1 X91.400 Y128.752 E49.71709 F360.000
G1 X91.895 Y129.248 E49.73891 F360.000
G1 X92.289 Y128.752 E49.75862 F360.000
G1 X92.785 Y129.248 E49.78044 F360.000
G1 X93.178 Y128.752 E49.80015 F360.000
G1 X93.674 Y129.248 E49.82197 F360.000
G1 X94.068 Y128.752 E49.84168 F360.000
G1 X94.563 Y129.248 E49.86350 F360.000
G1 X94.957 Y128.752 E49.88321 F360.000
G1 X95.453 Y129.248 E49.90503 F360.000
G1 X95.846 Y128.752 E49.92474 F360.000
G1 X96.342 Y129.248 E49.94657 F360.000
G1 X96.736 Y128.752 E49.96628 F360.000
G1 X97.231 Y129.248 E49.98810 F360.000
G1 X97.625 Y128.752 E50.00781 F360.000
G1 X98.121 Y129.248 E50.02963 F360.000
G1 X98.514 Y128.752 E50.04934 F360.000
G1 X99.010 Y129.248 E50.07116 F360.000
G1 X99.404 Y128.752 E50.09087 F360.000
G1 X99.899 Y129.248 E50.11269 F360.000
G1 X100.293 Y128.752 E50.13240 F360.000
G1 X100.789 Y129.248 E50.15422 F360.000
G1 X101.183 Y128.752 E50.17393 F360.000
G1 X101.678 Y129.248 E50.19576 F360.000
G1 X102.072 Y128.752 E50.21547 F360.000
G1 X102.567 Y129.248 E50.23729 F360.000
G1 X102.961 Y128.752 E50.25700 F360.000
G1 X103.457 Y129.248 E50.27882 F360.000
G1 X103.851 Y128.752 E50.29853 F360.000
G1 X104.346 Y129.248 E50.32035 F360.000
G1 X104.740 Y128.752 E50.34006 F360.000
G1 X105.235 Y129.248 E50.36188 F360.000
G1 X105.629 Y128.752 E50.38159 F360.000
G1 X106.125 Y129.248 E50.40341 F360.000
G1 X106.519 Y128.752 E50.42312 F360.000
G1 X107.014 Y129.248 E50.44495 F360.000
G1 X107.408 Y128.752 E50.46465 F360.000
G1 X107.903 Y129.248 E50.48648 F360.000
G1 X108.297 Y128.752 E50.50619 F360.000
G1 X108.793 Y129.248 E50.52801 F360.000
G1 X109.187 Y128.752 E50.54772 F360.000
G1 X109.682 Y129.248 E50.56954 F360.000
G1 X110.076 Y128.752 E50.58925 F360.000
G1 X110.572 Y129.248 E50.61107 F360.000
G1 X110.965 Y128.752 E50.63078 F360.000
G1 X111.461 Y129.248 E50.65260 F360.000
G1 X111.855 Y128.752 E50.67231 F360.000
G1 X112.350 Y129.248 E50.69413 F360.000
G1 X112.744 Y128.752 E50.71384 F360.000
G1 X113.240 Y129.248 E50.73567 F360.000
G1 X113.633 Y128.752 E50.75538 F360.000
G1 X114.129 Y129.248 E50.77720 F360.000
G1 X114.523 Y128.752 E50.79691 F360.000
G1 X115.018 Y129.248 E50.81873 F360.000
G1 X115.412 Y128.752 E50.83844 F360.000
G1 X115.908 Y129.248 E50.86026 F360.000
G1 X116.301 Y128.752 E50.87997 F360.000
G1 X116.797 Y129.248 E50.90179 F360.000
G1 X117.191 Y128.752 E50.92150 F360.000
G1 X117.686 Y129.248 E50.94332 F360.000
G1 X118.080 Y128.752 E50.96303 F360.000
G1 X118.576 Y129.248 E50.98486 F360.000
G1 X118.969 Y128.752 E51.00457 F360.000
G1 X119.465 Y129.248 E51.02639 F360.000
G1 X119.859 Y128.752 E51.04610 F360.000
G1 X120.354 Y129.248 E51.06792 F360.000
G1 X120.748 Y128.752 E51.08763 F360.000
G1 X121.236 Y129.240 E51.10910 F360.000
G1 X121.248 Y128.363 E51.13642 F360.000
G1 X120.752 Y127.867 E51.15824 F360.000
G1 X121.248 Y127.473 E51.17795 F360.000
G1 X120.752 Y126.978 E51.19977 F360.000
G1 X121.248 Y126.584 E51.21948 F360.000
G1 X120.752 Y126.088 E51.24131 F360.000
G1 X121.248 Y125.694 E51.26102 F360.000
G1 X120.752 Y125.199 E51.28284 F360.000
G1 X121.248 Y124.805 E51.30255 F360.000
G1 X120.752 Y124.310 E51.32437 F360.000
G1 X121.248 Y123.916 E51.34408 F360.000
G1 X120.752 Y123.420 E51.36590 F360.000
G1 X121.248 Y123.026 E51.38561 F360.000
G1 X120.752 Y122.531 E51.40743 F360.000
G1 X121.248 Y122.137 E51.42714 F360.000
G1 X120.752 Y121.642 E51.44896 F360.000
G1 X121.248 Y121.248 E51.46867 F360.000
G1 X120.752 Y120.752 E51.49050 F360.000
G1 X121.248 Y120.358 E51.51020 F360.000
G1 X120.752 Y119.863 E51.53203 F360.000
G1 X121.248 Y119.469 E51.55174 F360.000
G1 X120.752 Y118.973 E51.57356 F360.000
G1 X121.248 Y118.580 E51.59327 F360.000
G1 X120.752 Y118.084 E51.61509 F360.000
G1 X121.248 Y117.690 E51.63480 F360.000
G1 X120.752 Y117.195 E51.65662 F360.000
G1 X121.248 Y116.801 E51.67633 F360.000
G1 X120.752 Y116.305 E51.69815 F360.000
G1 X121.248 Y115.912 E51.71786 F360.000
G1 X120.752 Y115.416 E51.73968 F360.000
G1 X121.248 Y115.022 E51.75939 F360.000
G1 X120.752 Y114.527 E51.78122 F360.000
G1 X121.248 Y114.133 E51.80093 F360.000
G1 X120.752 Y113.637 E51.82275 F360.000
G1 X121.248 Y113.244 E51.84246 F360.000
G1 X120.752 Y112.748 E51.86428 F360.000
G1 X121.248 Y112.354 E51.88399 F360.000
G1 X120.752 Y111.859 E51.90581 F360.000
G1 X121.248 Y111.465 E51.92552 F360.000
G1 X120.752 Y110.969 E51.94734 F360.000
G1 X121.248 Y110.576 E51.96705 F360.000
G1 X120.752 Y110.080 E51.98887 F360.000
G1 X121.248 Y109.686 E52.00858 F360.000
G1 X120.752 Y109.191 E52.03041 F360.000
G1 X121.248 Y108.797 E52.05012 F360.000
G1 X120.752 Y108.301 E52.07194 F360.000
G1 X121.248 Y107.908 E52.09165 F360.000
G1 X120.752 Y107.412 E52.11347 F360.000
G1 X121.248 Y107.018 E52.13318 F360.000
G1 X120.752 Y106.523 E52.15500 F360.000
G1 X121.248 Y106.129 E52.17471 F360.000
G1 X120.752 Y105.633 E52.19653 F360.000
G1 X121.248 Y105.239 E52.21624 F360.000
G1 X120.752 Y104.744 E52.23806 F360.000
G1 X121.248 Y104.350 E52.25777 F360.000
G1 X120.752 Y103.855 E52.27960 F360.000
G1 X121.248 Y103.461 E52.29930 F360.000
G1 X120.752 Y102.965 E52.32113 F360.000
G1 X121.248 Y102.571 E52.34084 F360.000
G1 X120.752 Y102.076 E52.36266 F360.000
G1 X121.248 Y101.682 E52.38237 F360.000
G1 X120.752 Y101.187 E52.40419 F360.000
G1 X121.248 Y100.793 E52.42390 F360.000
G1 X120.752 Y100.297 E52.44572 F360.000
G1 X121.248 Y99.903 E52.46543 F360.000
G1 X120.752 Y99.408 E52.48725 F360.000
G1 X121.248 Y99.014 E52.50696 F360.000
G1 X120.752 Y98.519 E52.52878 F360.000
