; generated by Slic3r 1.0.1 on 2014-07-26 at 01:11:13

; layer_height = 0.2
; perimeters = 2
; top_solid_layers = 3
; bottom_solid_layers = 3
; fill_density = 0.75
; perimeter_speed = 60
; infill_speed = 90
; travel_speed = 150
; nozzle_diameter = 0.25
; filament_diameter = 2.89
; extrusion_multiplier = 1.05
; perimeters extrusion width = 0.25mm
; infill extrusion width = 0.26mm
; solid infill extrusion width = 0.26mm
; top infill extrusion width = 0.26mm
; first layer extrusion width = 0.50mm

G21 ; set units to millimeters
M107
G28 ; home all axes
G90 ; use absolute coordinates
G92 E0
M82 ; use absolute distances for extrusion
G1 F1800.000 E-1.40000
G92 E0
G1 Z0.250 F9000.000
G1 X24.640 Y17.420 F9000.000
G1 E1.40000 F1800.000
G1 X25.440 Y16.440 E1.42260 F1080.000
G1 X26.420 Y15.640 E1.44519
G1 X27.530 Y15.040 E1.46773
G1 X28.740 Y14.680 E1.49028
G1 X30.000 Y14.550 E1.51290
G1 X150.000 Y14.550 E3.65629
G1 X151.260 Y14.680 E3.67891
G1 X152.470 Y15.040 E3.70146
G1 X153.580 Y15.640 E3.72400
G1 X154.560 Y16.440 E3.74660
G1 X155.360 Y17.420 E3.76919
G1 X155.960 Y18.530 E3.79173
G1 X156.320 Y19.740 E3.81428
G1 X156.450 Y21.000 E3.83690
G1 X156.450 Y159.000 E6.30179
G1 X156.320 Y160.260 E6.32442
G1 X155.960 Y161.470 E6.34697
G1 X155.360 Y162.580 E6.36951
G1 X154.560 Y163.560 E6.39210
G1 X153.580 Y164.360 E6.41470
G1 X152.470 Y164.960 E6.43724
G1 X151.260 Y165.320 E6.45978
G1 X150.000 Y165.450 E6.48241
G1 X30.000 Y165.450 E8.62579
G1 X28.740 Y165.320 E8.64842
G1 X27.530 Y164.960 E8.67097
G1 X26.420 Y164.360 E8.69350
G1 X25.440 Y163.560 E8.71610
G1 X24.640 Y162.580 E8.73870
G1 X24.040 Y161.470 E8.76123
G1 X23.680 Y160.260 E8.78378
G1 X23.550 Y159.000 E8.80641
G1 X23.550 Y21.000 E11.27130
G1 X23.680 Y19.740 E11.29392
G1 X24.040 Y18.530 E11.31647
G1 X24.608 Y17.479 E11.33782
G1 F1800.000 E9.93782
G92 E0
G1 X27.545 Y19.983 F9000.000
G1 E1.40000 F1800.000
G1 X28.983 Y18.545 E1.43633 F1080.000
G1 X151.017 Y18.545 E3.61604
G1 X152.455 Y19.983 E3.65236
G1 X152.455 Y52.017 E4.22453
G1 X151.017 Y53.455 E4.26086
G1 X28.983 Y53.455 E6.44057
G1 X27.545 Y52.017 E6.47689
G1 X27.545 Y20.050 E7.04787
G1 X27.991 Y20.168 F9000.000
G1 X29.168 Y18.991 E7.07759 F1080.000
G1 X150.832 Y18.991 E9.25069
G1 X152.009 Y20.168 E9.28042
G1 X152.009 Y51.832 E9.84598
G1 X150.832 Y53.009 E9.87570
G1 X29.168 Y53.009 E12.04881
G1 X27.991 Y51.832 E12.07853
G1 X27.991 Y20.235 E12.64290
G1 X28.438 Y20.353 F9000.000
G1 X29.353 Y19.438 E12.66602 F1080.000
G1 X150.647 Y19.438 E14.83252
G1 X151.562 Y20.353 E14.85563
G1 X151.562 Y51.647 E15.41460
G1 X150.647 Y52.562 E15.43771
G1 X29.353 Y52.562 E17.60421
G1 X28.438 Y51.647 E17.62733
G1 X28.438 Y20.420 E18.18510
G1 X28.884 Y20.538 F9000.000
G1 X29.538 Y19.884 E18.20161 F1080.000
G1 X150.462 Y19.884 E20.36150
G1 X151.116 Y20.538 E20.37801
G1 X151.116 Y51.462 E20.93037
G1 X150.462 Y52.116 E20.94688
G1 X29.538 Y52.116 E23.10678
G1 X28.884 Y51.462 E23.12329
G1 X28.884 Y20.605 E23.67445
G1 X29.330 Y20.723 F9000.000
G1 X29.723 Y20.330 E23.68436 F1080.000
G1 X150.277 Y20.330 E25.83765
G1 X150.670 Y20.723 E25.84756
G1 X150.670 Y51.277 E26.39331
G1 X150.277 Y51.670 E26.40322
G1 X29.723 Y51.670 E28.55651
G1 X29.330 Y51.277 E28.56642
G1 X29.330 Y20.790 E29.11097
G1 X29.777 Y20.908 F9000.000
G1 X29.908 Y20.777 E29.11428 F1080.000
G1 X150.092 Y20.777 E31.26096
G1 X150.223 Y20.908 E31.26427
G1 X150.223 Y51.092 E31.80341
G1 X150.092 Y51.223 E31.80672
G1 X29.908 Y51.223 E33.95340
G1 X29.777 Y51.092 E33.95670
G1 X29.777 Y20.975 E34.49466
G1 F1800.000 E33.09466
G92 E0
G1 X28.983 Y54.545 F9000.000
G1 E1.40000 F1800.000
G1 X151.017 Y54.545 E3.57971 F1080.000
G1 X152.455 Y55.983 E3.61604
G1 X152.455 Y88.017 E4.18821
G1 X151.017 Y89.455 E4.22453
G1 X28.983 Y89.455 E6.40424
G1 X27.545 Y88.017 E6.44057
G1 X27.545 Y55.983 E7.01274
G1 X28.936 Y54.592 E7.04787
G1 X29.168 Y54.991 F9000.000
G1 X150.832 Y54.991 E9.22097 F1080.000
G1 X152.009 Y56.168 E9.25069
G1 X152.009 Y87.832 E9.81626
G1 X150.832 Y89.009 E9.84598
G1 X29.168 Y89.009 E12.01909
G1 X27.991 Y87.832 E12.04881
G1 X27.991 Y56.168 E12.61438
G1 X29.121 Y55.039 E12.64290
G1 X29.353 Y55.438 F9000.000
G1 X150.647 Y55.438 E14.80940 F1080.000
G1 X151.562 Y56.353 E14.83252
G1 X151.562 Y87.647 E15.39148
G1 X150.647 Y88.562 E15.41460
G1 X29.353 Y88.562 E17.58110
G1 X28.438 Y87.647 E17.60421
G1 X28.438 Y56.353 E18.16318
G1 X29.306 Y55.485 E18.18510
G1 X29.538 Y55.884 F9000.000
G1 X150.462 Y55.884 E20.34499 F1080.000
G1 X151.116 Y56.538 E20.36150
G1 X151.116 Y87.462 E20.91386
G1 X150.462 Y88.116 E20.93037
G1 X29.538 Y88.116 E23.09027
G1 X28.884 Y87.462 E23.10678
G1 X28.884 Y56.538 E23.65914
G1 X29.490 Y55.931 E23.67445
G1 X29.723 Y56.330 F9000.000
G1 X150.277 Y56.330 E25.82774 F1080.000
G1 X150.670 Y56.723 E25.83765
G1 X150.670 Y87.277 E26.38340
G1 X150.277 Y87.670 E26.39331
G1 X29.723 Y87.670 E28.54660
G1 X29.330 Y87.277 E28.55651
G1 X29.330 Y56.723 E29.10226
G1 X29.675 Y56.378 E29.11097
G1 X29.908 Y56.777 F9000.000
G1 X150.092 Y56.777 E31.25766 F1080.000
G1 X150.223 Y56.908 E31.26096
G1 X150.223 Y87.092 E31.80011
G1 X150.092 Y87.223 E31.80341
G1 X29.908 Y87.223 E33.95010
G1 X29.777 Y87.092 E33.95340
G1 X29.777 Y56.908 E34.49255
G1 X29.860 Y56.824 E34.49466
G1 F1800.000 E33.09466
G92 E0
G1 X28.983 Y90.545 F9000.000
G1 E1.40000 F1800.000
G1 X151.017 Y90.545 E3.57971 F1080.000
G1 X152.455 Y91.983 E3.61604
G1 X152.455 Y124.017 E4.18821
G1 X151.017 Y125.455 E4.22453
G1 X28.983 Y125.455 E6.40424
G1 X27.545 Y124.017 E6.44057
G1 X27.545 Y91.983 E7.01274
G1 X28.936 Y90.592 E7.04787
G1 X29.168 Y90.991 F9000.000
G1 X150.832 Y90.991 E9.22097 F1080.000
G1 X152.009 Y92.168 E9.25069
G1 X152.009 Y123.832 E9.81626
G1 X150.832 Y125.009 E9.84598
G1 X29.168 Y125.009 E12.01909
G1 X27.991 Y123.832 E12.04881
G1 X27.991 Y92.168 E12.61438
G1 X29.121 Y91.039 E12.64290
G1 X29.353 Y91.438 F9000.000
G1 X150.647 Y91.438 E14.80940 F1080.000
G1 X151.562 Y92.353 E14.83252
G1 X151.562 Y123.647 E15.39148
G1 X150.647 Y124.562 E15.41460
G1 X29.353 Y124.562 E17.58110
G1 X28.438 Y123.647 E17.60421
G1 X28.438 Y92.353 E18.16318
G1 X29.306 Y91.485 E18.18510
G1 X29.538 Y91.884 F9000.000
G1 X150.462 Y91.884 E20.34499 F1080.000
G1 X151.116 Y92.538 E20.36150
G1 X151.116 Y123.462 E20.91386
G1 X150.462 Y124.116 E20.93037
G1 X29.538 Y124.116 E23.09027
G1 X28.884 Y123.462 E23.10678
G1 X28.884 Y92.538 E23.65914
G1 X29.490 Y91.931 E23.67445
G1 X29.723 Y92.330 F9000.000
G1 X150.277 Y92.330 E25.82774 F1080.000
G1 X150.670 Y92.723 E25.83765
G1 X150.670 Y123.277 E26.38340
G1 X150.277 Y123.670 E26.39331
G1 X29.723 Y123.670 E28.54660
G1 X29.330 Y123.277 E28.55651
G1 X29.330 Y92.723 E29.10226
G1 X29.675 Y92.378 E29.11097
G1 X29.908 Y92.777 F9000.000
G1 X150.092 Y92.777 E31.25766 F1080.000
G1 X150.223 Y92.908 E31.26096
G1 X150.223 Y123.092 E31.80011
G1 X150.092 Y123.223 E31.80341
G1 X29.908 Y123.223 E33.95010
G1 X29.777 Y123.092 E33.95340
G1 X29.777 Y92.908 E34.49255
G1 X29.860 Y92.824 E34.49466
G1 F1800.000 E33.09466
G92 E0
G1 X28.983 Y126.545 F9000.000
G1 E1.40000 F1800.000
G1 X151.017 Y126.545 E3.57971 F1080.000
G1 X152.455 Y127.983 E3.61604
G1 X152.455 Y160.017 E4.18821
G1 X151.017 Y161.455 E4.22453
G1 X28.983 Y161.455 E6.40424
G1 X27.545 Y160.017 E6.44057
G1 X27.545 Y127.983 E7.01274
G1 X28.936 Y126.592 E7.04787
G1 X29.168 Y126.991 F9000.000
G1 X150.832 Y126.991 E9.22097 F1080.000
G1 X152.009 Y128.168 E9.25069
G1 X152.009 Y159.832 E9.81626
G1 X150.832 Y161.009 E9.84598
G1 X29.168 Y161.009 E12.01909
G1 X27.991 Y159.832 E12.04881
G1 X27.991 Y128.168 E12.61438
G1 X29.121 Y127.039 E12.64290
G1 X29.353 Y127.438 F9000.000
G1 X150.647 Y127.438 E14.80940 F1080.000
G1 X151.562 Y128.353 E14.83252
G1 X151.562 Y159.647 E15.39148
G1 X150.647 Y160.562 E15.41460
G1 X29.353 Y160.562 E17.58110
G1 X28.438 Y159.647 E17.60421
G1 X28.438 Y128.353 E18.16318
G1 X29.306 Y127.485 E18.18510
G1 X29.538 Y127.884 F9000.000
G1 X150.462 Y127.884 E20.34499 F1080.000
G1 X151.116 Y128.538 E20.36150
G1 X151.116 Y159.462 E20.91386
G1 X150.462 Y160.116 E20.93037
G1 X29.538 Y160.116 E23.09027
G1 X28.884 Y159.462 E23.10678
G1 X28.884 Y128.538 E23.65914
G1 X29.490 Y127.931 E23.67445
G1 X29.723 Y128.330 F9000.000
G1 X150.277 Y128.330 E25.82774 F1080.000
G1 X150.670 Y128.723 E25.83765
G1 X150.670 Y159.277 E26.38340
G1 X150.277 Y159.670 E26.39331
G1 X29.723 Y159.670 E28.54660
G1 X29.330 Y159.277 E28.55651
G1 X29.330 Y128.723 E29.10226
G1 X29.675 Y128.378 E29.11097
G1 X29.908 Y128.777 F9000.000
G1 X150.092 Y128.777 E31.25766 F1080.000
G1 X150.223 Y128.908 E31.26096
G1 X150.223 Y159.092 E31.80011
G1 X150.092 Y159.223 E31.80341
G1 X29.908 Y159.223 E33.95010
G1 X29.777 Y159.092 E33.95340
G1 X29.777 Y128.908 E34.49255
G1 X29.860 Y128.824 E34.49466
G1 F1800.000 E33.09466
G92 E0
G1 X30.250 Y86.750 F9000.000
G1 E1.40000 F1800.000
G1 X30.250 Y57.250 E1.92692 F756.000
G1 X149.750 Y57.250 E4.06137
G1 X149.750 Y86.750 E4.58828
G1 X30.317 Y86.750 E6.72154
G1 X30.473 Y86.363 F9000.000
G1 X30.696 Y86.304 F9000.000
G1 X30.696 Y57.696 E7.23251 F1080.000
G1 X149.304 Y57.696 E9.35102
G1 X149.304 Y86.304 E9.86199
G1 X30.763 Y86.304 E11.97930
G1 X38.575 Y74.352 F9000.000
G1 X38.174 Y74.057 E11.98820 F540.000
G1 X37.990 Y73.877 E11.99281
G1 X37.675 Y73.468 E12.00202
G1 X37.441 Y73.009 E12.01123
G1 X37.298 Y72.513 E12.02044
G1 X37.250 Y72.000 E12.02964
G1 X37.298 Y71.487 E12.03885
G1 X37.441 Y70.991 E12.04806
G1 X37.666 Y70.547 E12.05696
G1 X37.822 Y70.320 E12.06188
G1 X37.990 Y70.123 E12.06649
G1 X38.375 Y69.781 E12.07570
G1 X38.818 Y69.517 E12.08491
G1 X39.302 Y69.340 E12.09412
G1 X39.811 Y69.256 E12.10333
G1 X40.326 Y69.269 E12.11254
G1 X40.830 Y69.378 E12.12174
G1 X41.305 Y69.579 E12.13095
G1 X41.734 Y69.865 E12.14016
G1 X42.102 Y70.227 E12.14937
G1 X42.396 Y70.650 E12.15858
G1 X42.606 Y71.121 E12.16779
G1 X42.724 Y71.623 E12.17700
G1 X42.747 Y72.138 E12.18621
G1 X42.677 Y72.631 E12.19510
G1 X42.606 Y72.879 E12.19971
G1 X42.396 Y73.350 E12.20892
G1 X42.102 Y73.773 E12.21813
G1 X41.734 Y74.135 E12.22734
G1 X41.305 Y74.421 E12.23655
G1 X41.072 Y74.532 E12.24115
G1 X40.813 Y74.627 E12.24608
G1 X40.326 Y74.731 E12.25497
G1 X40.069 Y74.749 E12.25958
G1 X39.793 Y74.742 E12.26451
G1 X39.285 Y74.655 E12.27371
G1 X39.039 Y74.576 E12.27832
G1 X38.634 Y74.385 E12.28634
G1 X38.178 Y74.556 F9000.000
G1 X38.113 Y74.581 F9000.000
G1 X37.879 Y74.392 E12.29171 F540.000
G1 X37.664 Y74.183 E12.29707
G1 X37.470 Y73.954 E12.30243
G1 X37.298 Y73.708 E12.30779
G1 X37.149 Y73.447 E12.31316
G1 X37.026 Y73.173 E12.31852
G1 X36.929 Y72.889 E12.32388
G1 X36.859 Y72.597 E12.32925
G1 X36.817 Y72.300 E12.33461
G1 X36.803 Y72.000 E12.33997
G1 X36.817 Y71.700 E12.34533
G1 X36.859 Y71.403 E12.35070
G1 X36.929 Y71.111 E12.35606
G1 X37.026 Y70.827 E12.36142
G1 X37.149 Y70.553 E12.36678
G1 X37.298 Y70.292 E12.37215
G1 X37.447 Y70.077 E12.37682
G1 X37.664 Y69.817 E12.38288
G1 X37.879 Y69.608 E12.38824
G1 X38.113 Y69.419 E12.39360
G1 X38.364 Y69.254 E12.39896
G1 X38.629 Y69.112 E12.40433
G1 X38.906 Y68.996 E12.40969
G1 X39.192 Y68.907 E12.41505
G1 X39.486 Y68.845 E12.42042
G1 X39.784 Y68.811 E12.42578
G1 X40.085 Y68.804 E12.43114
G1 X40.384 Y68.826 E12.43651
G1 X40.680 Y68.876 E12.44187
G1 X40.970 Y68.954 E12.44723
G1 X41.252 Y69.059 E12.45260
G1 X41.522 Y69.189 E12.45796
G1 X41.779 Y69.344 E12.46332
G1 X42.020 Y69.523 E12.46868
G1 X42.244 Y69.724 E12.47405
G1 X42.448 Y69.944 E12.47941
G1 X42.630 Y70.183 E12.48477
G1 X42.789 Y70.437 E12.49013
G1 X42.923 Y70.706 E12.49550
G1 X43.031 Y70.986 E12.50086
G1 X43.113 Y71.275 E12.50622
G1 X43.167 Y71.570 E12.51158
G1 X43.194 Y71.869 E12.51695
G1 X43.192 Y72.169 E12.52231
G1 X43.113 Y72.725 E12.53234
G1 X43.031 Y73.014 E12.53770
G1 X42.923 Y73.294 E12.54306
G1 X42.789 Y73.563 E12.54842
G1 X42.630 Y73.817 E12.55379
G1 X42.448 Y74.056 E12.55915
G1 X42.244 Y74.276 E12.56451
G1 X42.020 Y74.477 E12.56988
G1 X41.779 Y74.656 E12.57524
G1 X41.522 Y74.811 E12.58060
G1 X41.252 Y74.941 E12.58596
G1 X40.970 Y75.046 E12.59133
G1 X40.642 Y75.131 E12.59738
G1 X40.384 Y75.174 E12.60205
G1 X40.085 Y75.196 E12.60741
G1 X39.784 Y75.189 E12.61278
G1 X39.448 Y75.148 E12.61883
G1 X39.192 Y75.093 E12.62350
G1 X38.870 Y74.989 E12.62955
G1 X38.594 Y74.870 E12.63491
G1 X38.169 Y74.618 E12.64375
G1 X137.250 Y72.000 F9000.000
G1 X137.298 Y71.487 E12.65295 F540.000
G1 X137.441 Y70.991 E12.66216
G1 X137.675 Y70.532 E12.67137
G1 X137.990 Y70.123 E12.68058
G1 X138.375 Y69.781 E12.68979
G1 X138.818 Y69.517 E12.69900
G1 X139.302 Y69.340 E12.70821
G1 X139.555 Y69.286 E12.71282
G1 X140.051 Y69.251 E12.72171
G1 X140.326 Y69.269 E12.72664
G1 X140.581 Y69.312 E12.73125
G1 X141.072 Y69.468 E12.74046
G1 X141.526 Y69.712 E12.74967
G1 X141.926 Y70.037 E12.75887
G1 X142.259 Y70.431 E12.76808
G1 X142.512 Y70.881 E12.77729
G1 X142.677 Y71.369 E12.78650
G1 X142.747 Y71.880 E12.79571
G1 X142.724 Y72.377 E12.80460
G1 X142.677 Y72.631 E12.80921
G1 X142.512 Y73.119 E12.81842
G1 X142.259 Y73.569 E12.82763
G1 X141.926 Y73.963 E12.83684
G1 X141.526 Y74.288 E12.84605
G1 X141.072 Y74.532 E12.85526
G1 X140.581 Y74.688 E12.86447
G1 X140.069 Y74.749 E12.87367
G1 X139.555 Y74.714 E12.88288
G1 X139.056 Y74.583 E12.89209
G1 X138.590 Y74.361 E12.90130
G1 X138.174 Y74.057 E12.91051
G1 X137.822 Y73.680 E12.91972
G1 X137.547 Y73.244 E12.92893
G1 X137.358 Y72.764 E12.93814
G1 X137.298 Y72.513 E12.94275
G1 X137.253 Y72.067 E12.95076
G1 X136.870 Y71.765 F9000.000
G1 X136.815 Y71.739 F9000.000
G1 X136.859 Y71.403 E12.95681 F540.000
G1 X136.929 Y71.111 E12.96218
G1 X137.026 Y70.827 E12.96754
G1 X137.149 Y70.553 E12.97291
G1 X137.298 Y70.292 E12.97827
G1 X137.470 Y70.046 E12.98363
G1 X137.664 Y69.817 E12.98900
G1 X137.879 Y69.608 E12.99436
G1 X138.113 Y69.419 E12.99972
G1 X138.364 Y69.254 E13.00509
G1 X138.629 Y69.112 E13.01045
G1 X138.906 Y68.996 E13.01581
G1 X139.192 Y68.907 E13.02118
G1 X139.486 Y68.845 E13.02654
G1 X139.784 Y68.811 E13.03190
G1 X140.085 Y68.804 E13.03727
G1 X140.384 Y68.826 E13.04263
G1 X140.680 Y68.877 E13.04799
G1 X140.970 Y68.954 E13.05335
G1 X141.252 Y69.059 E13.05872
G1 X141.522 Y69.189 E13.06408
G1 X141.779 Y69.344 E13.06944
G1 X142.020 Y69.523 E13.07480
G1 X142.422 Y69.915 E13.08483
G1 X142.630 Y70.183 E13.09088
G1 X142.789 Y70.438 E13.09625
G1 X142.923 Y70.706 E13.10161
G1 X143.031 Y70.986 E13.10697
G1 X143.113 Y71.275 E13.11233
G1 X143.167 Y71.570 E13.11770
G1 X143.194 Y71.869 E13.12306
G1 X143.192 Y72.169 E13.12842
G1 X143.113 Y72.725 E13.13845
G1 X143.031 Y73.014 E13.14381
G1 X142.923 Y73.294 E13.14917
G1 X142.789 Y73.562 E13.15453
G1 X142.630 Y73.817 E13.15990
G1 X142.448 Y74.056 E13.16526
G1 X142.244 Y74.277 E13.17062
G1 X142.020 Y74.477 E13.17599
G1 X141.779 Y74.656 E13.18135
G1 X141.522 Y74.811 E13.18671
G1 X141.252 Y74.941 E13.19207
G1 X140.970 Y75.046 E13.19744
G1 X140.680 Y75.123 E13.20280
G1 X140.384 Y75.174 E13.20816
G1 X140.085 Y75.196 E13.21353
G1 X139.784 Y75.189 E13.21889
G1 X139.486 Y75.155 E13.22425
G1 X139.192 Y75.093 E13.22962
G1 X138.906 Y75.004 E13.23498
G1 X138.629 Y74.888 E13.24034
G1 X138.364 Y74.746 E13.24570
G1 X138.113 Y74.581 E13.25107
G1 X137.879 Y74.392 E13.25643
G1 X137.664 Y74.183 E13.26180
G1 X137.470 Y73.954 E13.26716
G1 X137.298 Y73.708 E13.27252
G1 X137.149 Y73.447 E13.27789
G1 X137.026 Y73.173 E13.28325
G1 X136.929 Y72.889 E13.28861
G1 X136.859 Y72.597 E13.29398
G1 X136.817 Y72.300 E13.29934
G1 X136.812 Y71.806 E13.30816
G1 X136.581 Y72.784 F9000.000
G1 X121.808 Y58.010 E13.68162 F1080.000
G1 X122.439 Y58.010 E13.69291
G1 X136.492 Y72.063 E14.04814
G1 X136.533 Y71.472 E14.05873
G1 X123.071 Y58.010 E14.39902
G1 X123.703 Y58.010 E14.41031
G1 X136.650 Y70.957 E14.73760
G1 X136.828 Y70.503 E14.74631
G1 X124.334 Y58.010 E15.06213
G1 X124.966 Y58.010 E15.07342
G1 X137.052 Y70.096 E15.37893
G1 X137.323 Y69.735 E15.38699
G1 X125.598 Y58.010 E15.68338
G1 X126.229 Y58.010 E15.69467
G1 X137.631 Y69.412 E15.98289
G1 X137.982 Y69.130 E15.99092
G1 X126.861 Y58.010 E16.27203
G1 X127.493 Y58.010 E16.28332
G1 X138.375 Y68.892 E16.55840
G1 X138.812 Y68.697 E16.56695
G1 X128.124 Y58.010 E16.83711
G1 X128.756 Y58.010 E16.84840
G1 X139.308 Y68.562 E17.11513
G1 X139.873 Y68.495 E17.12529
