; generated by Slic3r 0.8.2 on 2014-05-26 at 20:49:25

; layer_height = 0.25
; perimeters = 3
; solid_layers = 3
; fill_density = 0.5
; nozzle_diameter = 0.35
; filament_diameter = 3
; extrusion_multiplier = 1
; perimeter_speed = 60
; infill_speed = 80
; travel_speed = 150
; extrusion_width_ratio = 0
; scale = 1
; single wall width = 0.39mm

M107
G28 ; home all axes
G90 ; use absolute coordinates
G21 ; set units to millimeters
G92 E0 ; reset extrusion distance
M82 ; use absolute distances for extrusion
G1 Z1.100 F9000.000
G1 X24.370 Y37.503
G1 F1800.000 E1.00000
G1 X25.050 Y37.463 F1080.000 E1.01113
G1 X103.920 Y37.093 E2.29935
G1 X165.140 Y37.093 E3.29928
G1 X165.610 Y37.133 E3.30698
G1 X168.210 Y37.643 E3.35026
G1 X168.770 Y37.813 E3.35982
G1 X169.310 Y38.043 E3.36940
G1 X169.820 Y38.313 E3.37883
G1 X171.870 Y39.683 E3.41910
G1 X172.330 Y40.053 E3.42874
G1 X172.750 Y40.473 E3.43844
G1 X173.120 Y40.933 E3.44809
G1 X174.490 Y42.983 E3.48836
G1 X174.640 Y43.243 E3.49326
G1 X174.890 Y43.773 E3.50283
G1 X175.160 Y44.613 E3.51724
G1 X175.630 Y46.963 E3.55639
G1 X175.700 Y47.663 E3.56788
G1 X175.700 Y86.223 E4.19769
G1 X175.630 Y86.913 E4.20902
G1 X175.180 Y89.223 E4.24746
G1 X175.050 Y89.693 E4.25542
G1 X174.970 Y89.923 E4.25940
G1 X151.250 Y146.663 E5.26388
G1 X151.030 Y147.063 E5.27133
G1 X149.690 Y149.063 E5.31065
G1 X149.320 Y149.523 E5.32030
G1 X148.900 Y149.943 E5.33000
G1 X148.440 Y150.313 E5.33964
G1 X146.390 Y151.683 E5.37991
G1 X146.130 Y151.833 E5.38481
G1 X145.870 Y151.963 E5.38956
G1 X145.040 Y152.283 E5.40409
G1 X142.390 Y152.823 E5.44826
G1 X141.700 Y152.893 E5.45959
G1 X80.280 Y152.893 E6.46279
G1 X79.580 Y152.823 E6.47428
G1 X77.230 Y152.353 E6.51342
G1 X76.390 Y152.083 E6.52783
G1 X75.860 Y151.833 E6.53740
G1 X73.590 Y150.353 E6.58166
G1 X73.040 Y149.893 E6.59337
G1 X17.270 Y93.813 E7.88518
G1 X16.970 Y93.463 E7.89271
G1 X15.500 Y91.273 E7.93579
G1 X15.350 Y91.013 E7.94069
G1 X15.100 Y90.483 E7.95026
G1 X14.830 Y89.643 E7.96468
G1 X14.360 Y87.293 E8.00382
G1 X14.290 Y86.593 E8.01531
G1 X14.290 Y48.033 E8.64512
G1 X14.360 Y47.343 E8.65645
G1 X14.900 Y44.693 E8.70062
G1 X15.100 Y44.143 E8.71018
G1 X15.220 Y43.863 E8.71516
G1 X15.350 Y43.603 E8.71991
G1 X16.870 Y41.293 E8.76507
G1 X17.240 Y40.833 E8.77471
G1 X17.660 Y40.413 E8.78442
G1 X18.120 Y40.043 E8.79406
G1 X20.170 Y38.673 E8.83433
G1 X20.430 Y38.523 E8.83923
G1 X20.960 Y38.273 E8.84880
G1 X21.800 Y38.003 E8.86322
G1 X24.150 Y37.533 E8.90236
G1 X24.311 Y37.511 E8.90502
G1 F1800.000 E7.90502
G92 E0
G1 X131.255 Y114.221 F9000.000
G1 F1800.000 E1.00000
G1 X130.458 Y113.028 F720.000 E1.02344
G1 X130.178 Y111.620 E1.04689
G1 X130.458 Y110.212 E1.07033
G1 X131.255 Y109.019 E1.09378
G1 X132.449 Y108.221 E1.11722
G1 X133.857 Y107.941 E1.14066
G1 X135.264 Y108.221 E1.16411
G1 X136.458 Y109.019 E1.18755
G1 X137.255 Y110.212 E1.21100
G1 X137.535 Y111.620 E1.23444
G1 X137.255 Y113.028 E1.25788
G1 X136.458 Y114.221 E1.28133
G1 X135.264 Y115.019 E1.30477
G1 X133.857 Y115.299 E1.32822
G1 X132.449 Y115.019 E1.35166
G1 X131.305 Y114.254 E1.37414
G1 X131.527 Y113.949 F9000.000
G1 X130.813 Y112.881 F720.000 E1.39513
G1 X130.562 Y111.620 E1.41613
G1 X130.813 Y110.359 E1.43712
G1 X131.527 Y109.291 E1.45812
G1 X132.596 Y108.576 E1.47911
G1 X133.857 Y108.326 E1.50011
G1 X135.117 Y108.576 E1.52110
G1 X136.186 Y109.291 E1.54210
G1 X136.900 Y110.359 E1.56309
G1 X137.151 Y111.620 E1.58409
G1 X136.900 Y112.881 E1.60508
G1 X136.186 Y113.949 E1.62608
G1 X135.117 Y114.664 E1.64707
G1 X133.857 Y114.914 E1.66807
G1 X132.596 Y114.664 E1.68906
G1 X131.576 Y113.982 E1.70909
G1 X131.799 Y113.678 F9000.000
G1 X131.168 Y112.734 F720.000 E1.72763
G1 X130.947 Y111.620 E1.74618
G1 X131.168 Y110.506 E1.76473
G1 X131.799 Y109.562 E1.78327
G1 X132.743 Y108.931 E1.80182
G1 X133.857 Y108.710 E1.82036
G1 X134.970 Y108.931 E1.83891
G1 X135.914 Y109.562 E1.85745
G1 X136.545 Y110.506 E1.87600
G1 X136.767 Y111.620 E1.89454
G1 X136.545 Y112.734 E1.91309
G1 X135.914 Y113.678 E1.93163
G1 X134.970 Y114.309 E1.95018
G1 X133.857 Y114.530 E1.96873
G1 X132.743 Y114.309 E1.98727
G1 X131.848 Y113.711 E2.00485
G1 F1800.000 E1.00485
G92 E0
G1 X129.635 Y113.028 F9000.000
G1 F1800.000 E1.00000
G1 X128.838 Y114.221 F720.000 E1.02344
G1 X127.644 Y115.019 E1.04689
G1 X126.237 Y115.299 E1.07033
G1 X124.829 Y115.019 E1.09378
G1 X123.635 Y114.221 E1.11722
G1 X122.838 Y113.028 E1.14067
G1 X122.558 Y111.620 E1.16411
G1 X122.838 Y110.212 E1.18755
G1 X123.635 Y109.019 E1.21100
G1 X124.829 Y108.221 E1.23444
G1 X126.237 Y107.941 E1.25789
G1 X127.644 Y108.221 E1.28133
G1 X128.838 Y109.019 E1.30477
G1 X129.635 Y110.212 E1.32822
G1 X129.915 Y111.620 E1.35166
G1 X129.647 Y112.970 E1.37414
G1 X129.280 Y112.881 F9000.000
G1 X128.566 Y113.949 F720.000 E1.39513
G1 X127.497 Y114.664 E1.41613
G1 X126.237 Y114.914 E1.43712
G1 X124.976 Y114.664 E1.45812
G1 X123.907 Y113.949 E1.47911
G1 X123.193 Y112.881 E1.50011
G1 X122.942 Y111.620 E1.52110
G1 X123.193 Y110.359 E1.54210
G1 X123.907 Y109.291 E1.56309
G1 X124.976 Y108.576 E1.58409
G1 X126.237 Y108.326 E1.60508
G1 X127.497 Y108.576 E1.62608
G1 X128.566 Y109.291 E1.64707
G1 X129.280 Y110.359 E1.66807
G1 X129.531 Y111.620 E1.68906
G1 X129.292 Y112.823 E1.70909
G1 X128.925 Y112.734 F9000.000
G1 X128.294 Y113.678 F720.000 E1.72763
G1 X127.350 Y114.309 E1.74618
G1 X126.237 Y114.530 E1.76473
G1 X125.123 Y114.309 E1.78327
G1 X124.179 Y113.678 E1.80182
G1 X123.548 Y112.734 E1.82036
G1 X123.327 Y111.620 E1.83891
G1 X123.548 Y110.506 E1.85745
G1 X124.179 Y109.562 E1.87600
G1 X125.123 Y108.931 E1.89454
G1 X126.237 Y108.710 E1.91309
G1 X127.350 Y108.931 E1.93163
G1 X128.294 Y109.562 E1.95018
G1 X128.925 Y110.506 E1.96873
G1 X129.147 Y111.620 E1.98727
G1 X128.937 Y112.676 E2.00485
G1 F1800.000 E1.00485
G92 E0
G1 X122.295 Y111.620 F9000.000
G1 F1800.000 E1.00000
G1 X122.015 Y113.028 F720.000 E1.02344
G1 X121.218 Y114.221 E1.04689
G1 X120.024 Y115.019 E1.07033
G1 X118.617 Y115.299 E1.09378
G1 X117.209 Y115.019 E1.11722
G1 X116.015 Y114.221 E1.14066
G1 X115.218 Y113.028 E1.16411
G1 X114.938 Y111.620 E1.18755
G1 X115.218 Y110.212 E1.21100
G1 X116.015 Y109.019 E1.23444
G1 X117.209 Y108.221 E1.25789
G1 X118.617 Y107.941 E1.28133
G1 X120.024 Y108.221 E1.30477
G1 X121.218 Y109.019 E1.32822
G1 X122.015 Y110.212 E1.35166
G1 X122.284 Y111.562 E1.37414
G1 X121.911 Y111.620 F9000.000
G1 X121.660 Y112.881 F720.000 E1.39513
G1 X120.946 Y113.949 E1.41613
G1 X119.877 Y114.664 E1.43712
G1 X118.617 Y114.914 E1.45812
G1 X117.356 Y114.664 E1.47911
G1 X116.287 Y113.949 E1.50011
G1 X115.573 Y112.881 E1.52110
G1 X115.322 Y111.620 E1.54210
G1 X115.573 Y110.359 E1.56309
G1 X116.287 Y109.291 E1.58409
G1 X117.356 Y108.576 E1.60508
G1 X118.617 Y108.326 E1.62608
G1 X119.877 Y108.576 E1.64707
G1 X120.946 Y109.291 E1.66807
G1 X121.660 Y110.359 E1.68906
G1 X121.899 Y111.562 E1.70909
G1 X121.527 Y111.620 F9000.000
G1 X121.305 Y112.734 F720.000 E1.72763
G1 X120.674 Y113.678 E1.74618
G1 X119.730 Y114.309 E1.76473
G1 X118.617 Y114.530 E1.78327
G1 X117.503 Y114.309 E1.80182
G1 X116.559 Y113.678 E1.82036
G1 X115.928 Y112.734 E1.83891
G1 X115.707 Y111.620 E1.85745
G1 X115.928 Y110.506 E1.87600
G1 X116.559 Y109.562 E1.89454
G1 X117.503 Y108.931 E1.91309
G1 X118.617 Y108.710 E1.93164
G1 X119.730 Y108.931 E1.95018
G1 X120.674 Y109.562 E1.96873
G1 X121.305 Y110.506 E1.98727
G1 X121.515 Y111.562 E2.00485
G1 F1800.000 E1.00485
G92 E0
G1 X114.675 Y111.620 F9000.000
G1 F1800.000 E1.00000
G1 X114.395 Y113.028 F720.000 E1.02344
G1 X113.598 Y114.221 E1.04689
G1 X112.404 Y115.019 E1.07033
G1 X110.997 Y115.299 E1.09378
G1 X109.589 Y115.019 E1.11722
G1 X108.395 Y114.221 E1.14066
G1 X107.598 Y113.028 E1.16411
G1 X107.318 Y111.620 E1.18755
G1 X107.598 Y110.212 E1.21100
G1 X108.395 Y109.019 E1.23444
G1 X109.589 Y108.221 E1.25789
G1 X110.997 Y107.941 E1.28133
G1 X112.404 Y108.221 E1.30477
G1 X113.598 Y109.019 E1.32822
G1 X114.395 Y110.212 E1.35166
G1 X114.664 Y111.562 E1.37414
G1 X114.291 Y111.620 F9000.000
G1 X114.040 Y112.881 F720.000 E1.39513
G1 X113.326 Y113.949 E1.41613
G1 X112.257 Y114.664 E1.43712
G1 X110.997 Y114.914 E1.45812
G1 X109.736 Y114.664 E1.47911
G1 X108.667 Y113.949 E1.50011
G1 X107.953 Y112.881 E1.52110
G1 X107.702 Y111.620 E1.54210
G1 X107.953 Y110.359 E1.56309
G1 X108.667 Y109.291 E1.58409
G1 X109.736 Y108.576 E1.60508
G1 X110.997 Y108.326 E1.62608
G1 X112.257 Y108.576 E1.64707
G1 X113.326 Y109.291 E1.66807
G1 X114.040 Y110.359 E1.68906
G1 X114.279 Y111.562 E1.70909
G1 X113.907 Y111.620 F9000.000
G1 X113.685 Y112.734 F720.000 E1.72763
G1 X113.054 Y113.678 E1.74618
G1 X112.110 Y114.309 E1.76473
G1 X110.997 Y114.530 E1.78327
G1 X109.883 Y114.309 E1.80182
G1 X108.939 Y113.678 E1.82036
G1 X108.308 Y112.734 E1.83891
G1 X108.087 Y111.620 E1.85745
G1 X108.308 Y110.506 E1.87600
G1 X108.939 Y109.562 E1.89454
G1 X109.883 Y108.931 E1.91309
G1 X110.997 Y108.710 E1.93164
G1 X112.110 Y108.931 E1.95018
G1 X113.054 Y109.562 E1.96873
G1 X113.685 Y110.506 E1.98727
G1 X113.895 Y111.562 E2.00485
G1 F1800.000 E1.00485
G92 E0
G1 X107.055 Y111.620 F9000.000
G1 F1800.000 E1.00000
G1 X106.775 Y113.028 F720.000 E1.02344
G1 X105.978 Y114.221 E1.04689
G1 X104.784 Y115.019 E1.07033
G1 X103.377 Y115.299 E1.09378
G1 X101.969 Y115.019 E1.11722
G1 X100.775 Y114.221 E1.14066
G1 X99.978 Y113.028 E1.16411
G1 X99.698 Y111.620 E1.18755
G1 X99.978 Y110.212 E1.21100
G1 X100.775 Y109.019 E1.23444
G1 X101.969 Y108.221 E1.25789
G1 X103.377 Y107.941 E1.28133
G1 X104.784 Y108.221 E1.30477
G1 X105.978 Y109.019 E1.32822
G1 X106.775 Y110.212 E1.35166
G1 X107.044 Y111.562 E1.37414
G1 X106.671 Y111.620 F9000.000
G1 X106.420 Y112.881 F720.000 E1.39513
G1 X105.706 Y113.949 E1.41613
G1 X104.637 Y114.664 E1.43712
G1 X103.377 Y114.914 E1.45812
G1 X102.116 Y114.664 E1.47911
G1 X101.047 Y113.949 E1.50011
G1 X100.333 Y112.881 E1.52110
G1 X100.082 Y111.620 E1.54210
G1 X100.333 Y110.359 E1.56309
G1 X101.047 Y109.291 E1.58409
G1 X102.116 Y108.576 E1.60508
G1 X103.377 Y108.326 E1.62608
G1 X104.637 Y108.576 E1.64707
G1 X105.706 Y109.291 E1.66807
G1 X106.420 Y110.359 E1.68906
G1 X106.659 Y111.562 E1.70909
G1 X106.287 Y111.620 F9000.000
G1 X106.065 Y112.734 F720.000 E1.72763
G1 X105.434 Y113.678 E1.74618
G1 X104.490 Y114.309 E1.76473
G1 X103.377 Y114.530 E1.78327
G1 X102.263 Y114.309 E1.80182
G1 X101.319 Y113.678 E1.82036
G1 X100.688 Y112.734 E1.83891
G1 X100.467 Y111.620 E1.85745
G1 X100.688 Y110.506 E1.87600
G1 X101.319 Y109.562 E1.89454
G1 X102.263 Y108.931 E1.91309
G1 X103.377 Y108.710 E1.93164
G1 X104.490 Y108.931 E1.95018
G1 X105.434 Y109.562 E1.96873
G1 X106.065 Y110.506 E1.98727
G1 X106.275 Y111.562 E2.00485
G1 F1800.000 E1.00485
G92 E0
G1 X99.435 Y111.620 F9000.000
G1 F1800.000 E1.00000
G1 X99.155 Y113.028 F720.000 E1.02344
G1 X98.358 Y114.221 E1.04689
G1 X97.164 Y115.019 E1.07033
G1 X95.757 Y115.299 E1.09378
G1 X94.349 Y115.019 E1.11722
G1 X93.155 Y114.221 E1.14066
G1 X92.358 Y113.028 E1.16411
G1 X92.078 Y111.620 E1.18755
G1 X92.358 Y110.212 E1.21100
G1 X93.155 Y109.019 E1.23444
G1 X94.349 Y108.221 E1.25789
G1 X95.757 Y107.941 E1.28133
G1 X97.164 Y108.221 E1.30477
G1 X98.358 Y109.019 E1.32822
G1 X99.155 Y110.212 E1.35166
G1 X99.424 Y111.562 E1.37414
G1 X99.051 Y111.620 F9000.000
G1 X98.800 Y112.881 F720.000 E1.39513
G1 X98.086 Y113.949 E1.41613
G1 X97.017 Y114.664 E1.43712
G1 X95.757 Y114.914 E1.45812
G1 X94.496 Y114.664 E1.47911
G1 X93.427 Y113.949 E1.50011
G1 X92.713 Y112.881 E1.52110
G1 X92.462 Y111.620 E1.54210
G1 X92.713 Y110.359 E1.56309
G1 X93.427 Y109.291 E1.58409
G1 X94.496 Y108.576 E1.60508
G1 X95.757 Y108.326 E1.62608
G1 X97.017 Y108.576 E1.64707
G1 X98.086 Y109.291 E1.66807
G1 X98.800 Y110.359 E1.68906
G1 X99.039 Y111.562 E1.70909
G1 X98.667 Y111.620 F9000.000
G1 X98.445 Y112.734 F720.000 E1.72763
G1 X97.814 Y113.678 E1.74618
G1 X96.870 Y114.309 E1.76473
G1 X95.757 Y114.530 E1.78327
G1 X94.643 Y114.309 E1.80182
G1 X93.699 Y113.678 E1.82036
G1 X93.068 Y112.734 E1.83891
G1 X92.847 Y111.620 E1.85745
G1 X93.068 Y110.506 E1.87600
G1 X93.699 Y109.562 E1.89454
G1 X94.643 Y108.931 E1.91309
G1 X95.757 Y108.710 E1.93164
G1 X96.870 Y108.931 E1.95018
G1 X97.814 Y109.562 E1.96873
G1 X98.445 Y110.506 E1.98727
G1 X98.655 Y111.562 E2.00485
G1 F1800.000 E1.00485
G92 E0
G1 X91.815 Y111.620 F9000.000
G1 F1800.000 E1.00000
G1 X91.535 Y113.028 F720.000 E1.02344
G1 X90.738 Y114.221 E1.04689
G1 X89.544 Y115.019 E1.07033
G1 X88.137 Y115.299 E1.09378
G1 X86.729 Y115.019 E1.11722
G1 X85.535 Y114.221 E1.14066
G1 X84.738 Y113.028 E1.16411
G1 X84.458 Y111.620 E1.18755
G1 X84.738 Y110.212 E1.21100
G1 X85.535 Y109.019 E1.23444
G1 X86.729 Y108.221 E1.25788
G1 X88.137 Y107.941 E1.28133
G1 X89.544 Y108.221 E1.30477
G1 X90.738 Y109.019 E1.32822
G1 X91.535 Y110.212 E1.35166
G1 X91.804 Y111.562 E1.37414
G1 X91.431 Y111.620 F9000.000
G1 X91.180 Y112.881 F720.000 E1.39513
G1 X90.466 Y113.949 E1.41613
G1 X89.397 Y114.664 E1.43712
G1 X88.137 Y114.914 E1.45812
G1 X86.876 Y114.664 E1.47911
G1 X85.807 Y113.949 E1.50011
G1 X85.093 Y112.881 E1.52110
G1 X84.842 Y111.620 E1.54210
G1 X85.093 Y110.359 E1.56309
G1 X85.807 Y109.291 E1.58409
G1 X86.876 Y108.576 E1.60508
G1 X88.137 Y108.326 E1.62608
G1 X89.397 Y108.576 E1.64707
G1 X90.466 Y109.291 E1.66807
G1 X91.180 Y110.359 E1.68906
G1 X91.419 Y111.562 E1.70909
G1 X91.047 Y111.620 F9000.000
G1 X90.825 Y112.734 F720.000 E1.72763
G1 X90.194 Y113.678 E1.74618
G1 X89.250 Y114.309 E1.76472
G1 X88.137 Y114.530 E1.78327
G1 X87.023 Y114.309 E1.80182
G1 X86.079 Y113.678 E1.82036
G1 X85.448 Y112.734 E1.83891
G1 X85.227 Y111.620 E1.85745
G1 X85.448 Y110.506 E1.87600
G1 X86.079 Y109.562 E1.89454
G1 X87.023 Y108.931 E1.91309
G1 X88.137 Y108.710 E1.93163
G1 X89.250 Y108.931 E1.95018
G1 X90.194 Y109.562 E1.96872
G1 X90.825 Y110.506 E1.98727
G1 X91.035 Y111.562 E2.00485
G1 F1800.000 E1.00485
G92 E0
G1 X88.137 Y130.801 F9000.000
G1 F1800.000 E1.00000
G1 X89.544 Y131.081 F720.000 E1.02344
G1 X90.738 Y131.879 E1.04689
G1 X91.535 Y133.072 E1.07033
G1 X91.815 Y134.480 E1.09378
G1 X91.535 Y135.888 E1.11722
G1 X90.738 Y137.081 E1.14066
G1 X89.544 Y137.879 E1.16411
G1 X88.137 Y138.159 E1.18755
G1 X86.729 Y137.879 E1.21100
G1 X85.535 Y137.081 E1.23444
G1 X84.738 Y135.888 E1.25789
G1 X84.458 Y134.480 E1.28133
G1 X84.738 Y133.072 E1.30477
G1 X85.535 Y131.879 E1.32822
G1 X86.729 Y131.081 E1.35166
G1 X88.079 Y130.813 E1.37414
G1 X88.137 Y131.186 F9000.000
G1 X89.397 Y131.436 F720.000 E1.39513
G1 X90.466 Y132.151 E1.41613
G1 X91.180 Y133.219 E1.43712
G1 X91.431 Y134.480 E1.45812
G1 X91.180 Y135.741 E1.47911
G1 X90.466 Y136.809 E1.50011
G1 X89.397 Y137.524 E1.52110
G1 X88.137 Y137.774 E1.54210
G1 X86.876 Y137.524 E1.56309
G1 X85.807 Y136.809 E1.58409
G1 X85.093 Y135.741 E1.60508
G1 X84.842 Y134.480 E1.62608
G1 X85.093 Y133.219 E1.64707
G1 X85.807 Y132.151 E1.66807
G1 X86.876 Y131.436 E1.68906
G1 X88.079 Y131.197 E1.70909
G1 X88.137 Y131.570 F9000.000
G1 X89.250 Y131.791 F720.000 E1.72763
G1 X90.194 Y132.422 E1.74618
G1 X90.825 Y133.366 E1.76473
G1 X91.047 Y134.480 E1.78327
G1 X90.825 Y135.594 E1.80182
G1 X90.194 Y136.538 E1.82036
G1 X89.250 Y137.169 E1.83891
G1 X88.137 Y137.390 E1.85745
G1 X87.023 Y137.169 E1.87600
G1 X86.079 Y136.538 E1.89454
G1 X85.448 Y135.594 E1.91309
G1 X85.227 Y134.480 E1.93164
G1 X85.448 Y133.366 E1.95018
G1 X86.079 Y132.422 E1.96873
G1 X87.023 Y131.791 E1.98727
G1 X88.079 Y131.582 E2.00485
G1 F1800.000 E1.00485
G92 E0
G1 X92.358 Y133.072 F9000.000
G1 F1800.000 E1.00000
G1 X93.155 Y131.879 F720.000 E1.02344
G1 X94.349 Y131.081 E1.04689
G1 X95.757 Y130.801 E1.07033
G1 X97.164 Y131.081 E1.09378
G1 X98.358 Y131.879 E1.11722
G1 X99.155 Y133.072 E1.14067
G1 X99.435 Y134.480 E1.16411
G1 X99.155 Y135.888 E1.18755
G1 X98.358 Y137.081 E1.21100
G1 X97.164 Y137.879 E1.23444
G1 X95.757 Y138.159 E1.25789
G1 X94.349 Y137.879 E1.28133
G1 X93.155 Y137.081 E1.30477
G1 X92.358 Y135.888 E1.32822
G1 X92.078 Y134.480 E1.35166
G1 X92.346 Y133.130 E1.37414
G1 X92.713 Y133.219 F9000.000
G1 X93.427 Y132.151 F720.000 E1.39513
G1 X94.496 Y131.436 E1.41613
G1 X95.757 Y131.186 E1.43712
G1 X97.017 Y131.436 E1.45812
G1 X98.086 Y132.151 E1.47911
G1 X98.800 Y133.219 E1.50011
