; generated by Slic3r 0.8.2 on 2014-05-20 at 20:11:32

; layer_height = 0.25
; perimeters = 3
; solid_layers = 3
; fill_density = 0.2
; nozzle_diameter = 0.35
; filament_diameter = 3
; extrusion_multiplier = 1
; perimeter_speed = 60
; infill_speed = 80
; travel_speed = 150
; extrusion_width_ratio = 0
; scale = 1
; single wall width = 0.39mm

M107
G28 ; home all axes
G90 ; use absolute coordinates
G21 ; set units to millimeters
G92 E0 ; reset extrusion distance
M82 ; use absolute distances for extrusion
G1 Z0.800 F9000.000
G1 X16.480 Y36.695
G1 F1800.000 E1.00000
G1 X16.650 Y36.515 F1080.000 E1.00404
G1 X17.200 Y36.025 E1.01608
G1 X19.470 Y34.375 E1.06191
G1 X19.930 Y34.125 E1.07046
G1 X22.500 Y33.005 E1.11625
G1 X23.210 Y32.805 E1.12830
G1 X25.210 Y32.375 E1.16171
G1 X25.960 Y32.265 E1.17409
G1 X26.470 Y32.245 E1.18243
G1 X164.030 Y32.265 E3.42924
G1 X164.780 Y32.375 E3.44163
G1 X167.020 Y32.865 E3.47908
G1 X167.730 Y33.095 E3.49127
G1 X170.030 Y34.115 E3.53236
G1 X170.670 Y34.485 E3.54444
G1 X172.960 Y36.165 E3.59083
G1 X173.150 Y36.335 E3.59499
G1 X175.040 Y38.405 E3.64077
G1 X175.340 Y38.795 E3.64881
G1 X176.640 Y40.985 E3.69041
G1 X176.880 Y41.445 E3.69888
G1 X177.080 Y41.915 E3.70722
G1 X177.860 Y44.345 E3.74891
G1 X177.970 Y44.825 E3.75695
G1 X178.050 Y45.315 E3.76506
G1 X178.270 Y47.365 E3.79874
G1 X178.270 Y142.625 E5.35465
G1 X178.050 Y144.675 E5.38833
G1 X177.920 Y145.405 E5.40044
G1 X177.080 Y148.075 E5.44615
G1 X176.880 Y148.545 E5.45450
G1 X175.480 Y150.985 E5.50044
G1 X175.340 Y151.195 E5.50457
G1 X174.880 Y151.775 E5.51666
G1 X173.340 Y153.475 E5.55412
G1 X172.790 Y153.965 E5.56616
G1 X170.520 Y155.615 E5.61199
G1 X170.060 Y155.865 E5.62054
G1 X167.490 Y156.985 E5.66633
G1 X166.780 Y157.185 E5.67838
G1 X164.780 Y157.615 E5.71179
G1 X164.030 Y157.725 E5.72417
G1 X163.520 Y157.745 E5.73251
G1 X25.960 Y157.725 E7.97932
G1 X25.210 Y157.615 E7.99171
G1 X22.970 Y157.125 E8.02916
G1 X22.500 Y156.985 E8.03717
G1 X19.930 Y155.865 E8.08296
G1 X19.470 Y155.615 E8.09151
G1 X17.200 Y153.965 E8.13734
G1 X16.650 Y153.475 E8.14938
G1 X15.110 Y151.775 E8.18684
G1 X14.790 Y151.385 E8.19508
G1 X14.500 Y150.965 E8.20342
G1 X13.210 Y148.715 E8.24578
G1 X13.100 Y148.495 E8.24980
G1 X12.900 Y148.035 E8.25799
G1 X12.130 Y145.645 E8.29900
G1 X12.020 Y145.165 E8.30705
G1 X11.940 Y144.675 E8.31515
G1 X11.720 Y142.625 E8.34883
G1 X11.720 Y47.365 E9.90474
G1 X11.980 Y45.065 E9.94255
G1 X12.070 Y44.585 E9.95053
G1 X12.900 Y41.955 E9.99557
G1 X13.100 Y41.495 E10.00376
G1 X14.500 Y39.025 E10.05014
G1 X14.790 Y38.605 E10.05847
G1 X16.440 Y36.739 E10.09916
G1 F1800.000 E9.09916
G92 E0
G1 X144.283 Y54.722 F9000.000
G1 F1800.000 E1.00000
G1 X144.991 Y52.544 F1080.000 E1.03741
G1 X146.136 Y50.560 E1.07482
G1 X147.669 Y48.858 E1.11223
G1 X149.522 Y47.512 E1.14965
G1 X151.614 Y46.580 E1.18706
G1 X153.855 Y46.104 E1.22447
G1 X156.145 Y46.104 E1.26188
G1 X158.386 Y46.580 E1.29929
G1 X160.478 Y47.512 E1.33670
G1 X162.331 Y48.858 E1.37412
G1 X163.864 Y50.560 E1.41153
G1 X165.009 Y52.544 E1.44894
G1 X165.717 Y54.722 E1.48635
G1 X165.956 Y57.000 E1.52376
G1 X165.717 Y59.278 E1.56117
G1 X165.009 Y61.456 E1.59858
G1 X163.864 Y63.440 E1.63600
G1 X162.331 Y65.142 E1.67341
G1 X160.478 Y66.488 E1.71082
G1 X158.386 Y67.420 E1.74823
G1 X156.145 Y67.896 E1.78564
G1 X153.855 Y67.896 E1.82305
G1 X151.614 Y67.420 E1.86046
G1 X149.522 Y66.488 E1.89788
G1 X147.669 Y65.142 E1.93529
G1 X146.136 Y63.440 E1.97270
G1 X144.991 Y61.456 E2.01011
G1 X144.283 Y59.278 E2.04752
G1 X144.044 Y57.000 E2.08493
G1 X144.277 Y54.781 E2.12138
G1 X144.654 Y54.801 F9000.000
G1 X145.337 Y52.698 F1080.000 E2.15750
G1 X146.443 Y50.783 E2.19361
G1 X147.922 Y49.140 E2.22973
G1 X149.711 Y47.840 E2.26585
G1 X151.731 Y46.940 E2.30196
G1 X153.894 Y46.481 E2.33808
G1 X156.106 Y46.481 E2.37420
G1 X158.269 Y46.940 E2.41032
G1 X160.289 Y47.840 E2.44643
G1 X162.078 Y49.140 E2.48255
G1 X163.557 Y50.783 E2.51867
G1 X164.663 Y52.698 E2.55478
G1 X165.346 Y54.801 E2.59090
G1 X165.577 Y57.000 E2.62702
G1 X165.346 Y59.199 E2.66314
G1 X164.663 Y61.302 E2.69925
G1 X163.557 Y63.217 E2.73537
G1 X162.078 Y64.860 E2.77149
G1 X160.289 Y66.160 E2.80761
G1 X158.269 Y67.060 E2.84372
G1 X156.106 Y67.519 E2.87984
G1 X153.894 Y67.519 E2.91596
G1 X151.731 Y67.060 E2.95207
G1 X149.711 Y66.160 E2.98819
G1 X147.922 Y64.860 E3.02431
G1 X146.443 Y63.217 E3.06043
G1 X145.337 Y61.302 E3.09654
G1 X144.654 Y59.199 E3.13266
G1 X144.423 Y57.000 E3.16878
G1 X144.648 Y54.860 E3.20393
G1 X145.025 Y54.880 F9000.000
G1 X145.683 Y52.852 F1080.000 E3.23875
G1 X146.749 Y51.006 E3.27358
G1 X148.176 Y49.421 E3.30840
G1 X149.901 Y48.168 E3.34322
G1 X151.849 Y47.301 E3.37804
G1 X153.934 Y46.858 E3.41287
G1 X156.066 Y46.858 E3.44769
G1 X158.151 Y47.301 E3.48251
G1 X160.099 Y48.168 E3.51734
G1 X161.824 Y49.421 E3.55216
G1 X163.251 Y51.006 E3.58698
G1 X164.317 Y52.852 E3.62181
G1 X164.975 Y54.880 E3.65663
G1 X165.198 Y57.000 E3.69145
G1 X164.975 Y59.120 E3.72627
G1 X164.317 Y61.148 E3.76110
G1 X163.251 Y62.994 E3.79592
G1 X161.824 Y64.579 E3.83074
G1 X160.099 Y65.832 E3.86557
G1 X158.151 Y66.699 E3.90039
G1 X156.066 Y67.142 E3.93521
G1 X153.934 Y67.142 E3.97004
G1 X151.849 Y66.699 E4.00486
G1 X149.901 Y65.832 E4.03968
G1 X148.176 Y64.579 E4.07451
G1 X146.749 Y62.994 E4.10933
G1 X145.683 Y61.148 E4.14415
G1 X145.025 Y59.120 E4.17897
G1 X144.802 Y57.000 E4.21380
G1 X145.018 Y54.939 E4.24765
G1 F1800.000 E3.24765
G92 E0
G1 X151.612 Y71.580 F9000.000
G1 F1800.000 E1.00000
G1 X153.855 Y71.104 F1080.000 E1.03744
G1 X156.145 Y71.104 E1.07485
G1 X158.386 Y71.580 E1.11226
G1 X160.478 Y72.512 E1.14968
G1 X162.331 Y73.858 E1.18709
G1 X163.864 Y75.560 E1.22450
G1 X165.009 Y77.544 E1.26191
G1 X165.717 Y79.722 E1.29932
G1 X165.956 Y82.000 E1.33673
G1 X165.717 Y84.278 E1.37414
G1 X165.009 Y86.456 E1.41156
G1 X163.864 Y88.440 E1.44897
G1 X162.331 Y90.142 E1.48638
G1 X160.478 Y91.488 E1.52379
G1 X158.386 Y92.420 E1.56120
G1 X156.145 Y92.896 E1.59861
G1 X153.855 Y92.896 E1.63602
G1 X151.614 Y92.420 E1.67344
G1 X149.522 Y91.488 E1.71085
G1 X147.669 Y90.142 E1.74826
G1 X146.136 Y88.440 E1.78567
G1 X144.991 Y86.456 E1.82308
G1 X144.283 Y84.278 E1.86049
G1 X144.044 Y82.000 E1.89790
G1 X144.283 Y79.722 E1.93532
G1 X144.991 Y77.544 E1.97273
G1 X146.136 Y75.560 E2.01014
G1 X147.669 Y73.858 E2.04755
G1 X149.489 Y72.536 E2.08429
G1 X151.559 Y71.605 E2.12136
G1 X151.730 Y71.941 F9000.000
G1 X153.894 Y71.481 F1080.000 E2.15750
G1 X156.106 Y71.481 E2.19362
G1 X158.269 Y71.940 E2.22973
G1 X160.289 Y72.840 E2.26585
G1 X162.078 Y74.140 E2.30197
G1 X163.557 Y75.783 E2.33808
G1 X164.663 Y77.698 E2.37420
G1 X165.346 Y79.801 E2.41032
G1 X165.577 Y82.000 E2.44644
G1 X165.346 Y84.199 E2.48255
G1 X164.663 Y86.302 E2.51867
G1 X163.557 Y88.217 E2.55479
G1 X162.078 Y89.860 E2.59091
G1 X160.289 Y91.160 E2.62702
G1 X158.269 Y92.060 E2.66314
G1 X156.106 Y92.519 E2.69926
G1 X153.894 Y92.519 E2.73537
G1 X151.731 Y92.060 E2.77149
G1 X149.711 Y91.160 E2.80761
G1 X147.922 Y89.860 E2.84373
G1 X146.443 Y88.217 E2.87984
G1 X145.337 Y86.302 E2.91596
G1 X144.654 Y84.199 E2.95208
G1 X144.423 Y82.000 E2.98819
G1 X144.654 Y79.801 E3.02431
G1 X145.337 Y77.698 E3.06043
G1 X146.443 Y75.783 E3.09655
G1 X147.922 Y74.140 E3.13266
G1 X149.679 Y72.863 E3.16812
G1 X151.676 Y71.965 E3.20390
G1 X151.848 Y72.301 F9000.000
G1 X153.934 Y71.858 F1080.000 E3.23873
G1 X156.066 Y71.858 E3.27355
G1 X158.151 Y72.301 E3.30838
G1 X160.099 Y73.168 E3.34320
G1 X161.824 Y74.421 E3.37802
G1 X163.251 Y76.006 E3.41284
G1 X164.317 Y77.852 E3.44767
G1 X164.975 Y79.880 E3.48249
G1 X165.198 Y82.000 E3.51731
G1 X164.975 Y84.120 E3.55214
G1 X164.317 Y86.148 E3.58696
G1 X163.251 Y87.994 E3.62178
G1 X161.824 Y89.579 E3.65661
G1 X160.099 Y90.832 E3.69143
G1 X158.151 Y91.699 E3.72625
G1 X156.066 Y92.142 E3.76107
G1 X153.934 Y92.142 E3.79590
G1 X151.849 Y91.699 E3.83072
G1 X149.901 Y90.832 E3.86554
G1 X148.176 Y89.579 E3.90037
G1 X146.749 Y87.994 E3.93519
G1 X145.683 Y86.148 E3.97001
G1 X145.025 Y84.120 E4.00484
G1 X144.802 Y82.000 E4.03966
G1 X145.025 Y79.880 E4.07448
G1 X145.683 Y77.852 E4.10931
G1 X146.749 Y76.006 E4.14413
G1 X148.176 Y74.421 E4.17895
G1 X149.869 Y73.191 E4.21313
G1 X151.794 Y72.325 E4.24761
G1 F1800.000 E3.24761
G92 E0
G1 X153.855 Y122.104 F9000.000
G1 F1800.000 E1.00000
G1 X156.145 Y122.104 F1080.000 E1.03741
G1 X158.386 Y122.580 E1.07482
G1 X160.478 Y123.512 E1.11223
G1 X162.331 Y124.858 E1.14965
G1 X163.864 Y126.560 E1.18706
G1 X165.009 Y128.544 E1.22447
G1 X165.717 Y130.722 E1.26188
G1 X165.956 Y133.000 E1.29929
G1 X165.717 Y135.278 E1.33670
G1 X165.009 Y137.456 E1.37411
G1 X163.864 Y139.440 E1.41153
G1 X162.331 Y141.142 E1.44894
G1 X160.477 Y142.490 E1.48638
G1 X158.346 Y143.429 E1.52442
G1 X156.145 Y143.896 E1.56116
G1 X154.174 Y143.896 E1.59336
G1 X154.174 Y143.964 E1.59446
G1 X153.855 Y143.896 E1.59979
G1 X153.855 Y143.896 E1.59979
G1 X151.614 Y143.420 E1.63721
G1 X149.522 Y142.488 E1.67462
G1 X147.669 Y141.142 E1.71203
G1 X146.136 Y139.440 E1.74944
G1 X144.991 Y137.456 E1.78685
G1 X144.283 Y135.278 E1.82426
G1 X144.044 Y133.000 E1.86167
G1 X144.283 Y130.722 E1.89908
G1 X144.991 Y128.544 E1.93650
G1 X146.136 Y126.560 E1.97391
G1 X147.669 Y124.858 E2.01132
G1 X149.522 Y123.512 E2.04873
G1 X151.614 Y122.580 E2.08614
G1 X153.797 Y122.116 E2.12259
G1 X153.894 Y122.481 F9000.000
G1 X156.106 Y122.481 F1080.000 E2.15871
G1 X158.269 Y122.940 E2.19482
G1 X160.289 Y123.840 E2.23094
G1 X162.078 Y125.140 E2.26706
G1 X163.557 Y126.783 E2.30317
G1 X164.663 Y128.698 E2.33929
G1 X165.346 Y130.801 E2.37541
G1 X165.577 Y133.000 E2.41153
G1 X165.346 Y135.199 E2.44764
G1 X164.663 Y137.302 E2.48376
G1 X163.557 Y139.217 E2.51988
G1 X162.078 Y140.860 E2.55599
G1 X160.288 Y142.161 E2.59213
G1 X158.229 Y143.068 E2.62887
G1 X156.106 Y143.519 E2.66433
G1 X153.894 Y143.519 E2.70045
G1 X153.797 Y143.499 E2.70208
G1 X153.797 Y143.499 E2.70208
G1 X151.731 Y143.060 E2.73657
G1 X149.711 Y142.160 E2.77268
G1 X147.922 Y140.860 E2.80880
G1 X146.443 Y139.217 E2.84492
G1 X145.337 Y137.302 E2.88104
G1 X144.654 Y135.199 E2.91715
G1 X144.423 Y133.000 E2.95327
G1 X144.654 Y130.801 E2.98939
G1 X145.337 Y128.698 E3.02551
G1 X146.443 Y126.783 E3.06162
G1 X147.922 Y125.140 E3.09774
G1 X149.711 Y123.840 E3.13386
G1 X151.731 Y122.940 E3.16997
G1 X153.837 Y122.493 E3.20513
G1 X153.934 Y122.858 F9000.000
G1 X156.066 Y122.858 F1080.000 E3.23995
G1 X158.151 Y123.301 E3.27477
G1 X160.099 Y124.168 E3.30959
G1 X161.824 Y125.421 E3.34442
G1 X163.251 Y127.006 E3.37924
G1 X164.317 Y128.852 E3.41406
G1 X164.975 Y130.880 E3.44889
G1 X165.198 Y133.000 E3.48371
G1 X164.975 Y135.120 E3.51853
G1 X164.317 Y137.148 E3.55336
G1 X163.251 Y138.994 E3.58818
G1 X161.824 Y140.579 E3.62300
G1 X160.099 Y141.832 E3.65783
G1 X158.113 Y142.707 E3.69328
G1 X156.066 Y143.142 E3.72746
G1 X153.934 Y143.142 E3.76228
G1 X151.849 Y142.699 E3.79710
G1 X149.901 Y141.832 E3.83193
G1 X148.176 Y140.579 E3.86675
G1 X146.749 Y138.994 E3.90157
G1 X145.683 Y137.148 E3.93640
G1 X145.025 Y135.120 E3.97122
G1 X144.802 Y133.000 E4.00604
G1 X145.025 Y130.880 E4.04086
G1 X145.683 Y128.852 E4.07569
G1 X146.749 Y127.006 E4.11051
G1 X148.176 Y125.421 E4.14533
G1 X149.901 Y124.168 E4.18016
G1 X151.849 Y123.301 E4.21498
G1 X153.876 Y122.870 E4.24884
G1 F1800.000 E3.24884
G92 E0
G1 X154.174 Y118.964 F9000.000
G1 F1800.000 E1.00000
G1 X153.855 Y118.896 F1080.000 E1.00533
G1 X153.855 Y118.896 E1.00533
G1 X151.614 Y118.420 E1.04274
G1 X149.522 Y117.488 E1.08015
G1 X147.669 Y116.142 E1.11756
G1 X146.136 Y114.440 E1.15497
G1 X144.991 Y112.456 E1.19239
G1 X144.283 Y110.278 E1.22980
G1 X144.044 Y108.000 E1.26721
G1 X144.283 Y105.722 E1.30462
G1 X144.991 Y103.544 E1.34203
G1 X146.136 Y101.560 E1.37944
G1 X147.669 Y99.858 E1.41686
G1 X149.522 Y98.512 E1.45427
G1 X151.614 Y97.580 E1.49168
G1 X153.855 Y97.104 E1.52909
G1 X156.145 Y97.104 E1.56650
G1 X158.386 Y97.580 E1.60391
G1 X160.478 Y98.512 E1.64132
G1 X162.331 Y99.858 E1.67874
G1 X163.864 Y101.560 E1.71615
G1 X165.009 Y103.544 E1.75356
G1 X165.717 Y105.722 E1.79097
G1 X165.956 Y108.000 E1.82838
G1 X165.717 Y110.278 E1.86579
G1 X165.009 Y112.456 E1.90320
G1 X163.864 Y114.440 E1.94062
G1 X162.331 Y116.142 E1.97803
G1 X160.477 Y117.490 E2.01547
G1 X158.346 Y118.429 E2.05351
G1 X156.145 Y118.896 E2.09025
G1 X154.174 Y118.896 E2.12245
G1 X154.174 Y118.905 E2.12259
G1 X153.894 Y118.519 F9000.000
G1 X153.797 Y118.499 F1080.000 E2.12421
G1 X153.797 Y118.499 E2.12421
G1 X151.731 Y118.060 E2.15870
G1 X149.711 Y117.160 E2.19482
G1 X147.922 Y115.860 E2.23094
G1 X146.443 Y114.217 E2.26706
G1 X145.337 Y112.302 E2.30317
G1 X144.654 Y110.199 E2.33929
G1 X144.423 Y108.000 E2.37541
G1 X144.654 Y105.801 E2.41152
G1 X145.337 Y103.698 E2.44764
G1 X146.443 Y101.783 E2.48376
G1 X147.922 Y100.140 E2.51988
G1 X149.711 Y98.840 E2.55599
G1 X151.731 Y97.940 E2.59211
G1 X153.894 Y97.481 E2.62823
G1 X156.106 Y97.481 E2.66435
G1 X158.269 Y97.940 E2.70046
G1 X160.289 Y98.840 E2.73658
G1 X162.078 Y100.140 E2.77270
G1 X163.557 Y101.783 E2.80881
G1 X164.663 Y103.698 E2.84493
G1 X165.346 Y105.801 E2.88105
G1 X165.577 Y108.000 E2.91717
G1 X165.346 Y110.199 E2.95328
G1 X164.663 Y112.302 E2.98940
G1 X163.557 Y114.217 E3.02552
G1 X162.078 Y115.860 E3.06164
G1 X160.288 Y117.161 E3.09777
G1 X158.229 Y118.068 E3.13451
G1 X156.106 Y118.519 E3.16997
G1 X153.954 Y118.519 E3.20512
G1 X153.934 Y118.142 F9000.000
G1 X151.849 Y117.699 F1080.000 E3.23995
G1 X149.901 Y116.832 E3.27477
G1 X148.176 Y115.579 E3.30959
G1 X146.749 Y113.994 E3.34442
G1 X145.683 Y112.148 E3.37924
G1 X145.025 Y110.120 E3.41406
G1 X144.802 Y108.000 E3.44889
G1 X145.025 Y105.880 E3.48371
G1 X145.683 Y103.852 E3.51853
G1 X146.749 Y102.006 E3.55335
G1 X148.176 Y100.421 E3.58818
G1 X149.901 Y99.168 E3.62300
G1 X151.849 Y98.301 E3.65782
G1 X153.934 Y97.858 E3.69265
G1 X156.066 Y97.858 E3.72747
G1 X158.151 Y98.301 E3.76229
G1 X160.099 Y99.168 E3.79712
G1 X161.824 Y100.421 E3.83194
G1 X163.251 Y102.006 E3.86676
G1 X164.317 Y103.852 E3.90159
G1 X164.975 Y105.880 E3.93641
G1 X165.198 Y108.000 E3.97123
G1 X164.975 Y110.120 E4.00605
G1 X164.317 Y112.148 E4.04088
G1 X163.251 Y113.994 E4.07570
G1 X161.824 Y115.579 E4.11052
G1 X160.099 Y116.832 E4.14535
G1 X158.113 Y117.707 E4.18080
G1 X156.066 Y118.142 E4.21498
G1 X153.993 Y118.142 E4.24884
G1 F1800.000 E3.24884
G92 E0
G1 X139.909 Y104.379 F9000.000
G1 F1800.000 E1.00000
G1 X137.677 Y106.858 F1080.000 E1.05448
G1 X134.978 Y108.819 E1.10897
G1 X131.931 Y110.175 E1.16345
G1 X128.668 Y110.869 E1.21794
G1 X125.332 Y110.869 E1.27242
G1 X122.069 Y110.175 E1.32691
G1 X119.022 Y108.819 E1.38139
G1 X116.323 Y106.858 E1.43588
G1 X114.091 Y104.379 E1.49036
G1 X112.423 Y101.490 E1.54484
G1 X111.392 Y98.317 E1.59933
G1 X111.044 Y95.000 E1.65381
G1 X111.392 Y91.683 E1.70830
G1 X112.423 Y88.510 E1.76278
G1 X114.091 Y85.621 E1.81727
G1 X116.323 Y83.142 E1.87175
G1 X119.022 Y81.181 E1.92624
G1 X122.069 Y79.825 E1.98072
G1 X125.332 Y79.131 E2.03520
G1 X128.668 Y79.131 E2.08969
G1 X131.931 Y79.825 E2.14417
G1 X134.978 Y81.181 E2.19866
G1 X137.677 Y83.142 E2.25314
G1 X139.909 Y85.621 E2.30763
G1 X141.577 Y88.510 E2.36211
G1 X142.608 Y91.683 E2.41659
G1 X142.956 Y95.000 E2.47108
G1 X142.608 Y98.317 E2.52556
G1 X141.577 Y101.490 E2.58005
G1 X139.939 Y104.328 E2.63356
G1 X139.602 Y104.156 F9000.000
G1 X137.423 Y106.576 F1080.000 E2.68676
G1 X134.789 Y108.490 E2.73995
G1 X131.814 Y109.815 E2.79314
G1 X128.628 Y110.492 E2.84633
G1 X125.372 Y110.492 E2.89952
G1 X122.186 Y109.815 E2.95271
G1 X119.211 Y108.490 E3.00590
G1 X116.577 Y106.576 E3.05909
G1 X114.398 Y104.156 E3.11228
G1 X112.769 Y101.336 E3.16547
G1 X111.763 Y98.239 E3.21866
G1 X111.423 Y95.000 E3.27185
G1 X111.763 Y91.761 E3.32504
G1 X112.769 Y88.664 E3.37823
G1 X114.398 Y85.844 E3.43142
G1 X116.577 Y83.424 E3.48461
G1 X119.211 Y81.510 E3.53780
G1 X122.186 Y80.185 E3.59099
G1 X125.372 Y79.508 E3.64418
G1 X128.628 Y79.508 E3.69737
G1 X131.814 Y80.185 E3.75056
G1 X134.789 Y81.510 E3.80375
G1 X137.423 Y83.424 E3.85694
G1 X139.602 Y85.844 E3.91013
G1 X141.231 Y88.664 E3.96332
G1 X142.237 Y91.761 E4.01651
G1 X142.577 Y95.000 E4.06970
