; generated by Slic3r 0.8.2 on 2014-06-05 at 00:04:43

; layer_height = 0.25
; perimeters = 3
; solid_layers = 3
; fill_density = 0.4
; nozzle_diameter = 0.35
; filament_diameter = 3
; extrusion_multiplier = 1
; perimeter_speed = 60
; infill_speed = 80
; travel_speed = 150
; extrusion_width_ratio = 0
; scale = 1
; single wall width = 0.39mm

M107
G28 ; home all axes
G90 ; use absolute coordinates
G21 ; set units to millimeters
G92 E0 ; reset extrusion distance
M82 ; use absolute distances for extrusion
G1 Z0.800 F9000.000
G1 X77.860 Y78.040
G1 F1800.000 E1.00000
G1 X78.040 Y77.860 F1080.000 E1.00416
G1 X78.420 Y77.520 E1.01249
G1 X79.040 Y77.080 E1.02490
G1 X79.260 Y76.950 E1.02908
G1 X79.720 Y76.720 E1.03748
G1 X80.190 Y76.530 E1.04576
G1 X80.680 Y76.380 E1.05413
G1 X80.930 Y76.320 E1.05833
G1 X81.680 Y76.210 E1.07071
G1 X82.190 Y76.190 E1.07904
G1 X108.310 Y76.210 E1.50567
G1 X109.060 Y76.320 E1.51805
G1 X109.560 Y76.450 E1.52649
G1 X110.040 Y76.620 E1.53481
G1 X110.500 Y76.830 E1.54307
G1 X110.730 Y76.950 E1.54730
G1 X110.950 Y77.080 E1.55148
G1 X111.570 Y77.520 E1.56390
G1 X111.950 Y77.860 E1.57222
G1 X112.130 Y78.040 E1.57638
G1 X112.470 Y78.420 E1.58471
G1 X112.910 Y79.040 E1.59713
G1 X113.040 Y79.260 E1.60130
G1 X113.270 Y79.720 E1.60970
G1 X113.460 Y80.190 E1.61798
G1 X113.610 Y80.680 E1.62635
G1 X113.670 Y80.930 E1.63055
G1 X113.780 Y81.680 E1.64293
G1 X113.780 Y108.310 E2.07789
G1 X113.670 Y109.060 E2.09027
G1 X113.540 Y109.560 E2.09871
G1 X113.370 Y110.040 E2.10703
G1 X113.160 Y110.500 E2.11528
G1 X113.040 Y110.730 E2.11952
G1 X112.910 Y110.950 E2.12370
G1 X112.470 Y111.570 E2.13611
G1 X112.130 Y111.950 E2.14444
G1 X111.950 Y112.130 E2.14860
G1 X111.570 Y112.470 E2.15693
G1 X110.950 Y112.910 E2.16935
G1 X110.730 Y113.040 E2.17352
G1 X110.270 Y113.270 E2.18192
G1 X109.800 Y113.460 E2.19020
G1 X109.310 Y113.610 E2.19857
G1 X109.060 Y113.670 E2.20277
G1 X108.310 Y113.780 E2.21515
G1 X107.800 Y113.800 E2.22349
G1 X81.680 Y113.780 E2.65011
G1 X80.930 Y113.670 E2.66249
G1 X80.430 Y113.540 E2.67093
G1 X79.950 Y113.370 E2.67925
G1 X79.490 Y113.160 E2.68751
G1 X79.260 Y113.040 E2.69175
G1 X79.040 Y112.910 E2.69592
G1 X78.420 Y112.470 E2.70834
G1 X78.040 Y112.130 E2.71667
G1 X77.860 Y111.950 E2.72082
G1 X77.520 Y111.570 E2.72915
G1 X77.080 Y110.950 E2.74157
G1 X76.950 Y110.730 E2.74574
G1 X76.720 Y110.270 E2.75414
G1 X76.530 Y109.800 E2.76242
G1 X76.380 Y109.310 E2.77079
G1 X76.320 Y109.060 E2.77499
G1 X76.210 Y108.310 E2.78737
G1 X76.210 Y81.680 E3.22233
G1 X76.320 Y80.930 E3.23471
G1 X76.450 Y80.430 E3.24315
G1 X76.620 Y79.950 E3.25147
G1 X76.830 Y79.490 E3.25973
G1 X76.950 Y79.260 E3.26396
G1 X77.080 Y79.040 E3.26814
G1 X77.520 Y78.420 E3.28056
G1 X77.821 Y78.084 E3.28792
G1 F1800.000 E2.28792
G92 E0
G1 X82.951 Y98.951 F9000.000
G1 F1800.000 E1.00000
G1 X91.049 Y98.951 F720.000 E1.13227
G1 X91.049 Y107.049 E1.26453
G1 X82.951 Y107.049 E1.39680
G1 X82.951 Y99.010 E1.52809
G1 X82.574 Y98.574 F9000.000
G1 X91.426 Y98.574 F720.000 E1.67267
G1 X91.426 Y107.426 E1.81725
G1 X82.574 Y107.426 E1.96183
G1 X82.574 Y98.633 E2.10544
G1 X82.197 Y98.197 F9000.000
G1 X91.803 Y98.197 F720.000 E2.26233
G1 X91.803 Y107.803 E2.41923
G1 X82.197 Y107.803 E2.57612
G1 X82.197 Y98.256 E2.73204
G1 X83.216 Y99.488 F9000.000
G1 X90.512 Y106.784 F1260.000 E2.90587
G1 X90.784 Y106.512 F9000.000
G1 X83.488 Y99.216 F1260.000 E3.07969
G1 X84.032 Y99.216 F9000.000
G1 X90.784 Y105.968 F1260.000 E3.24056
G1 X90.784 Y105.424 F9000.000
G1 X84.576 Y99.216 F1260.000 E3.38846
G1 X85.120 Y99.216 F9000.000
G1 X90.784 Y104.880 F1260.000 E3.52339
G1 X90.784 Y104.336 F9000.000
G1 X85.664 Y99.216 F1260.000 E3.64537
G1 X86.208 Y99.216 F9000.000
G1 X90.784 Y103.792 F1260.000 E3.75439
G1 X90.784 Y103.248 F9000.000
G1 X86.752 Y99.216 F1260.000 E3.85044
G1 X87.296 Y99.216 F9000.000
G1 X90.784 Y102.704 F1260.000 E3.93353
G1 X90.784 Y102.160 F9000.000
G1 X87.840 Y99.216 F1260.000 E4.00366
G1 X88.384 Y99.216 F9000.000
G1 X90.784 Y101.616 F1260.000 E4.06083
G1 X90.784 Y101.072 F9000.000
G1 X88.928 Y99.216 F1260.000 E4.10503
G1 X89.472 Y99.216 F9000.000
G1 X90.784 Y100.528 F1260.000 E4.13627
G1 X90.784 Y99.984 F9000.000
G1 X90.016 Y99.216 F1260.000 E4.15456
G1 X90.560 Y99.216 F9000.000
G1 X90.784 Y99.440 F1260.000 E4.15987
G1 F1800.000 E3.15987
G92 E0
G1 X89.968 Y106.784 F9000.000
G1 F1800.000 E1.00000
G1 X83.216 Y100.032 F1260.000 E1.16086
G1 X83.216 Y100.576 F9000.000
G1 X89.424 Y106.784 F1260.000 E1.30877
G1 X88.880 Y106.784 F9000.000
G1 X83.216 Y101.120 F1260.000 E1.44370
G1 X83.216 Y101.664 F9000.000
G1 X88.336 Y106.784 F1260.000 E1.56568
G1 X87.792 Y106.784 F9000.000
G1 X83.216 Y102.208 F1260.000 E1.67470
G1 X83.216 Y102.752 F9000.000
G1 X87.248 Y106.784 F1260.000 E1.77075
G1 X86.704 Y106.784 F9000.000
G1 X83.216 Y103.296 F1260.000 E1.85384
G1 X83.216 Y103.840 F9000.000
G1 X86.160 Y106.784 F1260.000 E1.92398
G1 X85.616 Y106.784 F9000.000
G1 X83.216 Y104.384 F1260.000 E1.98114
G1 X83.216 Y104.928 F9000.000
G1 X85.072 Y106.784 F1260.000 E2.02535
G1 X84.528 Y106.784 F9000.000
G1 X83.216 Y105.472 F1260.000 E2.05659
G1 X83.216 Y106.016 F9000.000
G1 X83.984 Y106.784 F1260.000 E2.07488
G1 X83.440 Y106.784 F9000.000
G1 X83.216 Y106.560 F1260.000 E2.08020
G1 F1800.000 E1.08020
G92 E0
G1 X98.951 Y91.049 F9000.000
G1 F1800.000 E1.00000
G1 X98.951 Y82.951 F720.000 E1.13227
G1 X107.049 Y82.951 E1.26453
G1 X107.049 Y91.049 E1.39680
G1 X99.010 Y91.049 E1.52809
G1 X98.574 Y91.426 F9000.000
G1 X98.574 Y82.574 F720.000 E1.67267
G1 X107.426 Y82.574 E1.81725
G1 X107.426 Y91.426 E1.96183
G1 X98.633 Y91.426 E2.10544
G1 X98.197 Y91.803 F9000.000
G1 X98.197 Y82.197 F720.000 E2.26233
G1 X107.803 Y82.197 E2.41923
G1 X107.803 Y91.803 E2.57612
G1 X98.256 Y91.803 E2.73204
G1 X99.440 Y90.784 F9000.000
G1 X99.216 Y90.560 F1260.000 E2.73736
G1 X99.216 Y90.016 F9000.000
G1 X99.984 Y90.784 F1260.000 E2.75565
G1 X100.528 Y90.784 F9000.000
G1 X99.216 Y89.472 F1260.000 E2.78689
G1 X99.216 Y88.928 F9000.000
G1 X101.072 Y90.784 F1260.000 E2.83110
G1 X101.616 Y90.784 F9000.000
G1 X99.216 Y88.384 F1260.000 E2.88826
G1 X99.216 Y87.840 F9000.000
G1 X102.160 Y90.784 F1260.000 E2.95840
G1 X102.704 Y90.784 F9000.000
G1 X99.216 Y87.296 F1260.000 E3.04149
G1 X99.216 Y86.752 F9000.000
G1 X103.248 Y90.784 F1260.000 E3.13754
G1 X103.792 Y90.784 F9000.000
G1 X99.216 Y86.208 F1260.000 E3.24656
G1 X99.216 Y85.664 F9000.000
G1 X104.336 Y90.784 F1260.000 E3.36854
G1 X104.880 Y90.784 F9000.000
G1 X99.216 Y85.120 F1260.000 E3.50347
G1 X99.216 Y84.576 F9000.000
G1 X105.424 Y90.784 F1260.000 E3.65138
G1 X105.968 Y90.784 F9000.000
G1 X99.216 Y84.032 F1260.000 E3.81224
G1 X99.216 Y83.488 F9000.000
G1 X106.512 Y90.784 F1260.000 E3.98606
G1 X106.784 Y90.512 F9000.000
G1 X99.488 Y83.216 F1260.000 E4.15989
G1 X100.032 Y83.216 F9000.000
G1 X106.784 Y89.968 F1260.000 E4.32075
G1 X106.784 Y89.424 F9000.000
G1 X100.576 Y83.216 F1260.000 E4.46865
G1 X101.120 Y83.216 F9000.000
G1 X106.784 Y88.880 F1260.000 E4.60359
G1 X106.784 Y88.336 F9000.000
G1 X101.664 Y83.216 F1260.000 E4.72557
G1 X102.208 Y83.216 F9000.000
G1 X106.784 Y87.792 F1260.000 E4.83458
G1 X106.784 Y87.248 F9000.000
G1 X102.752 Y83.216 F1260.000 E4.93064
G1 X103.296 Y83.216 F9000.000
G1 X106.784 Y86.704 F1260.000 E5.01373
G1 X106.784 Y86.160 F9000.000
G1 X103.840 Y83.216 F1260.000 E5.08385
G1 X104.384 Y83.216 F9000.000
G1 X106.784 Y85.616 F1260.000 E5.14102
G1 X106.784 Y85.072 F9000.000
G1 X104.928 Y83.216 F1260.000 E5.18523
G1 X105.472 Y83.216 F9000.000
G1 X106.784 Y84.528 F1260.000 E5.21647
G1 X106.784 Y83.984 F9000.000
G1 X106.016 Y83.216 F1260.000 E5.23475
G1 X106.560 Y83.216 F9000.000
G1 X106.784 Y83.440 F1260.000 E5.24007
G1 F1800.000 E4.24007
G92 E0
G1 X107.049 Y98.951 F9000.000
G1 F1800.000 E1.00000
G1 X107.049 Y107.049 F720.000 E1.13227
G1 X98.951 Y107.049 E1.26453
G1 X98.951 Y98.951 E1.39680
G1 X106.990 Y98.951 E1.52809
G1 X107.426 Y98.574 F9000.000
G1 X107.426 Y107.426 F720.000 E1.67267
G1 X98.574 Y107.426 E1.81725
G1 X98.574 Y98.574 E1.96183
G1 X107.367 Y98.574 E2.10544
G1 X107.803 Y98.197 F9000.000
G1 X107.803 Y107.803 F720.000 E2.26233
G1 X98.197 Y107.803 E2.41923
G1 X98.197 Y98.197 E2.57612
G1 X107.744 Y98.197 E2.73204
G1 X106.560 Y99.216 F9000.000
G1 X106.784 Y99.440 F1260.000 E2.73736
G1 X106.784 Y99.984 F9000.000
G1 X106.016 Y99.216 F1260.000 E2.75564
G1 X105.472 Y99.216 F9000.000
G1 X106.784 Y100.528 F1260.000 E2.78689
G1 X106.784 Y101.072 F9000.000
G1 X104.928 Y99.216 F1260.000 E2.83109
G1 X104.384 Y99.216 F9000.000
G1 X106.784 Y101.616 F1260.000 E2.88826
G1 X106.784 Y102.160 F9000.000
G1 X103.840 Y99.216 F1260.000 E2.95839
G1 X103.296 Y99.216 F9000.000
G1 X106.784 Y102.704 F1260.000 E3.04148
G1 X106.784 Y103.248 F9000.000
G1 X102.752 Y99.216 F1260.000 E3.13753
G1 X102.208 Y99.216 F9000.000
G1 X106.784 Y103.792 F1260.000 E3.24655
G1 X106.784 Y104.336 F9000.000
G1 X101.664 Y99.216 F1260.000 E3.36852
G1 X101.120 Y99.216 F9000.000
G1 X106.784 Y104.880 F1260.000 E3.50346
G1 X106.784 Y105.424 F9000.000
G1 X100.576 Y99.216 F1260.000 E3.65136
G1 X100.032 Y99.216 F9000.000
G1 X106.784 Y105.968 F1260.000 E3.81222
G1 X106.784 Y106.512 F9000.000
G1 X99.488 Y99.216 F1260.000 E3.98605
G1 X99.216 Y99.488 F9000.000
G1 X106.512 Y106.784 F1260.000 E4.15987
G1 X105.968 Y106.784 F9000.000
G1 X99.216 Y100.032 F1260.000 E4.32074
G1 X99.216 Y100.576 F9000.000
G1 X105.424 Y106.784 F1260.000 E4.46864
G1 X104.880 Y106.784 F9000.000
G1 X99.216 Y101.120 F1260.000 E4.60358
G1 X99.216 Y101.664 F9000.000
G1 X104.336 Y106.784 F1260.000 E4.72556
G1 X103.792 Y106.784 F9000.000
G1 X99.216 Y102.208 F1260.000 E4.83457
G1 X99.216 Y102.752 F9000.000
G1 X103.248 Y106.784 F1260.000 E4.93063
G1 X102.704 Y106.784 F9000.000
G1 X99.216 Y103.296 F1260.000 E5.01372
G1 X99.216 Y103.840 F9000.000
G1 X102.160 Y106.784 F1260.000 E5.08385
G1 X101.616 Y106.784 F9000.000
G1 X99.216 Y104.384 F1260.000 E5.14102
G1 X99.216 Y104.928 F9000.000
G1 X101.072 Y106.784 F1260.000 E5.18522
G1 X100.528 Y106.784 F9000.000
G1 X99.216 Y105.472 F1260.000 E5.21647
G1 X99.216 Y106.016 F9000.000
G1 X99.984 Y106.784 F1260.000 E5.23475
G1 X99.440 Y106.784 F9000.000
G1 X99.216 Y106.560 F1260.000 E5.24007
G1 F1800.000 E4.24007
G92 E0
G1 X82.951 Y91.049 F9000.000
G1 F1800.000 E1.00000
G1 X82.951 Y82.951 F720.000 E1.13227
G1 X91.049 Y82.951 E1.26453
G1 X91.049 Y91.049 E1.39680
G1 X83.010 Y91.049 E1.52809
G1 X82.574 Y91.426 F9000.000
G1 X82.574 Y82.574 F720.000 E1.67267
G1 X91.426 Y82.574 E1.81725
G1 X91.426 Y91.426 E1.96183
G1 X82.633 Y91.426 E2.10544
G1 X82.197 Y91.803 F9000.000
G1 X82.197 Y82.197 F720.000 E2.26233
G1 X91.803 Y82.197 E2.41923
G1 X91.803 Y91.803 E2.57612
G1 X82.256 Y91.803 E2.73204
G1 X83.440 Y90.784 F9000.000
G1 X83.216 Y90.560 F1260.000 E2.73736
G1 X83.216 Y90.016 F9000.000
G1 X83.984 Y90.784 F1260.000 E2.75565
G1 X84.528 Y90.784 F9000.000
G1 X83.216 Y89.472 F1260.000 E2.78689
G1 X83.216 Y88.928 F9000.000
G1 X85.072 Y90.784 F1260.000 E2.83110
G1 X85.616 Y90.784 F9000.000
G1 X83.216 Y88.384 F1260.000 E2.88826
G1 X83.216 Y87.840 F9000.000
G1 X86.160 Y90.784 F1260.000 E2.95840
G1 X86.704 Y90.784 F9000.000
G1 X83.216 Y87.296 F1260.000 E3.04149
G1 X83.216 Y86.752 F9000.000
G1 X87.248 Y90.784 F1260.000 E3.13754
G1 X87.792 Y90.784 F9000.000
G1 X83.216 Y86.208 F1260.000 E3.24656
G1 X83.216 Y85.664 F9000.000
G1 X88.336 Y90.784 F1260.000 E3.36854
G1 X88.880 Y90.784 F9000.000
G1 X83.216 Y85.120 F1260.000 E3.50347
G1 X83.216 Y84.576 F9000.000
G1 X89.424 Y90.784 F1260.000 E3.65138
G1 X89.968 Y90.784 F9000.000
G1 X83.216 Y84.032 F1260.000 E3.81224
G1 X83.216 Y83.488 F9000.000
G1 X90.512 Y90.784 F1260.000 E3.98606
G1 X90.784 Y90.512 F9000.000
G1 X83.488 Y83.216 F1260.000 E4.15989
G1 X84.032 Y83.216 F9000.000
G1 X90.784 Y89.968 F1260.000 E4.32075
G1 X90.784 Y89.424 F9000.000
G1 X84.576 Y83.216 F1260.000 E4.46865
G1 X85.120 Y83.216 F9000.000
G1 X90.784 Y88.880 F1260.000 E4.60359
G1 X90.784 Y88.336 F9000.000
G1 X85.664 Y83.216 F1260.000 E4.72557
G1 X86.208 Y83.216 F9000.000
G1 X90.784 Y87.792 F1260.000 E4.83458
G1 X90.784 Y87.248 F9000.000
G1 X86.752 Y83.216 F1260.000 E4.93064
G1 X87.296 Y83.216 F9000.000
G1 X90.784 Y86.704 F1260.000 E5.01373
G1 X90.784 Y86.160 F9000.000
G1 X87.840 Y83.216 F1260.000 E5.08385
G1 X88.384 Y83.216 F9000.000
G1 X90.784 Y85.616 F1260.000 E5.14102
G1 X90.784 Y85.072 F9000.000
G1 X88.928 Y83.216 F1260.000 E5.18523
G1 X89.472 Y83.216 F9000.000
G1 X90.784 Y84.528 F1260.000 E5.21647
G1 X90.784 Y83.984 F9000.000
G1 X90.016 Y83.216 F1260.000 E5.23475
G1 X90.560 Y83.216 F9000.000
G1 X90.784 Y83.440 F1260.000 E5.24007
M106 S255
G1 F1800.000 E4.24007
G92 E0
G1 Z1.050 F9000.000
G1 X91.049 Y98.951
G1 F1800.000 E1.00000
G1 X91.049 Y107.049 F1528.850 E1.11022
G1 X82.951 Y107.049 E1.22044
G1 X82.951 Y98.951 E1.33066
G1 X90.990 Y98.951 E1.44008
G1 X91.426 Y98.574 F9000.000
G1 X91.426 Y107.426 F1528.850 E1.56056
G1 X82.574 Y107.426 E1.68104
G1 X82.574 Y98.574 E1.80152
G1 X91.367 Y98.574 E1.92120
G1 X91.803 Y98.197 F9000.000
G1 X91.803 Y107.803 F1528.850 E2.05194
G1 X82.197 Y107.803 E2.18269
G1 X82.197 Y98.197 E2.31343
G1 X91.744 Y98.197 E2.44337
G1 X90.512 Y99.216 F9000.000
G1 X83.216 Y106.512 F2675.487 E2.58822
G1 X83.488 Y106.784 F9000.000
G1 X90.784 Y99.488 F2675.487 E2.73308
G1 X90.784 Y100.032 F9000.000
G1 X84.032 Y106.784 F2675.487 E2.86713
G1 X84.576 Y106.784 F9000.000
G1 X90.784 Y100.576 F2675.487 E2.99038
G1 X90.784 Y101.120 F9000.000
G1 X85.120 Y106.784 F2675.487 E3.10283
G1 X85.664 Y106.784 F9000.000
G1 X90.784 Y101.664 F2675.487 E3.20448
G1 X90.784 Y102.208 F9000.000
G1 X86.208 Y106.784 F2675.487 E3.29532
G1 X86.752 Y106.784 F9000.000
G1 X90.784 Y102.752 F2675.487 E3.37537
G1 X90.784 Y103.296 F9000.000
G1 X87.296 Y106.784 F2675.487 E3.44461
G1 X87.840 Y106.784 F9000.000
G1 X90.784 Y103.840 F2675.487 E3.50305
G1 X90.784 Y104.384 F9000.000
G1 X88.384 Y106.784 F2675.487 E3.55069
G1 X88.928 Y106.784 F9000.000
G1 X90.784 Y104.928 F2675.487 E3.58753
G1 X90.784 Y105.472 F9000.000
G1 X89.472 Y106.784 F2675.487 E3.61357
G1 X90.016 Y106.784 F9000.000
G1 X90.784 Y106.016 F2675.487 E3.62880
G1 X90.784 Y106.560 F9000.000
G1 X90.560 Y106.784 F2675.487 E3.63323
G1 F1800.000 E2.63323
G92 E0
G1 X83.216 Y105.968 F9000.000
G1 F1800.000 E1.00000
G1 X89.968 Y99.216 F2675.487 E1.13405
G1 X89.424 Y99.216 F9000.000
G1 X83.216 Y105.424 F2675.487 E1.25730
G1 X83.216 Y104.880 F9000.000
G1 X88.880 Y99.216 F2675.487 E1.36975
G1 X88.336 Y99.216 F9000.000
G1 X83.216 Y104.336 F2675.487 E1.47140
G1 X83.216 Y103.792 F9000.000
G1 X87.792 Y99.216 F2675.487 E1.56225
G1 X87.248 Y99.216 F9000.000
G1 X83.216 Y103.248 F2675.487 E1.64229
G1 X83.216 Y102.704 F9000.000
G1 X86.704 Y99.216 F2675.487 E1.71153
G1 X86.160 Y99.216 F9000.000
G1 X83.216 Y102.160 F2675.487 E1.76997
G1 X83.216 Y101.616 F9000.000
G1 X85.616 Y99.216 F2675.487 E1.81761
G1 X85.072 Y99.216 F9000.000
G1 X83.216 Y101.072 F2675.487 E1.85445
G1 X83.216 Y100.528 F9000.000
G1 X84.528 Y99.216 F2675.487 E1.88049
G1 X83.984 Y99.216 F9000.000
G1 X83.216 Y99.984 F2675.487 E1.89572
G1 X83.216 Y99.440 F9000.000
G1 X83.440 Y99.216 F2675.487 E1.90016
G1 F1800.000 E0.90016
G92 E0
G1 X98.951 Y82.951 F9000.000
G1 F1800.000 E1.00000
G1 X107.049 Y82.951 F1528.850 E1.11022
G1 X107.049 Y91.049 E1.22044
G1 X98.951 Y91.049 E1.33066
G1 X98.951 Y83.010 E1.44008
G1 X98.574 Y82.574 F9000.000
G1 X107.426 Y82.574 F1528.850 E1.56056
G1 X107.426 Y91.426 E1.68104
G1 X98.574 Y91.426 E1.80152
G1 X98.574 Y82.633 E1.92120
G1 X98.197 Y82.197 F9000.000
G1 X107.803 Y82.197 F1528.850 E2.05194
G1 X107.803 Y91.803 E2.18269
G1 X98.197 Y91.803 E2.31343
G1 X98.197 Y82.256 E2.44337
G1 X99.216 Y83.440 F9000.000
G1 X99.440 Y83.216 F2675.487 E2.44780
G1 X99.984 Y83.216 F9000.000
G1 X99.216 Y83.984 F2675.487 E2.46304
G1 X99.216 Y84.528 F9000.000
G1 X100.528 Y83.216 F2675.487 E2.48907
G1 X101.072 Y83.216 F9000.000
G1 X99.216 Y85.072 F2675.487 E2.52591
G1 X99.216 Y85.616 F9000.000
G1 X101.616 Y83.216 F2675.487 E2.57355
G1 X102.160 Y83.216 F9000.000
G1 X99.216 Y86.160 F2675.487 E2.63199
G1 X99.216 Y86.704 F9000.000
G1 X102.704 Y83.216 F2675.487 E2.70124
G1 X103.248 Y83.216 F9000.000
