; generated by Slic3r 0.8.2 on 2014-05-26 at 22:47:32

; layer_height = 0.25
; perimeters = 3
; solid_layers = 3
; fill_density = 0.5
; nozzle_diameter = 0.35
; filament_diameter = 3
; extrusion_multiplier = 1
; perimeter_speed = 60
; infill_speed = 80
; travel_speed = 150
; extrusion_width_ratio = 0
; scale = 1
; single wall width = 0.39mm

M107
G28 ; home all axes
G90 ; use absolute coordinates
G21 ; set units to millimeters
G92 E0 ; reset extrusion distance
M82 ; use absolute distances for extrusion
G1 Z1.100 F9000.000
G1 X78.510 Y79.250
G1 F1800.000 E1.00000
G1 X79.510 Y78.260 F1080.000 E1.02298
G1 X80.610 Y77.300 E1.04683
G1 X81.750 Y76.430 E1.07025
G1 X83.840 Y75.110 E1.11063
G1 X85.460 Y74.280 E1.14036
G1 X87.750 Y73.370 E1.18061
G1 X89.510 Y72.860 E1.21054
G1 X91.920 Y72.400 E1.25061
G1 X93.710 Y72.230 E1.27998
G1 X94.750 Y72.190 E1.29698
G1 X96.560 Y72.250 E1.32656
G1 X98.070 Y72.400 E1.35134
G1 X99.450 Y72.630 E1.37419
G1 X101.830 Y73.240 E1.41432
G1 X103.560 Y73.860 E1.44434
G1 X105.820 Y74.930 E1.48518
G1 X107.370 Y75.840 E1.51454
G1 X108.540 Y76.650 E1.53778
G1 X109.690 Y77.560 E1.56173
G1 X111.730 Y79.510 E1.60783
G1 X112.690 Y80.610 E1.63167
G1 X113.560 Y81.750 E1.65510
G1 X114.880 Y83.840 E1.69547
G1 X115.710 Y85.460 E1.72520
G1 X116.620 Y87.750 E1.76545
G1 X117.130 Y89.510 E1.79538
G1 X117.590 Y91.920 E1.83545
G1 X117.760 Y93.710 E1.86482
G1 X117.800 Y95.220 E1.88949
G1 X117.650 Y97.610 E1.92861
G1 X117.360 Y99.450 E1.95903
G1 X116.750 Y101.830 E1.99916
G1 X116.130 Y103.560 E2.02918
G1 X115.060 Y105.820 E2.07002
G1 X114.150 Y107.370 E2.09938
G1 X113.340 Y108.540 E2.12262
G1 X112.430 Y109.690 E2.14657
G1 X110.480 Y111.730 E2.19267
G1 X109.380 Y112.690 E2.21651
G1 X108.240 Y113.560 E2.23994
G1 X106.150 Y114.880 E2.28031
G1 X104.530 Y115.710 E2.31004
G1 X102.240 Y116.620 E2.35029
G1 X100.480 Y117.130 E2.38022
G1 X98.070 Y117.590 E2.42029
G1 X96.200 Y117.770 E2.45098
G1 X95.160 Y117.800 E2.46797
G1 X92.380 Y117.650 E2.51344
G1 X90.540 Y117.360 E2.54387
G1 X88.160 Y116.750 E2.58400
G1 X86.430 Y116.130 E2.61402
G1 X84.170 Y115.060 E2.65486
G1 X82.620 Y114.150 E2.68421
G1 X81.450 Y113.340 E2.70746
G1 X80.300 Y112.430 E2.73141
G1 X78.260 Y110.480 E2.77750
G1 X77.300 Y109.380 E2.80135
G1 X76.430 Y108.240 E2.82477
G1 X75.110 Y106.150 E2.86515
G1 X74.280 Y104.530 E2.89488
G1 X73.370 Y102.240 E2.93513
G1 X72.860 Y100.480 E2.96506
G1 X72.400 Y98.070 E3.00513
G1 X72.230 Y96.280 E3.03450
G1 X72.190 Y94.760 E3.05933
G1 X72.340 Y92.380 E3.09828
G1 X72.630 Y90.540 E3.12871
G1 X73.240 Y88.160 E3.16884
G1 X73.860 Y86.430 E3.19885
G1 X74.930 Y84.170 E3.23970
G1 X75.840 Y82.620 E3.26905
G1 X76.650 Y81.450 E3.29230
G1 X77.560 Y80.300 E3.31625
G1 X78.469 Y79.293 E3.33841
G1 F1800.000 E2.33841
G92 E0
G1 X85.559 Y86.134 F9000.000
G1 F1800.000 E1.00000
G1 X86.134 Y85.559 F1080.000 E1.01329
G1 X86.744 Y85.021 E1.02658
G1 X87.387 Y84.522 E1.03987
G1 X88.060 Y84.065 E1.05316
G1 X88.761 Y83.650 E1.06645
G1 X89.486 Y83.281 E1.07974
G1 X90.232 Y82.958 E1.09302
G1 X90.998 Y82.682 E1.10631
G1 X91.781 Y82.455 E1.11964
G1 X93.190 Y82.147 E1.14320
G1 X94.175 Y83.382 E1.16899
G1 X94.635 Y84.060 E1.18239
G1 X95.050 Y84.761 E1.19567
G1 X95.419 Y85.486 E1.20896
G1 X95.742 Y86.232 E1.22225
G1 X96.018 Y86.998 E1.23554
G1 X96.245 Y87.779 E1.24883
G1 X96.422 Y88.573 E1.26212
G1 X96.549 Y89.377 E1.27541
G1 X96.645 Y90.388 E1.29200
G1 X95.569 Y90.937 E1.31174
G1 X94.701 Y91.450 E1.32820
G1 X93.867 Y92.017 E1.34467
G1 X93.070 Y92.634 E1.36114
G1 X92.314 Y93.301 E1.37761
G1 X91.601 Y94.014 E1.39407
G1 X90.934 Y94.770 E1.41054
G1 X90.317 Y95.567 E1.42701
G1 X89.750 Y96.401 E1.44347
G1 X89.237 Y97.269 E1.45994
G1 X88.779 Y98.167 E1.47641
G1 X88.379 Y99.092 E1.49287
G1 X88.037 Y100.041 E1.50934
G1 X87.756 Y101.009 E1.52581
G1 X87.536 Y101.993 E1.54228
G1 X87.378 Y102.989 E1.55874
G1 X87.267 Y104.166 E1.57805
G1 X86.232 Y104.538 E1.59603
G1 X85.024 Y103.260 E1.62474
G1 X84.522 Y102.613 E1.63813
G1 X84.065 Y101.940 E1.65142
G1 X83.650 Y101.239 E1.66471
G1 X83.281 Y100.514 E1.67800
G1 X82.958 Y99.768 E1.69129
G1 X82.682 Y99.002 E1.70458
G1 X82.455 Y98.221 E1.71787
G1 X82.278 Y97.427 E1.73115
G1 X82.151 Y96.623 E1.74444
G1 X82.074 Y95.813 E1.75773
G1 X82.048 Y95.000 E1.77102
G1 X82.074 Y94.187 E1.78431
G1 X82.151 Y93.377 E1.79760
G1 X82.278 Y92.573 E1.81089
G1 X82.455 Y91.779 E1.82418
G1 X82.682 Y90.998 E1.83747
G1 X82.958 Y90.232 E1.85076
G1 X83.281 Y89.486 E1.86405
G1 X83.650 Y88.761 E1.87734
G1 X84.065 Y88.060 E1.89063
G1 X84.515 Y87.397 E1.90372
G1 X85.020 Y86.745 E1.91720
G1 X85.520 Y86.178 E1.92953
G1 X85.834 Y86.392 F9000.000
G1 X86.392 Y85.834 F1080.000 E1.94243
G1 X86.985 Y85.311 E1.95533
G1 X87.609 Y84.827 E1.96824
G1 X88.262 Y84.383 E1.98114
G1 X88.942 Y83.981 E1.99404
G1 X89.646 Y83.622 E2.00694
G1 X90.371 Y83.309 E2.01984
G1 X91.114 Y83.041 E2.03275
G1 X91.874 Y82.820 E2.04567
G1 X93.042 Y82.565 E2.06519
G1 X93.871 Y83.606 E2.08692
G1 X94.317 Y84.262 E2.09989
G1 X94.719 Y84.942 E2.11279
G1 X95.078 Y85.646 E2.12569
G1 X95.391 Y86.371 E2.13859
G1 X95.659 Y87.114 E2.15150
G1 X95.879 Y87.873 E2.16440
G1 X96.052 Y88.644 E2.17730
G1 X96.175 Y89.424 E2.19020
G1 X96.246 Y90.169 E2.20242
G1 X95.387 Y90.606 E2.21816
G1 X94.499 Y91.131 E2.23501
G1 X93.645 Y91.711 E2.25187
G1 X92.830 Y92.344 E2.26872
G1 X92.056 Y93.026 E2.28558
G1 X91.326 Y93.756 E2.30243
G1 X90.644 Y94.530 E2.31928
G1 X90.011 Y95.345 E2.33614
G1 X89.431 Y96.199 E2.35299
G1 X88.906 Y97.087 E2.36985
G1 X88.438 Y98.006 E2.38670
G1 X88.028 Y98.953 E2.40356
G1 X87.678 Y99.924 E2.42041
G1 X87.390 Y100.915 E2.43726
G1 X87.165 Y101.922 E2.45412
G1 X87.004 Y102.941 E2.47097
G1 X86.914 Y103.892 E2.48657
G1 X86.329 Y104.103 E2.49673
G1 X85.313 Y103.018 E2.52100
G1 X84.827 Y102.391 E2.53396
G1 X84.383 Y101.738 E2.54686
G1 X83.981 Y101.058 E2.55976
G1 X83.622 Y100.354 E2.57266
G1 X83.309 Y99.629 E2.58557
G1 X83.041 Y98.886 E2.59847
G1 X82.821 Y98.127 E2.61137
G1 X82.648 Y97.356 E2.62427
G1 X82.525 Y96.576 E2.63718
G1 X82.450 Y95.790 E2.65008
G1 X82.426 Y95.000 E2.66298
G1 X82.450 Y94.210 E2.67588
G1 X82.525 Y93.424 E2.68879
G1 X82.648 Y92.644 E2.70169
G1 X82.821 Y91.873 E2.71459
G1 X83.041 Y91.114 E2.72749
G1 X83.309 Y90.371 E2.74040
G1 X83.622 Y89.646 E2.75330
G1 X83.981 Y88.942 E2.76620
G1 X84.383 Y88.262 E2.77910
G1 X84.821 Y87.619 E2.79182
G1 X85.311 Y86.985 E2.80490
G1 X85.795 Y86.437 E2.81684
G1 X86.109 Y86.650 F9000.000
G1 X86.650 Y86.109 F1080.000 E2.82936
G1 X87.225 Y85.602 E2.84187
G1 X87.831 Y85.132 E2.85439
G1 X88.464 Y84.702 E2.86691
G1 X89.124 Y84.311 E2.87942
G1 X89.807 Y83.964 E2.89194
G1 X90.510 Y83.659 E2.90445
G1 X91.231 Y83.400 E2.91697
G1 X91.967 Y83.186 E2.92949
G1 X92.893 Y82.984 E2.94497
G1 X93.567 Y83.830 E2.96264
G1 X93.998 Y84.464 E2.97517
G1 X94.389 Y85.124 E2.98769
G1 X94.736 Y85.807 E3.00020
G1 X95.041 Y86.510 E3.01272
G1 X95.300 Y87.231 E3.02524
G1 X95.514 Y87.967 E3.03775
G1 X95.681 Y88.714 E3.05027
G1 X95.801 Y89.471 E3.06278
G1 X95.846 Y89.949 E3.07062
G1 X95.205 Y90.276 E3.08237
G1 X94.297 Y90.813 E3.09961
G1 X93.424 Y91.406 E3.11685
G1 X92.590 Y92.053 E3.13409
G1 X91.798 Y92.751 E3.15134
G1 X91.051 Y93.498 E3.16858
G1 X90.353 Y94.290 E3.18582
G1 X89.706 Y95.124 E3.20306
G1 X89.113 Y95.997 E3.22030
G1 X88.576 Y96.905 E3.23754
G1 X88.096 Y97.846 E3.25478
G1 X87.677 Y98.815 E3.27202
G1 X87.320 Y99.808 E3.28926
G1 X87.025 Y100.821 E3.30650
G1 X86.795 Y101.851 E3.32375
G1 X86.630 Y102.894 E3.34099
G1 X86.561 Y103.618 E3.35287
G1 X86.426 Y103.667 E3.35522
G1 X85.603 Y102.776 E3.37504
G1 X85.132 Y102.169 E3.38757
G1 X84.702 Y101.536 E3.40009
G1 X84.311 Y100.876 E3.41260
G1 X83.964 Y100.193 E3.42512
G1 X83.659 Y99.490 E3.43763
G1 X83.400 Y98.769 E3.45015
G1 X83.186 Y98.033 E3.46267
G1 X83.019 Y97.286 E3.47518
G1 X82.899 Y96.529 E3.48770
G1 X82.827 Y95.766 E3.50021
G1 X82.803 Y95.000 E3.51273
G1 X82.827 Y94.234 E3.52524
G1 X82.899 Y93.471 E3.53776
G1 X83.019 Y92.714 E3.55027
G1 X83.186 Y91.967 E3.56279
G1 X83.400 Y91.231 E3.57530
G1 X83.659 Y90.510 E3.58782
G1 X83.964 Y89.807 E3.60034
G1 X84.311 Y89.124 E3.61285
G1 X84.702 Y88.464 E3.62537
G1 X85.126 Y87.840 E3.63770
G1 X85.602 Y87.225 E3.65040
G1 X86.069 Y86.695 E3.66195
G1 F1800.000 E2.66195
G92 E0
G1 X93.355 Y99.612 F9000.000
G1 F1800.000 E1.00000
G1 X94.431 Y99.063 F1080.000 E1.01973
G1 X95.299 Y98.550 E1.03620
G1 X96.133 Y97.983 E1.05267
G1 X96.930 Y97.366 E1.06913
G1 X97.686 Y96.699 E1.08560
G1 X98.399 Y95.986 E1.10207
G1 X99.066 Y95.230 E1.11853
G1 X99.683 Y94.433 E1.13500
G1 X100.250 Y93.599 E1.15147
G1 X100.763 Y92.731 E1.16794
G1 X101.221 Y91.833 E1.18440
G1 X101.621 Y90.908 E1.20087
G1 X101.963 Y89.959 E1.21734
G1 X102.244 Y88.991 E1.23380
G1 X102.464 Y88.007 E1.25027
G1 X102.622 Y87.011 E1.26674
G1 X102.735 Y85.814 E1.28638
G1 X103.814 Y85.456 E1.30495
G1 X104.976 Y86.740 E1.33323
G1 X105.478 Y87.387 E1.34662
G1 X105.935 Y88.060 E1.35991
G1 X106.344 Y88.750 E1.37301
G1 X106.719 Y89.485 E1.38648
G1 X107.042 Y90.232 E1.39978
G1 X107.318 Y90.998 E1.41307
G1 X107.545 Y91.779 E1.42636
G1 X107.722 Y92.573 E1.43964
G1 X107.849 Y93.377 E1.45293
G1 X107.926 Y94.187 E1.46622
G1 X107.952 Y95.000 E1.47951
G1 X107.926 Y95.813 E1.49280
G1 X107.849 Y96.623 E1.50609
G1 X107.722 Y97.427 E1.51938
G1 X107.545 Y98.221 E1.53267
G1 X107.318 Y99.002 E1.54596
G1 X107.042 Y99.768 E1.55925
G1 X106.719 Y100.514 E1.57254
G1 X106.350 Y101.239 E1.58583
G1 X105.935 Y101.940 E1.59912
G1 X105.478 Y102.613 E1.61241
G1 X104.979 Y103.256 E1.62570
G1 X104.441 Y103.866 E1.63898
G1 X103.866 Y104.441 E1.65227
G1 X103.256 Y104.979 E1.66556
G1 X102.613 Y105.478 E1.67885
G1 X101.940 Y105.935 E1.69214
G1 X101.239 Y106.350 E1.70543
G1 X100.514 Y106.719 E1.71872
G1 X99.768 Y107.042 E1.73201
G1 X99.002 Y107.318 E1.74530
G1 X98.219 Y107.545 E1.75863
G1 X96.841 Y107.846 E1.78166
G1 X95.825 Y106.618 E1.80769
G1 X95.365 Y105.940 E1.82108
G1 X94.950 Y105.239 E1.83437
G1 X94.581 Y104.514 E1.84766
G1 X94.258 Y103.768 E1.86095
G1 X93.982 Y103.002 E1.87424
G1 X93.755 Y102.221 E1.88753
G1 X93.578 Y101.427 E1.90082
G1 X93.451 Y100.623 E1.91411
G1 X93.361 Y99.671 E1.92973
G1 X93.754 Y99.831 F9000.000
G1 X94.613 Y99.394 F1080.000 E1.94547
G1 X95.501 Y98.869 E1.96233
G1 X96.355 Y98.289 E1.97918
G1 X97.170 Y97.656 E1.99604
G1 X97.944 Y96.974 E2.01289
G1 X98.674 Y96.244 E2.02974
G1 X99.356 Y95.470 E2.04660
G1 X99.989 Y94.655 E2.06345
G1 X100.569 Y93.801 E2.08031
G1 X101.094 Y92.913 E2.09716
G1 X101.562 Y91.994 E2.11401
G1 X101.972 Y91.047 E2.13087
G1 X102.322 Y90.076 E2.14772
G1 X102.610 Y89.085 E2.16458
G1 X102.835 Y88.078 E2.18143
G1 X102.996 Y87.059 E2.19828
G1 X103.087 Y86.094 E2.21411
G1 X103.700 Y85.891 E2.22465
G1 X104.687 Y86.982 E2.24867
G1 X105.173 Y87.609 E2.26163
G1 X105.617 Y88.262 E2.27454
G1 X106.013 Y88.932 E2.28725
G1 X106.378 Y89.646 E2.30034
G1 X106.691 Y90.371 E2.31324
G1 X106.959 Y91.114 E2.32615
G1 X107.179 Y91.873 E2.33905
G1 X107.352 Y92.644 E2.35195
G1 X107.475 Y93.424 E2.36485
G1 X107.550 Y94.210 E2.37776
G1 X107.574 Y95.000 E2.39066
G1 X107.550 Y95.790 E2.40356
G1 X107.475 Y96.576 E2.41646
G1 X107.352 Y97.356 E2.42937
G1 X107.179 Y98.127 E2.44227
G1 X106.959 Y98.886 E2.45517
G1 X106.691 Y99.629 E2.46807
G1 X106.378 Y100.354 E2.48098
G1 X106.019 Y101.058 E2.49388
G1 X105.617 Y101.738 E2.50678
G1 X105.173 Y102.391 E2.51968
G1 X104.689 Y103.015 E2.53258
G1 X104.166 Y103.608 E2.54549
G1 X103.608 Y104.166 E2.55839
G1 X103.015 Y104.689 E2.57129
G1 X102.391 Y105.173 E2.58419
G1 X101.738 Y105.617 E2.59710
G1 X101.058 Y106.019 E2.61000
G1 X100.354 Y106.378 E2.62290
G1 X99.629 Y106.691 E2.63580
G1 X98.886 Y106.959 E2.64871
G1 X98.126 Y107.180 E2.66163
G1 X96.977 Y107.431 E2.68083
G1 X96.129 Y106.394 E2.70271
G1 X95.683 Y105.738 E2.71567
G1 X95.281 Y105.058 E2.72857
G1 X94.922 Y104.354 E2.74147
G1 X94.609 Y103.629 E2.75438
G1 X94.341 Y102.886 E2.76728
G1 X94.121 Y102.127 E2.78018
G1 X93.948 Y101.356 E2.79308
G1 X93.825 Y100.576 E2.80599
G1 X93.760 Y99.890 E2.81724
G1 X94.154 Y100.051 F9000.000
G1 X94.795 Y99.724 F1080.000 E2.82899
G1 X95.703 Y99.187 E2.84623
G1 X96.576 Y98.594 E2.86347
G1 X97.410 Y97.947 E2.88071
G1 X98.202 Y97.249 E2.89795
G1 X98.949 Y96.502 E2.91519
G1 X99.647 Y95.710 E2.93243
G1 X100.294 Y94.876 E2.94967
G1 X100.887 Y94.003 E2.96691
G1 X101.424 Y93.095 E2.98416
G1 X101.904 Y92.154 E3.00140
G1 X102.323 Y91.185 E3.01864
G1 X102.680 Y90.192 E3.03588
G1 X102.975 Y89.179 E3.05312
G1 X103.205 Y88.149 E3.07036
G1 X103.370 Y87.106 E3.08760
G1 X103.439 Y86.375 E3.09960
G1 X103.585 Y86.326 E3.10211
G1 X104.397 Y87.224 E3.12189
G1 X104.868 Y87.831 E3.13442
G1 X105.298 Y88.464 E3.14694
G1 X105.683 Y89.114 E3.15927
G1 X106.036 Y89.807 E3.17197
G1 X106.341 Y90.510 E3.18448
G1 X106.600 Y91.231 E3.19700
G1 X106.814 Y91.967 E3.20951
G1 X106.981 Y92.714 E3.22203
G1 X107.101 Y93.471 E3.23454
G1 X107.173 Y94.234 E3.24706
G1 X107.197 Y95.000 E3.25958
G1 X107.173 Y95.766 E3.27209
G1 X107.101 Y96.529 E3.28461
G1 X106.981 Y97.286 E3.29712
G1 X106.814 Y98.033 E3.30964
G1 X106.600 Y98.769 E3.32215
G1 X106.341 Y99.490 E3.33467
G1 X106.036 Y100.193 E3.34718
G1 X105.689 Y100.876 E3.35970
G1 X105.298 Y101.536 E3.37221
G1 X104.868 Y102.169 E3.38473
G1 X104.398 Y102.775 E3.39725
G1 X103.891 Y103.350 E3.40976
G1 X103.350 Y103.891 E3.42228
G1 X102.775 Y104.398 E3.43479
G1 X102.169 Y104.868 E3.44731
G1 X101.536 Y105.298 E3.45982
G1 X100.876 Y105.689 E3.47234
G1 X100.193 Y106.036 E3.48485
G1 X99.490 Y106.341 E3.49737
G1 X98.769 Y106.600 E3.50988
G1 X98.033 Y106.814 E3.52241
G1 X97.114 Y107.015 E3.53778
G1 X96.433 Y106.170 E3.55549
G1 X96.002 Y105.536 E3.56803
G1 X95.611 Y104.876 E3.58055
G1 X95.264 Y104.193 E3.59306
G1 X94.959 Y103.490 E3.60558
G1 X94.700 Y102.769 E3.61809
G1 X94.486 Y102.033 E3.63061
G1 X94.319 Y101.286 E3.64312
G1 X94.199 Y100.529 E3.65564
G1 X94.159 Y100.110 E3.66251
G1 F1800.000 E2.66251
G92 E0
G1 X91.993 Y110.764 F9000.000
G1 F1800.000 E1.00000
G1 X91.009 Y110.544 F1080.000 E1.01647
G1 X90.041 Y110.263 E1.03293
G1 X89.092 Y109.921 E1.04940
G1 X88.167 Y109.521 E1.06587
G1 X87.269 Y109.063 E1.08234
G1 X86.401 Y108.550 E1.09880
G1 X85.567 Y107.984 E1.11527
G1 X84.770 Y107.366 E1.13174
G1 X84.014 Y106.699 E1.14820
G1 X83.301 Y105.986 E1.16467
G1 X82.634 Y105.230 E1.18114
G1 X82.016 Y104.433 E1.19761
G1 X81.450 Y103.599 E1.21407
G1 X80.937 Y102.731 E1.23054
G1 X80.479 Y101.833 E1.24701
G1 X80.079 Y100.908 E1.26347
G1 X79.737 Y99.959 E1.27994
G1 X79.456 Y98.991 E1.29641
G1 X79.236 Y98.007 E1.31287
G1 X79.078 Y97.011 E1.32934
G1 X78.983 Y96.008 E1.34581
G1 X78.952 Y95.000 E1.36228
G1 X78.983 Y93.992 E1.37874
G1 X79.078 Y92.989 E1.39521
G1 X79.236 Y91.993 E1.41168
G1 X79.456 Y91.009 E1.42814
G1 X79.737 Y90.041 E1.44461
G1 X80.079 Y89.092 E1.46108
G1 X80.479 Y88.167 E1.47755
G1 X80.937 Y87.269 E1.49401
G1 X81.450 Y86.401 E1.51048
G1 X82.016 Y85.567 E1.52695
G1 X82.634 Y84.770 E1.54341
G1 X83.301 Y84.014 E1.55988
G1 X84.014 Y83.301 E1.57635
G1 X84.770 Y82.634 E1.59281
G1 X85.567 Y82.016 E1.60928
G1 X86.401 Y81.450 E1.62575
G1 X87.269 Y80.937 E1.64222
G1 X88.167 Y80.479 E1.65868
G1 X89.092 Y80.079 E1.67515
G1 X90.041 Y79.737 E1.69162
G1 X91.009 Y79.456 E1.70808
G1 X91.993 Y79.236 E1.72455
G1 X92.989 Y79.078 E1.74102
G1 X93.992 Y78.983 E1.75749
G1 X94.984 Y78.952 E1.77370
G1 X96.008 Y78.983 E1.79043
G1 X97.011 Y79.078 E1.80689
G1 X98.007 Y79.236 E1.82335
G1 X98.991 Y79.456 E1.83982
G1 X99.959 Y79.737 E1.85629
G1 X100.908 Y80.079 E1.87276
G1 X101.833 Y80.479 E1.88922
G1 X102.731 Y80.937 E1.90569
G1 X103.599 Y81.450 E1.92216
G1 X104.433 Y82.016 E1.93862
G1 X105.230 Y82.634 E1.95509
G1 X105.986 Y83.301 E1.97156
G1 X106.699 Y84.014 E1.98802
G1 X107.366 Y84.770 E2.00449
G1 X107.984 Y85.567 E2.02096
G1 X108.550 Y86.401 E2.03743
G1 X109.063 Y87.269 E2.05389
G1 X109.521 Y88.167 E2.07036
G1 X109.921 Y89.092 E2.08683
G1 X110.263 Y90.041 E2.10329
G1 X110.544 Y91.009 E2.11976
G1 X110.764 Y91.993 E2.13623
G1 X110.922 Y92.989 E2.15270
G1 X111.017 Y93.992 E2.16916
G1 X111.048 Y95.000 E2.18563
G1 X111.017 Y96.008 E2.20210
G1 X110.922 Y97.011 E2.21856
G1 X110.764 Y98.007 E2.23503
G1 X110.544 Y98.991 E2.25150
G1 X110.263 Y99.959 E2.26797
