; generated by Slic3r 0.8.2 on 2014-05-26 at 22:46:35

; layer_height = 0.25
; perimeters = 3
; solid_layers = 3
; fill_density = 0.5
; nozzle_diameter = 0.35
; filament_diameter = 3
; extrusion_multiplier = 1
; perimeter_speed = 60
; infill_speed = 80
; travel_speed = 150
; extrusion_width_ratio = 0
; scale = 1
; single wall width = 0.39mm

M107
G28 ; home all axes
G90 ; use absolute coordinates
G21 ; set units to millimeters
G92 E0 ; reset extrusion distance
M82 ; use absolute distances for extrusion
G1 Z1.100 F9000.000
G1 X78.510 Y79.250
G1 F1800.000 E1.00000
G1 X79.510 Y78.260 F1080.000 E1.02298
G1 X80.610 Y77.300 E1.04683
G1 X81.750 Y76.430 E1.07025
G1 X83.840 Y75.110 E1.11063
G1 X85.460 Y74.280 E1.14036
G1 X87.750 Y73.370 E1.18061
G1 X89.510 Y72.860 E1.21054
G1 X91.920 Y72.400 E1.25061
G1 X93.710 Y72.230 E1.27998
G1 X94.760 Y72.190 E1.29714
G1 X97.610 Y72.340 E1.34376
G1 X99.450 Y72.630 E1.37418
G1 X101.830 Y73.240 E1.41431
G1 X103.560 Y73.860 E1.44433
G1 X105.820 Y74.930 E1.48517
G1 X107.370 Y75.840 E1.51452
G1 X108.540 Y76.650 E1.53777
G1 X109.690 Y77.560 E1.56172
G1 X111.730 Y79.510 E1.60781
G1 X112.690 Y80.610 E1.63166
G1 X113.560 Y81.750 E1.65508
G1 X114.880 Y83.840 E1.69546
G1 X115.710 Y85.460 E1.72519
G1 X116.620 Y87.750 E1.76544
G1 X117.130 Y89.510 E1.79537
G1 X117.590 Y91.920 E1.83544
G1 X117.760 Y93.710 E1.86481
G1 X117.800 Y95.220 E1.88948
G1 X117.650 Y97.610 E1.92859
G1 X117.360 Y99.450 E1.95902
G1 X116.750 Y101.830 E1.99915
G1 X116.130 Y103.560 E2.02917
G1 X115.060 Y105.820 E2.07001
G1 X114.150 Y107.370 E2.09936
G1 X113.340 Y108.540 E2.12261
G1 X112.430 Y109.690 E2.14656
G1 X110.480 Y111.730 E2.19265
G1 X109.380 Y112.690 E2.21650
G1 X108.240 Y113.560 E2.23992
G1 X106.150 Y114.880 E2.28030
G1 X104.530 Y115.710 E2.31003
G1 X102.240 Y116.620 E2.35028
G1 X100.480 Y117.130 E2.38021
G1 X98.070 Y117.590 E2.42028
G1 X96.190 Y117.770 E2.45113
G1 X95.160 Y117.800 E2.46796
G1 X92.380 Y117.650 E2.51343
G1 X90.540 Y117.360 E2.54385
G1 X88.160 Y116.750 E2.58398
G1 X86.430 Y116.130 E2.61400
G1 X84.170 Y115.060 E2.65484
G1 X82.620 Y114.150 E2.68420
G1 X81.450 Y113.340 E2.70744
G1 X80.300 Y112.430 E2.73140
G1 X78.260 Y110.480 E2.77749
G1 X77.300 Y109.380 E2.80134
G1 X76.430 Y108.240 E2.82476
G1 X75.110 Y106.150 E2.86513
G1 X74.280 Y104.530 E2.89486
G1 X73.370 Y102.240 E2.93511
G1 X72.860 Y100.480 E2.96504
G1 X72.400 Y98.070 E3.00512
G1 X72.230 Y96.280 E3.03448
G1 X72.190 Y94.760 E3.05932
G1 X72.340 Y92.380 E3.09827
G1 X72.630 Y90.540 E3.12869
G1 X73.240 Y88.160 E3.16882
G1 X73.860 Y86.430 E3.19884
G1 X74.930 Y84.170 E3.23968
G1 X75.840 Y82.620 E3.26904
G1 X76.650 Y81.450 E3.29228
G1 X77.560 Y80.300 E3.31623
G1 X78.469 Y79.293 E3.33840
G1 F1800.000 E2.33840
G92 E0
G1 X83.372 Y84.080 F9000.000
G1 F1800.000 E1.00000
G1 X84.080 Y83.372 F1080.000 E1.01637
G1 X84.832 Y82.709 E1.03273
G1 X85.624 Y82.095 E1.04910
G1 X86.453 Y81.532 E1.06547
G1 X87.315 Y81.022 E1.08184
G1 X88.208 Y80.567 E1.09821
G1 X89.128 Y80.169 E1.11457
G1 X90.071 Y79.829 E1.13094
G1 X91.033 Y79.550 E1.14731
G1 X92.011 Y79.331 E1.16368
G1 X93.001 Y79.174 E1.18004
G1 X93.998 Y79.080 E1.19641
G1 X95.000 Y79.048 E1.21278
G1 X96.002 Y79.080 E1.22915
G1 X96.999 Y79.174 E1.24551
G1 X97.989 Y79.331 E1.26188
G1 X98.967 Y79.550 E1.27825
G1 X99.929 Y79.829 E1.29462
G1 X100.872 Y80.169 E1.31098
G1 X101.792 Y80.567 E1.32735
G1 X102.685 Y81.022 E1.34372
G1 X103.801 Y81.681 E1.36489
G1 X103.227 Y83.130 E1.39034
G1 X103.369 Y83.181 E1.39280
G1 X103.897 Y83.409 E1.40219
G1 X104.409 Y83.670 E1.41158
G1 X104.904 Y83.963 E1.42097
G1 X105.379 Y84.286 E1.43036
G1 X105.834 Y84.638 E1.43975
G1 X106.255 Y85.010 E1.44892
G1 X106.671 Y85.424 E1.45852
G1 X107.052 Y85.856 E1.46792
G1 X107.404 Y86.311 E1.47731
G1 X107.727 Y86.786 E1.48670
G1 X108.026 Y87.291 E1.49628
G1 X108.733 Y88.748 E1.52274
G1 X108.078 Y89.577 E1.54000
G1 X109.014 Y89.849 E1.55593
G1 X109.134 Y91.115 E1.57670
G1 X109.152 Y91.690 E1.58609
G1 X109.142 Y92.018 E1.59145
G1 X110.738 Y92.068 E1.61753
G1 X110.920 Y93.998 E1.64920
G1 X110.952 Y95.000 E1.66557
G1 X110.920 Y96.002 E1.68194
G1 X110.826 Y96.999 E1.69831
G1 X110.669 Y97.989 E1.71467
G1 X110.450 Y98.967 E1.73104
G1 X110.171 Y99.929 E1.74741
G1 X109.831 Y100.872 E1.76378
G1 X109.433 Y101.792 E1.78015
G1 X108.966 Y102.706 E1.79691
G1 X108.468 Y103.547 E1.81288
G1 X107.905 Y104.376 E1.82924
G1 X107.291 Y105.168 E1.84561
G1 X106.628 Y105.920 E1.86198
G1 X105.920 Y106.628 E1.87835
G1 X105.168 Y107.291 E1.89472
G1 X104.376 Y107.905 E1.91108
G1 X103.547 Y108.468 E1.92745
G1 X102.684 Y108.979 E1.94383
G1 X101.770 Y109.443 E1.96058
G1 X100.872 Y109.831 E1.97655
G1 X99.929 Y110.171 E1.99292
G1 X98.967 Y110.450 E2.00929
G1 X97.989 Y110.669 E2.02566
G1 X96.999 Y110.826 E2.04202
G1 X96.002 Y110.920 E2.05839
G1 X95.000 Y110.952 E2.07476
G1 X93.998 Y110.920 E2.09113
G1 X93.001 Y110.826 E2.10749
G1 X92.011 Y110.669 E2.12386
G1 X91.033 Y110.450 E2.14023
G1 X90.071 Y110.171 E2.15660
G1 X89.128 Y109.831 E2.17296
G1 X87.927 Y109.312 E2.19434
G1 X87.631 Y107.989 E2.21648
G1 X87.474 Y106.999 E2.23285
G1 X87.380 Y106.002 E2.24921
G1 X87.348 Y105.000 E2.26558
G1 X87.380 Y103.998 E2.28195
G1 X87.474 Y103.001 E2.29832
G1 X87.631 Y102.011 E2.31468
G1 X87.850 Y101.033 E2.33105
G1 X88.129 Y100.071 E2.34742
G1 X88.469 Y99.128 E2.36379
G1 X88.867 Y98.208 E2.38015
G1 X89.322 Y97.315 E2.39652
G1 X89.832 Y96.453 E2.41289
G1 X91.174 Y94.478 E2.45189
G1 X90.315 Y95.570 E2.47459
G1 X89.750 Y96.401 E2.49100
G1 X89.237 Y97.269 E2.50747
G1 X88.779 Y98.167 E2.52394
G1 X88.379 Y99.092 E2.54040
G1 X88.037 Y100.041 E2.55687
G1 X87.756 Y101.009 E2.57334
G1 X87.536 Y101.993 E2.58980
G1 X87.378 Y102.989 E2.60627
G1 X87.283 Y103.992 E2.62274
G1 X87.252 Y105.000 E2.63921
G1 X87.283 Y106.008 E2.65567
G1 X87.378 Y107.011 E2.67214
G1 X87.522 Y107.923 E2.68721
G1 X86.555 Y108.537 E2.70594
G1 X85.624 Y107.905 E2.72431
G1 X84.832 Y107.291 E2.74068
G1 X84.080 Y106.628 E2.75705
G1 X83.372 Y105.920 E2.77342
G1 X82.709 Y105.168 E2.78979
G1 X82.095 Y104.376 E2.80615
G1 X81.532 Y103.547 E2.82252
G1 X81.022 Y102.685 E2.83889
G1 X80.567 Y101.792 E2.85526
G1 X80.168 Y100.871 E2.87164
G1 X79.822 Y99.906 E2.88839
G1 X79.550 Y98.967 E2.90436
G1 X79.331 Y97.989 E2.92073
G1 X79.174 Y96.999 E2.93709
G1 X79.080 Y96.002 E2.95346
G1 X79.048 Y95.000 E2.96983
G1 X79.080 Y93.998 E2.98620
G1 X79.174 Y93.001 E3.00256
G1 X79.331 Y92.011 E3.01893
G1 X79.550 Y91.033 E3.03530
G1 X79.822 Y90.094 E3.05127
G1 X80.168 Y89.129 E3.06802
G1 X80.567 Y88.208 E3.08440
G1 X81.022 Y87.315 E3.10077
G1 X81.532 Y86.453 E3.11714
G1 X82.095 Y85.624 E3.13350
G1 X82.709 Y84.832 E3.14987
G1 X83.333 Y84.125 E3.16527
G1 F1800.000 E2.16527
G92 E0
G1 X92.060 Y87.954 F9000.000
G1 F1800.000 E1.00000
G1 X92.311 Y87.463 F1080.000 E1.00900
G1 X92.591 Y86.988 E1.01801
G1 X92.901 Y86.532 E1.02701
G1 X93.239 Y86.097 E1.03601
G1 X93.603 Y85.683 E1.04502
G1 X93.993 Y85.293 E1.05402
G1 X94.407 Y84.929 E1.06303
G1 X94.842 Y84.591 E1.07203
G1 X95.298 Y84.281 E1.08103
G1 X95.773 Y84.001 E1.09004
G1 X96.264 Y83.750 E1.09904
G1 X96.770 Y83.531 E1.10804
G1 X97.288 Y83.345 E1.11705
G1 X97.818 Y83.191 E1.12605
G1 X98.356 Y83.071 E1.13506
G1 X98.900 Y82.984 E1.14406
G1 X99.449 Y82.933 E1.15306
G1 X100.000 Y82.915 E1.16207
G1 X100.551 Y82.933 E1.17107
G1 X101.087 Y82.983 E1.17986
G1 X101.644 Y83.070 E1.18907
G1 X102.182 Y83.191 E1.19808
G1 X102.712 Y83.345 E1.20709
G1 X103.230 Y83.531 E1.21609
G1 X103.736 Y83.750 E1.22509
G1 X104.227 Y84.001 E1.23410
G1 X104.702 Y84.281 E1.24310
G1 X105.158 Y84.591 E1.25210
G1 X105.593 Y84.929 E1.26111
G1 X105.997 Y85.285 E1.26990
G1 X106.396 Y85.683 E1.27910
G1 X106.761 Y86.097 E1.28812
G1 X107.099 Y86.532 E1.29712
G1 X107.409 Y86.988 E1.30612
G1 X107.693 Y87.469 E1.31525
G1 X108.291 Y88.700 E1.33760
G1 X107.754 Y89.378 E1.35172
G1 X106.340 Y89.062 E1.37538
G1 X105.334 Y88.903 E1.39203
G1 X104.319 Y88.807 E1.40868
G1 X103.300 Y88.775 E1.42533
G1 X102.281 Y88.807 E1.44198
G1 X101.266 Y88.903 E1.45863
G1 X100.260 Y89.062 E1.47527
G1 X99.265 Y89.285 E1.49192
G1 X98.286 Y89.569 E1.50857
G1 X97.327 Y89.914 E1.52522
G1 X96.392 Y90.319 E1.54187
G1 X95.483 Y90.782 E1.55852
G1 X94.606 Y91.301 E1.57516
G1 X93.763 Y91.874 E1.59181
G1 X92.958 Y92.498 E1.60846
G1 X92.090 Y93.263 E1.62735
G1 X91.310 Y92.954 E1.64106
G1 X91.252 Y92.338 E1.65116
G1 X91.225 Y91.694 E1.66169
G1 X91.243 Y91.139 E1.67076
G1 X91.294 Y90.590 E1.67976
G1 X91.381 Y90.046 E1.68877
G1 X91.501 Y89.508 E1.69777
G1 X91.655 Y88.978 E1.70677
G1 X91.841 Y88.460 E1.71578
G1 X92.037 Y88.008 E1.72382
G1 X92.402 Y88.114 F9000.000
G1 X92.641 Y87.644 F1080.000 E1.73243
G1 X92.910 Y87.190 E1.74105
G1 X93.206 Y86.754 E1.74967
G1 X93.529 Y86.337 E1.75828
G1 X93.878 Y85.941 E1.76690
G1 X94.251 Y85.568 E1.77552
G1 X94.647 Y85.219 E1.78413
G1 X95.064 Y84.896 E1.79275
G1 X95.500 Y84.600 E1.80137
G1 X95.954 Y84.331 E1.80998
G1 X96.424 Y84.092 E1.81860
G1 X96.909 Y83.882 E1.82722
G1 X97.405 Y83.703 E1.83583
G1 X97.912 Y83.556 E1.84445
G1 X98.426 Y83.441 E1.85307
G1 X98.947 Y83.359 E1.86168
G1 X99.473 Y83.309 E1.87030
G1 X100.000 Y83.292 E1.87892
G1 X100.527 Y83.309 E1.88753
G1 X101.040 Y83.357 E1.89594
G1 X101.573 Y83.441 E1.90476
G1 X102.088 Y83.556 E1.91338
G1 X102.595 Y83.703 E1.92200
G1 X103.091 Y83.882 E1.93062
G1 X103.576 Y84.092 E1.93923
G1 X104.046 Y84.331 E1.94785
G1 X104.500 Y84.600 E1.95647
G1 X104.936 Y84.896 E1.96508
G1 X105.353 Y85.219 E1.97370
G1 X105.739 Y85.560 E1.98211
G1 X106.121 Y85.941 E1.99093
G1 X106.471 Y86.337 E1.99955
G1 X106.794 Y86.754 E2.00817
G1 X107.090 Y87.190 E2.01678
G1 X107.361 Y87.648 E2.02546
G1 X107.848 Y88.652 E2.04369
G1 X107.605 Y88.959 E2.05009
G1 X106.411 Y88.692 E2.07007
G1 X105.381 Y88.529 E2.08711
G1 X104.342 Y88.430 E2.10414
G1 X103.300 Y88.398 E2.12118
G1 X102.258 Y88.430 E2.13822
G1 X101.219 Y88.529 E2.15525
G1 X100.189 Y88.692 E2.17229
G1 X99.171 Y88.919 E2.18932
G1 X98.170 Y89.210 E2.20636
G1 X97.188 Y89.564 E2.22339
G1 X96.231 Y89.978 E2.24043
G1 X95.302 Y90.451 E2.25746
G1 X94.404 Y90.982 E2.27450
G1 X93.541 Y91.568 E2.29153
G1 X92.717 Y92.208 E2.30857
G1 X92.014 Y92.827 E2.32388
G1 X91.663 Y92.688 E2.33004
G1 X91.628 Y92.313 E2.33621
G1 X91.602 Y91.692 E2.34635
G1 X91.619 Y91.163 E2.35500
G1 X91.669 Y90.637 E2.36362
G1 X91.751 Y90.116 E2.37224
G1 X91.866 Y89.602 E2.38085
G1 X92.013 Y89.095 E2.38947
G1 X92.192 Y88.599 E2.39809
G1 X92.378 Y88.169 E2.40574
G1 F1800.000 E1.40574
G92 E0
G1 X95.995 Y90.988 F9000.000
G1 F1800.000 E1.00000
G1 X97.491 Y90.333 F1080.000 E1.02668
G1 X98.425 Y89.997 E1.04290
G1 X99.377 Y89.721 E1.05908
G1 X100.344 Y89.505 E1.07527
G1 X101.323 Y89.350 E1.09145
G1 X102.309 Y89.256 E1.10764
G1 X103.300 Y89.225 E1.12383
G1 X104.291 Y89.256 E1.14001
G1 X105.277 Y89.350 E1.15620
G1 X106.256 Y89.505 E1.17239
G1 X107.223 Y89.721 E1.18857
G1 X108.663 Y90.140 E1.21307
G1 X108.758 Y91.139 E1.22946
G1 X108.775 Y91.690 E1.23847
G1 X108.758 Y92.241 E1.24747
G1 X108.706 Y92.790 E1.25647
G1 X108.619 Y93.334 E1.26548
G1 X108.499 Y93.872 E1.27448
G1 X108.345 Y94.402 E1.28349
G1 X108.159 Y94.920 E1.29249
G1 X107.940 Y95.426 E1.30149
G1 X107.690 Y95.917 E1.31050
G1 X107.409 Y96.392 E1.31950
G1 X107.099 Y96.848 E1.32851
G1 X106.761 Y97.283 E1.33751
G1 X106.397 Y97.697 E1.34651
G1 X106.007 Y98.087 E1.35552
G1 X105.593 Y98.451 E1.36452
G1 X105.158 Y98.789 E1.37352
G1 X104.702 Y99.099 E1.38253
G1 X104.227 Y99.379 E1.39153
G1 X103.736 Y99.630 E1.40054
G1 X103.230 Y99.849 E1.40954
G1 X102.712 Y100.035 E1.41854
G1 X102.182 Y100.189 E1.42755
G1 X101.644 Y100.309 E1.43655
G1 X101.100 Y100.396 E1.44555
G1 X100.551 Y100.448 E1.45456
G1 X100.000 Y100.465 E1.46356
G1 X99.449 Y100.448 E1.47256
G1 X98.900 Y100.396 E1.48157
G1 X98.356 Y100.309 E1.49057
G1 X97.818 Y100.189 E1.49958
G1 X97.288 Y100.035 E1.50858
G1 X96.770 Y99.849 E1.51758
G1 X96.264 Y99.630 E1.52659
G1 X95.394 Y99.186 E1.54254
G1 X95.433 Y98.295 E1.55711
G1 X96.382 Y97.914 E1.57382
G1 X96.543 Y97.832 E1.57676
G1 X96.905 Y97.602 E1.58377
G1 X97.046 Y97.492 E1.58668
G1 X97.350 Y97.207 E1.59350
G1 X97.608 Y96.895 E1.60011
G1 X97.832 Y96.543 E1.60692
G1 X97.913 Y96.384 E1.60984
G1 X98.065 Y95.999 E1.61659
G1 X98.167 Y95.604 E1.62326
G1 X98.218 Y95.202 E1.62987
G1 X98.218 Y94.798 E1.63648
G1 X98.166 Y94.393 E1.64315
G1 X98.063 Y93.992 E1.64991
G1 X98.003 Y93.824 E1.65282
G1 X97.825 Y93.447 E1.65963
G1 X97.602 Y93.095 E1.66644
G1 X97.490 Y92.951 E1.66941
G1 X97.207 Y92.650 E1.67617
G1 X96.886 Y92.384 E1.68298
G1 X96.733 Y92.280 E1.68599
G1 X95.950 Y91.833 E1.70072
G1 X95.992 Y91.047 E1.71357
G1 X96.359 Y91.241 F9000.000
G1 X97.631 Y90.684 F1080.000 E1.73625
G1 X98.542 Y90.356 E1.75207
G1 X99.471 Y90.086 E1.76787
G1 X100.415 Y89.875 E1.78367
G1 X101.370 Y89.724 E1.79946
G1 X102.333 Y89.633 E1.81526
G1 X103.300 Y89.602 E1.83106
G1 X104.267 Y89.633 E1.84686
G1 X105.230 Y89.724 E1.86266
G1 X106.185 Y89.875 E1.87846
G1 X107.129 Y90.086 E1.89426
G1 X108.312 Y90.430 E1.91438
G1 X108.381 Y91.163 E1.92640
G1 X108.398 Y91.690 E1.93502
G1 X108.381 Y92.217 E1.94363
G1 X108.331 Y92.743 E1.95225
G1 X108.249 Y93.264 E1.96087
G1 X108.134 Y93.778 E1.96948
G1 X107.987 Y94.285 E1.97810
G1 X107.808 Y94.781 E1.98672
G1 X107.598 Y95.266 E1.99533
G1 X107.359 Y95.736 E2.00395
G1 X107.090 Y96.190 E2.01257
G1 X106.794 Y96.626 E2.02118
G1 X106.471 Y97.043 E2.02980
G1 X106.122 Y97.439 E2.03842
G1 X105.749 Y97.812 E2.04703
G1 X105.353 Y98.161 E2.05565
G1 X104.936 Y98.484 E2.06427
G1 X104.500 Y98.780 E2.07288
G1 X104.046 Y99.049 E2.08150
G1 X103.576 Y99.288 E2.09012
G1 X103.091 Y99.498 E2.09873
G1 X102.595 Y99.677 E2.10735
G1 X102.088 Y99.824 E2.11597
G1 X101.574 Y99.939 E2.12458
G1 X101.053 Y100.022 E2.13320
G1 X100.527 Y100.071 E2.14182
G1 X100.000 Y100.088 E2.15043
G1 X99.473 Y100.071 E2.15905
G1 X98.947 Y100.022 E2.16767
G1 X98.426 Y99.939 E2.17629
G1 X97.912 Y99.824 E2.18490
G1 X97.405 Y99.677 E2.19352
G1 X96.909 Y99.498 E2.20214
G1 X96.424 Y99.288 E2.21075
G1 X95.781 Y98.961 E2.22255
G1 X95.799 Y98.554 E2.22919
G1 X96.538 Y98.257 E2.24221
G1 X96.730 Y98.160 E2.24572
G1 X97.122 Y97.910 E2.25331
G1 X97.291 Y97.779 E2.25680
G1 X97.626 Y97.466 E2.26429
G1 X97.914 Y97.117 E2.27168
G1 X98.160 Y96.730 E2.27917
G1 X98.257 Y96.539 E2.28266
G1 X98.424 Y96.116 E2.29009
G1 X98.538 Y95.675 E2.29754
G1 X98.595 Y95.226 E2.30492
G1 X98.595 Y94.774 E2.31231
G1 X98.537 Y94.322 E2.31976
G1 X98.424 Y93.881 E2.32719
G1 X98.351 Y93.680 E2.33068
G1 X98.156 Y93.265 E2.33817
G1 X97.911 Y92.878 E2.34566
G1 X97.777 Y92.706 E2.34921
G1 X97.466 Y92.375 E2.35664
G1 X97.112 Y92.082 E2.36413
G1 X96.933 Y91.960 E2.36768
G1 X96.339 Y91.621 E2.37885
G1 X96.356 Y91.300 E2.38411
G1 F1800.000 E1.38411
G92 E0
G1 X90.649 Y90.509 F9000.000
G1 F1800.000 E1.00000
G1 X90.593 Y91.098 F1080.000 E1.00967
G1 X90.574 Y91.690 E1.01934
G1 X90.593 Y92.282 E1.02901
G1 X90.649 Y92.871 E1.03869
G1 X90.741 Y93.456 E1.04836
G1 X90.909 Y94.205 E1.06089
G1 X90.010 Y95.347 E1.08462
G1 X89.431 Y96.199 E1.10144
G1 X88.906 Y97.087 E1.11830
G1 X88.438 Y98.006 E1.13515
G1 X88.028 Y98.953 E1.15201
G1 X87.678 Y99.924 E1.16886
G1 X87.390 Y100.915 E1.18571
G1 X87.165 Y101.922 E1.20257
G1 X87.004 Y102.941 E1.21942
G1 X86.907 Y103.969 E1.23628
G1 X86.874 Y105.000 E1.25313
G1 X86.907 Y106.031 E1.26998
G1 X87.004 Y107.059 E1.28684
G1 X87.111 Y107.737 E1.29806
G1 X86.562 Y108.086 E1.30870
G1 X85.846 Y107.600 E1.32284
G1 X85.072 Y107.000 E1.33882
G1 X84.339 Y106.353 E1.35480
G1 X83.647 Y105.661 E1.37078
G1 X83.000 Y104.928 E1.38676
G1 X82.400 Y104.154 E1.40274
G1 X81.850 Y103.345 E1.41872
G1 X81.352 Y102.503 E1.43470
G1 X80.908 Y101.631 E1.45068
G1 X80.519 Y100.733 E1.46667
G1 X80.181 Y99.790 E1.48304
G1 X79.915 Y98.873 E1.49862
G1 X79.701 Y97.918 E1.51461
G1 X79.548 Y96.952 E1.53059
G1 X79.456 Y95.978 E1.54657
G1 X79.426 Y95.000 E1.56255
G1 X79.456 Y94.022 E1.57853
G1 X79.548 Y93.048 E1.59451
G1 X79.701 Y92.082 E1.61049
G1 X79.915 Y91.127 E1.62647
G1 X80.181 Y90.210 E1.64206
G1 X80.519 Y89.267 E1.65842
G1 X80.908 Y88.369 E1.67441
G1 X81.352 Y87.497 E1.69039
G1 X81.850 Y86.655 E1.70637
G1 X82.400 Y85.846 E1.72235
G1 X83.000 Y85.072 E1.73833
G1 X83.647 Y84.339 E1.75431
