; generated by Slic3r 1.0.0RC3 on 2014-04-11 at 19:49:25

; layer_height = 0.25
; perimeters = 3
; top_solid_layers = 3
; bottom_solid_layers = 3
; fill_density = 0.2
; perimeter_speed = 50
; infill_speed = 70
; travel_speed = 130
; nozzle_diameter = 0.35
; filament_diameter = 3
; extrusion_multiplier = 1
; perimeters extrusion width = 0.35mm
; infill extrusion width = 0.39mm
; solid infill extrusion width = 0.39mm
; top infill extrusion width = 0.39mm
; first layer extrusion width = 0.70mm

G21 ; set units to millimeters
M107
G28 ; home all axes
G90 ; use absolute coordinates
G92 E0
M82 ; use absolute distances for extrusion
G1 F1800.000 E-1.00000
G92 E0
G1 Z0.350 F7800.000
G1 X55.320 Y60.320 F7800.000
G1 E1.00000 F1800.000
G1 X56.320 Y59.490 E1.04021 F900.000
G1 X57.460 Y58.880 E1.08022
G1 X58.710 Y58.500 E1.12064
G1 X60.000 Y58.380 E1.16073
G1 X130.000 Y58.380 E3.32662
G1 X131.290 Y58.500 E3.36671
G1 X132.540 Y58.880 E3.40713
G1 X133.680 Y59.490 E3.44714
G1 X134.680 Y60.320 E3.48735
G1 X135.510 Y61.320 E3.52756
G1 X136.120 Y62.460 E3.56756
G1 X136.500 Y63.710 E3.60799
G1 X136.620 Y65.000 E3.64807
G1 X136.620 Y125.000 E5.50455
G1 X136.500 Y126.290 E5.54464
G1 X136.120 Y127.540 E5.58506
G1 X135.510 Y128.680 E5.62507
G1 X134.680 Y129.680 E5.66528
G1 X133.680 Y130.510 E5.70549
G1 X132.540 Y131.120 E5.74549
G1 X131.290 Y131.500 E5.78592
G1 X130.000 Y131.620 E5.82601
G1 X60.000 Y131.620 E7.99190
G1 X58.710 Y131.500 E8.03198
G1 X57.460 Y131.120 E8.07241
G1 X56.320 Y130.510 E8.11241
G1 X55.320 Y129.680 E8.15262
G1 X54.490 Y128.680 E8.19284
G1 X53.880 Y127.540 E8.23284
G1 X53.500 Y126.290 E8.27326
G1 X53.380 Y125.000 E8.31335
G1 X53.380 Y65.000 E10.16983
G1 X53.500 Y63.710 E10.20992
G1 X53.880 Y62.460 E10.25034
G1 X54.490 Y61.320 E10.29035
G1 X55.260 Y60.392 E10.32766
G1 F1800.000 E9.32766
G92 E0
G1 X57.813 Y64.094 F7800.000
G1 E1.00000 F1800.000
G1 X59.094 Y62.813 E1.05606 F900.000
G1 X130.906 Y62.813 E3.27801
G1 X132.187 Y64.094 E3.33408
G1 X132.187 Y125.906 E5.24662
G1 X130.906 Y127.187 E5.30268
G1 X59.094 Y127.187 E7.52463
G1 X57.813 Y125.906 E7.58069
G1 X57.813 Y64.188 E9.49033
G1 X58.438 Y64.353 F7800.000
G1 X59.353 Y63.438 E9.53038 F900.000
G1 X130.647 Y63.438 E11.73631
G1 X131.562 Y64.353 E11.77636
G1 X131.562 Y125.647 E13.67288
G1 X130.647 Y126.562 E13.71292
G1 X59.353 Y126.562 E15.91886
G1 X58.438 Y125.647 E15.95890
G1 X58.438 Y64.447 E17.85253
G1 X59.063 Y64.612 F7800.000
G1 X59.612 Y64.063 E17.87655 F900.000
G1 X130.388 Y64.063 E20.06647
G1 X130.937 Y64.612 E20.09050
G1 X130.937 Y125.388 E21.97100
G1 X130.388 Y125.937 E21.99503
G1 X59.612 Y125.937 E24.18495
G1 X59.063 Y125.388 E24.20897
G1 X59.063 Y64.705 E26.08658
G1 X59.688 Y64.871 F7800.000
G1 X59.871 Y64.688 E26.09459 F900.000
G1 X130.129 Y64.688 E28.26849
G1 X130.312 Y64.871 E28.27650
G1 X130.312 Y125.129 E30.14098
G1 X130.129 Y125.312 E30.14899
G1 X59.871 Y125.312 E32.32289
G1 X59.688 Y125.129 E32.33090
G1 X59.688 Y64.964 E34.19249
G1 X60.350 Y65.350 F7800.000
G1 X129.650 Y65.350 E36.33672 F630.000
G1 X129.650 Y124.650 E38.17154
G1 X60.350 Y124.650 E40.31578
G1 X60.350 Y65.444 E42.14770
G1 X60.891 Y65.662 F7800.000
G1 X60.975 Y65.975 F7800.000
G1 X129.025 Y65.975 E44.25326 F900.000
G1 X129.025 Y124.025 E46.04941
G1 X60.975 Y124.025 E48.15497
G1 X60.975 Y66.069 E49.94822
G1 X61.600 Y66.600 F7800.000
G1 X128.400 Y66.600 E52.01512 F900.000
G1 X128.400 Y123.400 E53.77260
G1 X61.600 Y123.400 E55.83949
G1 X61.600 Y66.694 E57.59407
G1 X67.650 Y76.650 F7800.000
G1 X74.350 Y76.650 E57.80138 F630.000
G1 X74.350 Y113.350 E58.93692
G1 X67.650 Y113.350 E59.14423
G1 X67.650 Y76.744 E60.27688
G1 X67.650 Y76.025 F7800.000
G1 X67.025 Y76.025 F7800.000
G1 X74.975 Y76.025 E60.52285 F900.000
G1 X74.975 Y113.975 E61.69707
G1 X67.025 Y113.975 E61.94305
G1 X67.025 Y76.119 E63.11436
G1 X66.400 Y75.400 F7800.000
G1 X75.600 Y75.400 E63.39901 F900.000
G1 X75.600 Y114.600 E64.61190
G1 X66.400 Y114.600 E64.89654
G1 X66.400 Y75.494 E66.10653
G1 X87.650 Y76.650 F7800.000
G1 X94.350 Y76.650 E66.31383 F630.000
G1 X94.350 Y113.350 E67.44938
G1 X87.650 Y113.350 E67.65669
G1 X87.650 Y76.744 E68.78933
G1 X87.650 Y76.025 F7800.000
G1 X87.025 Y76.025 F7800.000
G1 X94.975 Y76.025 E69.03531 F900.000
G1 X94.975 Y113.975 E70.20953
G1 X87.025 Y113.975 E70.45550
G1 X87.025 Y76.119 E71.62682
G1 X86.400 Y75.400 F7800.000
G1 X95.600 Y75.400 E71.91147 F900.000
G1 X95.600 Y114.600 E73.12435
G1 X86.400 Y114.600 E73.40900
G1 X86.400 Y75.494 E74.61898
G1 X107.650 Y76.650 F7800.000
G1 X114.350 Y76.650 E74.82629 F630.000
G1 X114.350 Y113.350 E75.96184
G1 X107.650 Y113.350 E76.16914
G1 X107.650 Y76.744 E77.30179
G1 X107.650 Y76.025 F7800.000
G1 X107.025 Y76.025 F7800.000
G1 X114.975 Y76.025 E77.54777 F900.000
G1 X114.975 Y113.975 E78.72198
G1 X107.025 Y113.975 E78.96796
G1 X107.025 Y76.119 E80.13927
G1 X106.400 Y75.400 F7800.000
G1 X115.600 Y75.400 E80.42392 F900.000
G1 X115.600 Y114.600 E81.63681
G1 X106.400 Y114.600 E81.92145
G1 X106.400 Y75.494 E83.13144
G1 X116.043 Y75.595 F7800.000
G1 X127.957 Y87.509 E83.65588 F1080.000
G1 X127.957 Y88.398 E83.68355
G1 X116.043 Y76.484 E84.20798
G1 X116.043 Y77.373 E84.23565
G1 X127.957 Y89.287 E84.76009
G1 X127.957 Y90.176 E84.78776
G1 X116.043 Y78.262 E85.31220
G1 X116.043 Y79.151 E85.33987
G1 X127.957 Y91.065 E85.86431
G1 X127.957 Y91.954 E85.89198
G1 X116.043 Y80.039 E86.41642
G1 X116.043 Y80.928 E86.44408
G1 X127.957 Y92.843 E86.96852
G1 X127.957 Y93.732 E86.99619
G1 X116.043 Y81.817 E87.52063
G1 X116.043 Y82.706 E87.54830
G1 X127.957 Y94.621 E88.07274
G1 X127.957 Y95.510 E88.10041
G1 X116.043 Y83.595 E88.62485
G1 X116.043 Y84.484 E88.65251
G1 X127.957 Y96.399 E89.17695
G1 X127.957 Y97.288 E89.20462
G1 X116.043 Y85.373 E89.72906
G1 X116.043 Y86.262 E89.75673
G1 X127.957 Y98.177 E90.28117
G1 X127.957 Y99.066 E90.30884
G1 X116.043 Y87.151 E90.83328
G1 X116.043 Y88.040 E90.86094
G1 X127.957 Y99.955 E91.38538
G1 X127.957 Y100.844 E91.41305
G1 X116.043 Y88.929 E91.93749
G1 X116.043 Y89.818 E91.96516
G1 X127.957 Y101.733 E92.48960
G1 X127.957 Y102.622 E92.51727
G1 X116.043 Y90.707 E93.04171
G1 X116.043 Y91.596 E93.06937
G1 X127.957 Y103.510 E93.59381
G1 X127.957 Y104.399 E93.62148
G1 X116.043 Y92.485 E94.14592
G1 X116.043 Y93.374 E94.17359
G1 X127.957 Y105.288 E94.69803
G1 X127.957 Y106.177 E94.72570
G1 X116.043 Y94.263 E95.25014
G1 X116.043 Y95.152 E95.27780
G1 X127.957 Y107.066 E95.80224
G1 X127.957 Y107.955 E95.82991
G1 X116.043 Y96.041 E96.35435
G1 X116.043 Y96.930 E96.38202
G1 X127.957 Y108.844 E96.90646
G1 X127.957 Y109.733 E96.93413
G1 X116.043 Y97.819 E97.45857
G1 X116.043 Y98.708 E97.48623
G1 X127.957 Y110.622 E98.01067
G1 X127.957 Y111.511 E98.03834
G1 X116.043 Y99.597 E98.56278
G1 X116.043 Y100.486 E98.59045
G1 X127.957 Y112.400 E99.11489
G1 X127.957 Y113.289 E99.14256
G1 X116.043 Y101.375 E99.66700
G1 X116.043 Y102.264 E99.69467
G1 X127.957 Y114.178 E100.21910
G1 X127.957 Y115.067 E100.24677
G1 X116.043 Y103.153 E100.77121
G1 X116.043 Y104.042 E100.79888
G1 X127.957 Y115.956 E101.32332
G1 X127.957 Y116.845 E101.35099
G1 X116.043 Y104.931 E101.87543
G1 X116.043 Y105.820 E101.90310
G1 X127.957 Y117.734 E102.42753
G1 X127.957 Y118.623 E102.45520
G1 X116.043 Y106.709 E102.97964
G1 X116.043 Y107.598 E103.00731
G1 X127.957 Y119.512 E103.53175
G1 X127.957 Y120.401 E103.55942
G1 X116.043 Y108.487 E104.08386
G1 X116.043 Y109.375 E104.11153
G1 X127.957 Y121.290 E104.63596
G1 X127.957 Y122.179 E104.66363
G1 X116.043 Y110.264 E105.18807
G1 X116.043 Y111.153 E105.21574
G1 X127.847 Y122.957 E105.73531
G1 X126.958 Y122.957 E105.76298
G1 X116.043 Y112.042 E106.24342
G1 X116.043 Y112.931 E106.27109
G1 X126.069 Y122.957 E106.71240
G1 X125.180 Y122.957 E106.74006
G1 X116.043 Y113.820 E107.14224
G1 X116.043 Y114.709 E107.16991
G1 X124.291 Y122.957 E107.53296
G1 X123.402 Y122.957 E107.56063
G1 X115.487 Y115.043 E107.90900
G1 X114.598 Y115.043 E107.93667
G1 X122.513 Y122.957 E108.28504
G1 X121.624 Y122.957 E108.31271
G1 X113.709 Y115.043 E108.66108
G1 X112.820 Y115.043 E108.68875
G1 X120.735 Y122.957 E109.03712
G1 X119.846 Y122.957 E109.06478
G1 X111.931 Y115.043 E109.41315
G1 X111.042 Y115.043 E109.44082
G1 X118.957 Y122.957 E109.78919
G1 X118.068 Y122.957 E109.81686
G1 X110.154 Y115.043 E110.16523
G1 X109.265 Y115.043 E110.19290
G1 X117.179 Y122.957 E110.54127
G1 X116.290 Y122.957 E110.56894
G1 X108.376 Y115.043 E110.91731
G1 X107.487 Y115.043 E110.94498
G1 X115.401 Y122.957 E111.29335
G1 X114.512 Y122.957 E111.32102
G1 X106.598 Y115.043 E111.66939
G1 X87.040 Y115.043 F7800.000
G1 X94.955 Y122.957 E112.01776 F1080.000
G1 X95.844 Y122.957 E112.04542
G1 X87.929 Y115.043 E112.39379
G1 X88.818 Y115.043 E112.42146
G1 X96.733 Y122.957 E112.76983
G1 X97.622 Y122.957 E112.79750
G1 X89.707 Y115.043 E113.14587
G1 X90.596 Y115.043 E113.17354
G1 X98.511 Y122.957 E113.52191
G1 X99.400 Y122.957 E113.54958
G1 X91.485 Y115.043 E113.89795
G1 X92.374 Y115.043 E113.92562
G1 X100.288 Y122.957 E114.27399
G1 X101.177 Y122.957 E114.30166
G1 X93.263 Y115.043 E114.65003
G1 X94.152 Y115.043 E114.67769
G1 X102.066 Y122.957 E115.02606
G1 X102.955 Y122.957 E115.05373
G1 X95.041 Y115.043 E115.40210
G1 X95.930 Y115.043 E115.42977
G1 X103.844 Y122.957 E115.77814
G1 X104.733 Y122.957 E115.80581
G1 X96.043 Y114.267 E116.18834
G1 X96.043 Y113.378 E116.21601
G1 X105.622 Y122.957 E116.63768
G1 X106.511 Y122.957 E116.66535
G1 X96.043 Y112.489 E117.12614
G1 X96.043 Y111.600 E117.15381
G1 X107.400 Y122.957 E117.65373
G1 X108.289 Y122.957 E117.68140
G1 X96.043 Y110.711 E118.22046
G1 X96.043 Y109.822 E118.24812
G1 X109.178 Y122.957 E118.82631
G1 X110.067 Y122.957 E118.85398
G1 X96.043 Y108.933 E119.47129
G1 X96.043 Y108.044 E119.49896
G1 X110.956 Y122.957 E120.15540
G1 X111.845 Y122.957 E120.18307
G1 X96.043 Y107.155 E120.87865
G1 X96.043 Y106.266 E120.90632
G1 X112.734 Y122.957 E121.64102
G1 X113.623 Y122.957 E121.66869
G1 X96.043 Y105.377 E122.44252
G1 X96.043 Y104.488 E122.47019
G1 X105.957 Y114.402 E122.90659
G1 X105.957 Y113.513 E122.93426
G1 X96.043 Y103.599 E123.37067
G1 X96.043 Y102.710 E123.39834
G1 X105.957 Y112.624 E123.83474
G1 X105.957 Y111.735 E123.86241
G1 X96.043 Y101.821 E124.29881
G1 X96.043 Y100.932 E124.32648
G1 X105.957 Y110.846 E124.76289
G1 X105.957 Y109.958 E124.79056
G1 X96.043 Y100.043 E125.22696
G1 X96.043 Y99.154 E125.25463
G1 X105.957 Y109.069 E125.69103
G1 X105.957 Y108.180 E125.71870
G1 X96.043 Y98.265 E126.15511
G1 X96.043 Y97.376 E126.18278
G1 X105.957 Y107.291 E126.61918
G1 X105.957 Y106.402 E126.64685
G1 X96.043 Y96.487 E127.08325
G1 X96.043 Y95.598 E127.11092
G1 X105.957 Y105.513 E127.54733
G1 X105.957 Y104.624 E127.57500
G1 X96.043 Y94.709 E128.01140
G1 X96.043 Y93.820 E128.03907
G1 X105.957 Y103.735 E128.47547
G1 X105.957 Y102.846 E128.50314
G1 X96.043 Y92.931 E128.93955
G1 X96.043 Y92.042 E128.96721
G1 X105.957 Y101.957 E129.40362
G1 X105.957 Y101.068 E129.43129
G1 X96.043 Y91.153 E129.86769
G1 X96.043 Y90.264 E129.89536
G1 X105.957 Y100.179 E130.33176
G1 X105.957 Y99.290 E130.35943
G1 X96.043 Y89.375 E130.79584
G1 X96.043 Y88.487 E130.82351
G1 X105.957 Y98.401 E131.25991
G1 X105.957 Y97.512 E131.28758
G1 X96.043 Y87.598 E131.72398
G1 X96.043 Y86.709 E131.75165
G1 X105.957 Y96.623 E132.18806
G1 X105.957 Y95.734 E132.21573
G1 X96.043 Y85.820 E132.65213
G1 X96.043 Y84.931 E132.67980
G1 X105.957 Y94.845 E133.11620
G1 X105.957 Y93.956 E133.14387
G1 X96.043 Y84.042 E133.58028
G1 X96.043 Y83.153 E133.60795
G1 X105.957 Y93.067 E134.04435
G1 X105.957 Y92.178 E134.07202
G1 X96.043 Y82.264 E134.50842
G1 X96.043 Y81.375 E134.53609
G1 X105.957 Y91.289 E134.97250
G1 X105.957 Y90.400 E135.00016
G1 X96.043 Y80.486 E135.43657
G1 X96.043 Y79.597 E135.46424
G1 X105.957 Y89.511 E135.90064
G1 X105.957 Y88.622 E135.92831
G1 X96.043 Y78.708 E136.36471
G1 X96.043 Y77.819 E136.39238
G1 X105.957 Y87.733 E136.82879
G1 X105.957 Y86.844 E136.85646
G1 X96.043 Y76.930 E137.29286
G1 X96.043 Y76.041 E137.32053
G1 X105.957 Y85.955 E137.75693
G1 X105.957 Y85.066 E137.78460
G1 X87.934 Y67.043 E138.57795
G1 X88.823 Y67.043 E138.60562
G1 X105.957 Y84.177 E139.35984
G1 X105.957 Y83.288 E139.38751
G1 X89.712 Y67.043 E140.10259
G1 X90.601 Y67.043 E140.13026
G1 X105.957 Y82.399 E140.80622
G1 X105.957 Y81.510 E140.83389
G1 X91.490 Y67.043 E141.47072
G1 X92.378 Y67.043 E141.49839
G1 X105.957 Y80.622 E142.09608
G1 X105.957 Y79.733 E142.12375
G1 X93.267 Y67.043 E142.68232
G1 X94.156 Y67.043 E142.70999
G1 X105.957 Y78.844 E143.22943
G1 X105.957 Y77.955 E143.25710
G1 X95.045 Y67.043 E143.73740
G1 X95.934 Y67.043 E143.76507
G1 X105.957 Y77.066 E144.20625
G1 X105.957 Y76.177 E144.23392
G1 X96.823 Y67.043 E144.63597
G1 X97.712 Y67.043 E144.66364
G1 X105.957 Y75.288 E145.02655
G1 X106.516 Y74.957 E145.04675
G1 X98.601 Y67.043 E145.39512
G1 X99.490 Y67.043 E145.42279
G1 X107.405 Y74.957 E145.77116
G1 X108.294 Y74.957 E145.79883
G1 X100.379 Y67.043 E146.14720
G1 X101.268 Y67.043 E146.17487
G1 X109.183 Y74.957 E146.52324
G1 X110.072 Y74.957 E146.55091
G1 X102.157 Y67.043 E146.89928
G1 X103.046 Y67.043 E146.92694
G1 X110.961 Y74.957 E147.27531
G1 X111.849 Y74.957 E147.30298
G1 X103.935 Y67.043 E147.65135
G1 X104.824 Y67.043 E147.67902
G1 X112.738 Y74.957 E148.02739
G1 X113.627 Y74.957 E148.05506
G1 X105.713 Y67.043 E148.40343
G1 X106.602 Y67.043 E148.43110
G1 X114.516 Y74.957 E148.77947
G1 X115.405 Y74.957 E148.80714
G1 X107.491 Y67.043 E149.15551
G1 X108.380 Y67.043 E149.18318
G1 X127.957 Y86.620 E150.04491
G1 X127.957 Y85.731 E150.07258
G1 X109.269 Y67.043 E150.89519
G1 X110.158 Y67.043 E150.92286
G1 X127.957 Y84.842 E151.70634
G1 X127.957 Y83.953 E151.73400
G1 X111.047 Y67.043 E152.47835
G1 X111.936 Y67.043 E152.50602
G1 X127.957 Y83.064 E153.21124
G1 X127.957 Y82.175 E153.23891
G1 X112.825 Y67.043 E153.90499
G1 X113.714 Y67.043 E153.93266
G1 X127.957 Y81.286 E154.55962
G1 X127.957 Y80.397 E154.58729
G1 X114.603 Y67.043 E155.17512
G1 X115.492 Y67.043 E155.20278
G1 X127.957 Y79.508 E155.75148
G1 X127.957 Y78.619 E155.77915
G1 X116.381 Y67.043 E156.28872
G1 X117.270 Y67.043 E156.31639
G1 X127.957 Y77.730 E156.78682
G1 X127.957 Y76.841 E156.81449
G1 X118.159 Y67.043 E157.24580
G1 X119.048 Y67.043 E157.27347
G1 X127.957 Y75.952 E157.66565
G1 X127.957 Y75.063 E157.69332
G1 X119.937 Y67.043 E158.04636
G1 X120.826 Y67.043 E158.07403
G1 X127.957 Y74.174 E158.38795
G1 X127.957 Y73.286 E158.41562
G1 X121.714 Y67.043 E158.69040
G1 X122.603 Y67.043 E158.71807
G1 X127.957 Y72.397 E158.95373
G1 X127.957 Y71.508 E158.98140
G1 X123.492 Y67.043 E159.17793
G1 X124.381 Y67.043 E159.20560
G1 X127.957 Y70.619 E159.36299
G1 X127.957 Y69.730 E159.39066
G1 X125.270 Y67.043 E159.50893
G1 X126.159 Y67.043 E159.53660
G1 X127.957 Y68.841 E159.61574
G1 X127.957 Y67.952 E159.64341
G1 X127.048 Y67.043 E159.68341
G1 X127.937 Y67.043 E159.71108
G1 X127.957 Y67.063 E159.71196
G1 X87.045 Y67.043 F7800.000
G1 X94.959 Y74.957 E160.06033 F1080.000
G1 X94.070 Y74.957 E160.08800
G1 X86.156 Y67.043 E160.43637
G1 X85.267 Y67.043 E160.46404
G1 X93.181 Y74.957 E160.81241
G1 X92.292 Y74.957 E160.84007
G1 X84.378 Y67.043 E161.18844
G1 X83.489 Y67.043 E161.21611
G1 X91.403 Y74.957 E161.56448
G1 X90.514 Y74.957 E161.59215
G1 X82.600 Y67.043 E161.94052
G1 X81.711 Y67.043 E161.96819
G1 X89.625 Y74.957 E162.31656
G1 X88.736 Y74.957 E162.34423
G1 X80.822 Y67.043 E162.69260
G1 X79.933 Y67.043 E162.72027
G1 X87.847 Y74.957 E163.06864
G1 X86.958 Y74.957 E163.09631
G1 X79.044 Y67.043 E163.44468
G1 X78.155 Y67.043 E163.47234
G1 X86.069 Y74.957 E163.82071
G1 X85.957 Y75.734 E163.84514
G1 X77.266 Y67.043 E164.22771
G1 X76.377 Y67.043 E164.25538
G1 X85.957 Y76.623 E164.67707
G1 X85.957 Y77.512 E164.70474
G1 X75.488 Y67.043 E165.16556
G1 X74.599 Y67.043 E165.19323
G1 X85.957 Y78.401 E165.69318
G1 X85.957 Y79.290 E165.72085
G1 X73.710 Y67.043 E166.25993
G1 X72.821 Y67.043 E166.28760
G1 X85.957 Y80.179 E166.86581
G1 X85.957 Y81.068 E166.89348
G1 X71.932 Y67.043 E167.51083
G1 X71.043 Y67.043 E167.53850
G1 X85.957 Y81.957 E168.19497
G1 X85.957 Y82.846 E168.22264
G1 X70.154 Y67.043 E168.91824
G1 X69.265 Y67.043 E168.94591
G1 X85.957 Y83.735 E169.68064
