; generated by Slic3r 0.8.2 on 2014-05-22 at 19:16:12

; layer_height = 0.25
; perimeters = 3
; solid_layers = 3
; fill_density = 0.2
; nozzle_diameter = 0.35
; filament_diameter = 3
; extrusion_multiplier = 1
; perimeter_speed = 60
; infill_speed = 80
; travel_speed = 150
; extrusion_width_ratio = 0
; scale = 1
; single wall width = 0.39mm

M107
G28 ; home all axes
G90 ; use absolute coordinates
G21 ; set units to millimeters
G92 E0 ; reset extrusion distance
M82 ; use absolute distances for extrusion
G1 Z1.100 F9000.000
G1 X76.780 Y87.170
G1 F1800.000 E1.00000
G1 X76.830 Y86.910 F1080.000 E1.00432
G1 X77.050 Y86.150 E1.01725
G1 X77.250 Y85.670 E1.02574
G1 X77.630 Y84.980 E1.03861
G1 X77.780 Y84.760 E1.04296
G1 X81.300 Y80.220 E1.13679
G1 X81.610 Y79.880 E1.14430
G1 X82.280 Y79.250 E1.15932
G1 X82.810 Y78.820 E1.17047
G1 X82.990 Y78.690 E1.17410
G1 X83.560 Y78.340 E1.18502
G1 X83.970 Y78.120 E1.19262
G1 X84.870 Y77.730 E1.20864
G1 X85.310 Y77.580 E1.21624
G1 X86.220 Y77.350 E1.23157
G1 X86.680 Y77.270 E1.23919
G1 X87.710 Y77.180 E1.25608
G1 X102.260 Y77.220 E1.49373
G1 X103.270 Y77.310 E1.51029
G1 X103.730 Y77.390 E1.51792
G1 X104.680 Y77.630 E1.53392
G1 X105.110 Y77.780 E1.54136
G1 X105.970 Y78.160 E1.55672
G1 X106.380 Y78.380 E1.56432
G1 X107.160 Y78.890 E1.57954
G1 X107.870 Y79.440 E1.59421
G1 X108.940 Y80.580 E1.61975
G1 X112.180 Y84.720 E1.70561
G1 X112.470 Y85.160 E1.71422
G1 X112.720 Y85.630 E1.72291
G1 X112.930 Y86.120 E1.73162
G1 X113.090 Y86.630 E1.74035
G1 X113.210 Y87.150 E1.74907
G1 X113.280 Y87.680 E1.75780
G1 X113.280 Y102.350 E1.99741
G1 X113.210 Y102.880 E2.00614
G1 X113.090 Y103.400 E2.01486
G1 X112.930 Y103.910 E2.02359
G1 X112.720 Y104.400 E2.03230
G1 X112.470 Y104.870 E2.04099
G1 X112.020 Y105.530 E2.05404
G1 X108.940 Y109.450 E2.13546
G1 X108.030 Y110.440 E2.15743
G1 X107.870 Y110.590 E2.16101
G1 X107.160 Y111.140 E2.17568
G1 X106.380 Y111.650 E2.19090
G1 X105.970 Y111.870 E2.19850
G1 X105.110 Y112.240 E2.21379
G1 X104.710 Y112.380 E2.22071
G1 X103.810 Y112.620 E2.23593
G1 X103.110 Y112.750 E2.24756
G1 X102.460 Y112.810 E2.25822
G1 X87.750 Y112.810 E2.49848
G1 X86.720 Y112.720 E2.51537
G1 X86.260 Y112.640 E2.52300
G1 X85.310 Y112.400 E2.53900
G1 X84.880 Y112.250 E2.54644
G1 X84.020 Y111.870 E2.56179
G1 X83.610 Y111.650 E2.56939
G1 X82.830 Y111.140 E2.58462
G1 X82.120 Y110.590 E2.59929
G1 X81.050 Y109.450 E2.62482
G1 X77.810 Y105.310 E2.71069
G1 X77.520 Y104.870 E2.71930
G1 X77.270 Y104.400 E2.72799
G1 X77.060 Y103.910 E2.73670
G1 X76.900 Y103.400 E2.74543
G1 X76.780 Y102.880 E2.75414
G1 X76.710 Y102.350 E2.76288
G1 X76.710 Y87.690 E3.00232
G1 X76.771 Y87.229 E3.00993
G1 F1800.000 E2.00993
G92 E0
G1 X102.720 Y101.715 F9000.000
G1 F1800.000 E1.00000
G1 X103.099 Y101.867 F720.000 E1.00668
G1 X103.452 Y102.084 E1.01343
G1 X103.770 Y102.371 E1.02045
G1 X104.011 Y102.670 E1.02671
G1 X104.211 Y103.027 E1.03339
G1 X104.347 Y103.413 E1.04007
G1 X104.416 Y103.816 E1.04675
G1 X104.416 Y104.225 E1.05343
G1 X104.347 Y104.628 E1.06011
G1 X104.211 Y105.013 E1.06679
G1 X104.011 Y105.370 E1.07347
G1 X103.755 Y105.688 E1.08015
G1 X103.444 Y105.962 E1.08690
G1 X103.076 Y106.182 E1.09391
G1 X102.720 Y106.325 E1.10018
G1 X102.320 Y106.412 E1.10686
G1 X101.912 Y106.429 E1.11354
G1 X101.506 Y106.377 E1.12022
G1 X101.115 Y106.257 E1.12690
G1 X100.750 Y106.073 E1.13358
G1 X100.421 Y105.830 E1.14026
G1 X100.138 Y105.535 E1.14694
G1 X99.906 Y105.192 E1.15369
G1 X99.734 Y104.799 E1.16070
G1 X99.638 Y104.428 E1.16697
G1 X99.603 Y104.020 E1.17365
G1 X99.638 Y103.613 E1.18033
G1 X99.742 Y103.212 E1.18708
G1 X99.923 Y102.823 E1.19410
G1 X100.138 Y102.505 E1.20036
G1 X100.421 Y102.210 E1.20704
G1 X100.750 Y101.967 E1.21372
G1 X101.115 Y101.783 E1.22040
G1 X101.506 Y101.663 E1.22708
G1 X101.912 Y101.611 E1.23376
G1 X102.320 Y101.629 E1.24044
G1 X102.662 Y101.702 E1.24615
G1 X102.609 Y102.076 F9000.000
G1 X102.929 Y102.205 F720.000 E1.25178
G1 X103.225 Y102.387 E1.25745
G1 X103.496 Y102.632 E1.26342
G1 X103.698 Y102.882 E1.26867
G1 X103.866 Y103.183 E1.27430
G1 X103.981 Y103.508 E1.27993
G1 X104.039 Y103.848 E1.28556
G1 X104.039 Y104.192 E1.29120
G1 X103.981 Y104.532 E1.29683
G1 X103.866 Y104.857 E1.30246
G1 X103.698 Y105.158 E1.30809
G1 X103.481 Y105.427 E1.31372
G1 X103.221 Y105.656 E1.31939
G1 X102.908 Y105.844 E1.32536
G1 X102.609 Y105.964 E1.33061
G1 X102.272 Y106.036 E1.33624
G1 X101.928 Y106.051 E1.34187
G1 X101.586 Y106.007 E1.34750
G1 X101.256 Y105.906 E1.35313
G1 X100.948 Y105.751 E1.35877
G1 X100.671 Y105.546 E1.36440
G1 X100.432 Y105.297 E1.37003
G1 X100.238 Y105.009 E1.37570
G1 X100.092 Y104.675 E1.38166
G1 X100.010 Y104.364 E1.38692
G1 X99.981 Y104.020 E1.39255
G1 X100.010 Y103.677 E1.39818
G1 X100.098 Y103.341 E1.40385
G1 X100.252 Y103.010 E1.40982
G1 X100.432 Y102.743 E1.41507
G1 X100.671 Y102.494 E1.42070
G1 X100.948 Y102.289 E1.42633
G1 X101.256 Y102.134 E1.43196
G1 X101.586 Y102.033 E1.43759
G1 X101.928 Y101.989 E1.44323
G1 X102.272 Y102.004 E1.44886
G1 X102.551 Y102.064 E1.45352
G1 F1800.000 E0.45352
G92 E0
G1 X90.388 Y103.816 F9000.000
G1 F1800.000 E1.00000
G1 X90.388 Y104.225 F720.000 E1.00668
G1 X90.319 Y104.628 E1.01336
G1 X90.183 Y105.013 E1.02004
G1 X89.984 Y105.370 E1.02672
G1 X89.727 Y105.688 E1.03340
G1 X89.416 Y105.962 E1.04015
G1 X89.048 Y106.182 E1.04716
G1 X88.692 Y106.325 E1.05343
G1 X88.292 Y106.412 E1.06011
G1 X87.884 Y106.429 E1.06679
G1 X87.478 Y106.377 E1.07347
G1 X87.087 Y106.257 E1.08015
G1 X86.722 Y106.073 E1.08683
G1 X86.393 Y105.830 E1.09351
G1 X86.110 Y105.535 E1.10018
G1 X85.881 Y105.196 E1.10686
G1 X85.711 Y104.819 E1.11362
G1 X85.608 Y104.402 E1.12063
G1 X85.575 Y104.020 E1.12690
G1 X85.610 Y103.613 E1.13358
G1 X85.714 Y103.212 E1.14033
G1 X85.895 Y102.823 E1.14734
G1 X86.110 Y102.505 E1.15361
G1 X86.393 Y102.210 E1.16029
G1 X86.722 Y101.967 E1.16697
G1 X87.087 Y101.783 E1.17365
G1 X87.478 Y101.663 E1.18033
G1 X87.884 Y101.611 E1.18701
G1 X88.292 Y101.629 E1.19369
G1 X88.692 Y101.715 E1.20037
G1 X89.072 Y101.867 E1.20704
G1 X89.424 Y102.084 E1.21380
G1 X89.743 Y102.371 E1.22081
G1 X89.984 Y102.670 E1.22708
G1 X90.183 Y103.027 E1.23376
G1 X90.319 Y103.413 E1.24044
G1 X90.378 Y103.757 E1.24615
G1 X90.011 Y103.848 F9000.000
G1 X90.011 Y104.192 F720.000 E1.25178
G1 X89.953 Y104.532 E1.25741
G1 X89.838 Y104.857 E1.26304
G1 X89.670 Y105.158 E1.26867
G1 X89.454 Y105.427 E1.27431
G1 X89.193 Y105.656 E1.27998
G1 X88.880 Y105.844 E1.28594
G1 X88.581 Y105.964 E1.29120
G1 X88.244 Y106.036 E1.29683
G1 X87.900 Y106.051 E1.30246
G1 X87.558 Y106.007 E1.30809
G1 X87.228 Y105.906 E1.31372
G1 X86.920 Y105.751 E1.31935
G1 X86.643 Y105.546 E1.32498
G1 X86.405 Y105.297 E1.33061
G1 X86.211 Y105.011 E1.33625
G1 X86.068 Y104.695 E1.34192
G1 X85.981 Y104.341 E1.34788
G1 X85.953 Y104.020 E1.35313
G1 X85.983 Y103.677 E1.35877
G1 X86.070 Y103.341 E1.36444
G1 X86.224 Y103.010 E1.37040
G1 X86.405 Y102.743 E1.37566
G1 X86.643 Y102.494 E1.38129
G1 X86.920 Y102.289 E1.38692
G1 X87.228 Y102.134 E1.39255
G1 X87.558 Y102.033 E1.39818
G1 X87.900 Y101.989 E1.40381
G1 X88.244 Y102.004 E1.40944
G1 X88.581 Y102.076 E1.41507
G1 X88.901 Y102.205 E1.42071
G1 X89.197 Y102.387 E1.42638
G1 X89.468 Y102.632 E1.43234
G1 X89.670 Y102.882 E1.43759
G1 X89.838 Y103.183 E1.44323
G1 X89.953 Y103.508 E1.44886
G1 X90.001 Y103.789 E1.45352
G1 X90.389 Y102.622 F9000.000
G1 X90.297 Y102.458 F720.000 E1.45659
G1 X90.017 Y102.111 E1.46387
G1 X89.861 Y101.971 E1.46729
G1 X90.863 Y101.971 E1.48366
G1 X90.596 Y102.284 E1.49037
G1 X90.420 Y102.572 E1.49589
G1 F1800.000 E0.49589
G92 E0
G1 X86.100 Y101.971 F9000.000
G1 F1800.000 E1.00000
G1 X85.816 Y102.268 F720.000 E1.00671
G1 X85.580 Y102.617 E1.01359
G1 X85.376 Y102.284 E1.01997
G1 X85.109 Y101.971 E1.02669
G1 X86.041 Y101.971 E1.04191
G1 F1800.000 E0.04191
G92 E0
G1 X103.889 Y101.971 F9000.000
G1 F1800.000 E1.00000
G1 X104.891 Y101.971 F720.000 E1.01636
G1 X104.624 Y102.284 E1.02308
G1 X104.417 Y102.622 E1.02956
G1 X104.325 Y102.458 E1.03263
G1 X104.045 Y102.111 E1.03991
G1 X103.933 Y102.011 E1.04237
G1 F1800.000 E0.04237
G92 E0
G1 X100.128 Y101.971 F9000.000
G1 F1800.000 E1.00000
G1 X99.844 Y102.268 F720.000 E1.00671
G1 X99.608 Y102.617 E1.01359
G1 X99.404 Y102.284 E1.01997
G1 X99.137 Y101.971 E1.02669
G1 X100.069 Y101.971 E1.04191
G1 F1800.000 E0.04191
G92 E0
G1 X92.141 Y101.594 F9000.000
G1 F1800.000 E1.00000
G1 X91.819 Y101.723 F720.000 E1.00566
G1 X91.472 Y101.936 E1.01231
G1 X91.165 Y102.199 E1.01891
G1 X90.902 Y102.506 E1.02552
G1 X90.691 Y102.851 E1.03212
G1 X90.536 Y103.224 E1.03872
G1 X90.442 Y103.616 E1.04531
G1 X90.377 Y104.419 E1.05847
G1 X90.279 Y104.807 E1.06500
G1 X90.118 Y105.174 E1.07154
G1 X89.899 Y105.509 E1.07808
G1 X89.628 Y105.803 E1.08462
G1 X89.312 Y106.049 E1.09116
G1 X88.960 Y106.240 E1.09770
G1 X88.581 Y106.370 E1.10423
G1 X88.186 Y106.436 E1.11077
G1 X87.786 Y106.436 E1.11731
G1 X87.391 Y106.370 E1.12385
G1 X87.012 Y106.240 E1.13039
G1 X86.660 Y106.049 E1.13693
G1 X86.344 Y105.803 E1.14347
G1 X86.073 Y105.509 E1.15001
G1 X85.854 Y105.174 E1.15654
G1 X85.693 Y104.807 E1.16308
G1 X85.595 Y104.419 E1.16961
G1 X85.530 Y103.616 E1.18277
G1 X85.436 Y103.224 E1.18936
G1 X85.281 Y102.851 E1.19597
G1 X85.070 Y102.506 E1.20257
G1 X84.808 Y102.199 E1.20917
G1 X84.500 Y101.936 E1.21577
G1 X84.156 Y101.725 E1.22237
G1 X83.840 Y101.594 E1.22795
G1 X92.082 Y101.594 E1.36257
G1 F1800.000 E0.36257
G92 E0
G1 X97.868 Y101.594 F9000.000
G1 F1800.000 E1.00000
G1 X106.160 Y101.594 F720.000 E1.13544
G1 X105.844 Y101.725 E1.14102
G1 X105.500 Y101.936 E1.14762
G1 X105.192 Y102.199 E1.15423
G1 X104.930 Y102.506 E1.16083
G1 X104.719 Y102.851 E1.16743
G1 X104.564 Y103.224 E1.17403
G1 X104.470 Y103.616 E1.18062
G1 X104.405 Y104.419 E1.19378
G1 X104.307 Y104.807 E1.20031
G1 X104.146 Y105.174 E1.20685
G1 X103.927 Y105.509 E1.21339
G1 X103.656 Y105.803 E1.21993
G1 X103.340 Y106.049 E1.22647
G1 X102.988 Y106.240 E1.23301
G1 X102.641 Y106.359 E1.23899
G1 X102.211 Y106.436 E1.24613
G1 X101.814 Y106.436 E1.25261
G1 X101.419 Y106.370 E1.25915
G1 X101.040 Y106.240 E1.26569
G1 X100.688 Y106.049 E1.27223
G1 X100.372 Y105.803 E1.27877
G1 X100.101 Y105.509 E1.28531
G1 X99.882 Y105.174 E1.29185
G1 X99.721 Y104.807 E1.29839
G1 X99.623 Y104.419 E1.30492
G1 X99.558 Y103.616 E1.31808
G1 X99.464 Y103.224 E1.32467
G1 X99.309 Y102.851 E1.33127
G1 X99.098 Y102.506 E1.33787
G1 X98.835 Y102.199 E1.34447
G1 X98.528 Y101.936 E1.35108
G1 X98.183 Y101.725 E1.35768
G1 X97.922 Y101.617 E1.36229
G1 X97.693 Y101.930 F9000.000
G1 X97.358 Y101.849 F1080.000 E1.36792
G1 X97.022 Y101.823 E1.37343
G1 X92.978 Y101.823 E1.43947
G1 X92.642 Y101.849 E1.44498
G1 X92.331 Y101.924 E1.45021
G1 X91.989 Y102.061 E1.45622
G1 X91.694 Y102.242 E1.46187
G1 X91.432 Y102.466 E1.46750
G1 X91.208 Y102.728 E1.47314
G1 X91.028 Y103.022 E1.47877
G1 X90.896 Y103.341 E1.48440
G1 X90.815 Y103.676 E1.49003
G1 X90.750 Y104.481 E1.50323
G1 X90.636 Y104.930 E1.51079
G1 X90.450 Y105.354 E1.51835
G1 X90.197 Y105.741 E1.52591
G1 X89.884 Y106.082 E1.53346
G1 X89.519 Y106.366 E1.54102
G1 X89.112 Y106.586 E1.54858
G1 X88.674 Y106.736 E1.55614
G1 X88.217 Y106.813 E1.56370
G1 X87.755 Y106.813 E1.57126
G1 X87.298 Y106.736 E1.57882
G1 X86.860 Y106.586 E1.58638
G1 X86.453 Y106.366 E1.59394
G1 X86.088 Y106.082 E1.60150
G1 X85.775 Y105.741 E1.60905
G1 X85.522 Y105.354 E1.61661
G1 X85.336 Y104.930 E1.62417
G1 X85.222 Y104.481 E1.63173
G1 X85.157 Y103.676 E1.64493
G1 X85.076 Y103.341 E1.65056
G1 X84.944 Y103.022 E1.65619
G1 X84.764 Y102.728 E1.66182
G1 X84.540 Y102.466 E1.66746
G1 X84.278 Y102.242 E1.67309
G1 X83.984 Y102.062 E1.67872
G1 X83.665 Y101.930 E1.68435
G1 X83.330 Y101.849 E1.68999
G1 X82.994 Y101.823 E1.69549
G1 X82.697 Y101.823 E1.70034
G1 X82.697 Y101.217 E1.71023
G1 X106.697 Y101.217 E2.10223
G1 X106.697 Y97.167 E2.16838
G1 X107.303 Y97.167 E2.17827
G1 X107.303 Y101.823 E2.25431
G1 X107.006 Y101.823 E2.25916
G1 X106.670 Y101.849 E2.26467
G1 X106.335 Y101.930 E2.27030
G1 X106.016 Y102.062 E2.27593
G1 X105.722 Y102.242 E2.28156
G1 X105.460 Y102.466 E2.28720
G1 X105.236 Y102.728 E2.29283
G1 X105.056 Y103.022 E2.29846
G1 X104.924 Y103.341 E2.30410
G1 X104.843 Y103.676 E2.30972
G1 X104.778 Y104.481 E2.32292
G1 X104.664 Y104.930 E2.33048
G1 X104.478 Y105.354 E2.33804
G1 X104.225 Y105.741 E2.34560
G1 X103.912 Y106.082 E2.35316
G1 X103.547 Y106.366 E2.36072
G1 X103.140 Y106.586 E2.36827
G1 X102.736 Y106.725 E2.37525
G1 X102.244 Y106.813 E2.38340
G1 X101.783 Y106.813 E2.39094
G1 X101.326 Y106.736 E2.39850
G1 X100.888 Y106.586 E2.40606
G1 X100.481 Y106.366 E2.41362
G1 X100.116 Y106.082 E2.42118
G1 X99.803 Y105.741 E2.42874
G1 X99.550 Y105.354 E2.43630
G1 X99.364 Y104.930 E2.44386
G1 X99.250 Y104.481 E2.45141
G1 X99.185 Y103.676 E2.46461
G1 X99.104 Y103.341 E2.47024
G1 X98.972 Y103.022 E2.47587
G1 X98.792 Y102.728 E2.48151
G1 X98.568 Y102.466 E2.48714
G1 X98.306 Y102.242 E2.49277
G1 X98.012 Y102.062 E2.49841
G1 X97.748 Y101.952 E2.50307
G1 F1800.000 E1.50307
G92 E0
G1 X89.035 Y88.133 F9000.000
G1 F1800.000 E1.00000
G1 X88.655 Y88.285 F720.000 E1.00668
G1 X88.256 Y88.371 E1.01336
G1 X87.847 Y88.389 E1.02004
G1 X87.441 Y88.337 E1.02672
G1 X87.050 Y88.217 E1.03340
G1 X86.685 Y88.033 E1.04008
G1 X86.357 Y87.790 E1.04675
G1 X86.074 Y87.494 E1.05343
G1 X85.842 Y87.152 E1.06019
G1 X85.670 Y86.759 E1.06720
G1 X85.573 Y86.387 E1.07347
G1 X85.538 Y85.980 E1.08015
G1 X85.573 Y85.572 E1.08683
G1 X85.676 Y85.177 E1.09351
G1 X85.845 Y84.804 E1.10018
G1 X86.074 Y84.465 E1.10686
G1 X86.357 Y84.170 E1.11354
G1 X86.685 Y83.927 E1.12022
G1 X87.050 Y83.743 E1.12690
G1 X87.441 Y83.623 E1.13358
G1 X87.847 Y83.571 E1.14026
G1 X88.256 Y83.588 E1.14694
G1 X88.660 Y83.675 E1.15370
G1 X89.056 Y83.840 E1.16071
G1 X89.383 Y84.041 E1.16697
G1 X89.690 Y84.312 E1.17365
G1 X89.947 Y84.630 E1.18033
G1 X90.146 Y84.987 E1.18701
G1 X90.283 Y85.372 E1.19369
G1 X90.352 Y85.775 E1.20037
G1 X90.352 Y86.184 E1.20705
G1 X90.283 Y86.587 E1.21373
G1 X90.146 Y86.973 E1.22041
G1 X89.947 Y87.330 E1.22709
G1 X89.690 Y87.648 E1.23377
G1 X89.383 Y87.918 E1.24045
G1 X89.085 Y88.102 E1.24616
G1 X88.865 Y87.795 F9000.000
G1 X88.545 Y87.923 F720.000 E1.25179
G1 X88.208 Y87.996 E1.25742
G1 X87.863 Y88.011 E1.26305
G1 X87.521 Y87.967 E1.26868
G1 X87.192 Y87.866 E1.27431
G1 X86.884 Y87.711 E1.27995
G1 X86.606 Y87.506 E1.28558
G1 X86.368 Y87.257 E1.29121
G1 X86.174 Y86.969 E1.29688
G1 X86.027 Y86.635 E1.30284
G1 X85.946 Y86.323 E1.30810
G1 X85.917 Y85.980 E1.31373
G1 X85.946 Y85.636 E1.31936
G1 X86.033 Y85.303 E1.32499
G1 X86.175 Y84.988 E1.33062
G1 X86.368 Y84.703 E1.33625
G1 X86.606 Y84.454 E1.34189
G1 X86.884 Y84.249 E1.34752
G1 X87.192 Y84.094 E1.35315
G1 X87.521 Y83.993 E1.35878
G1 X87.863 Y83.949 E1.36441
G1 X88.208 Y83.964 E1.37004
G1 X88.547 Y84.037 E1.37571
G1 X88.884 Y84.177 E1.38168
G1 X89.158 Y84.346 E1.38693
G1 X89.417 Y84.573 E1.39256
G1 X89.634 Y84.842 E1.39819
G1 X89.802 Y85.143 E1.40382
G1 X89.917 Y85.468 E1.40946
G1 X89.975 Y85.807 E1.41509
G1 X89.975 Y86.152 E1.42072
G1 X89.917 Y86.492 E1.42635
G1 X89.802 Y86.817 E1.43198
G1 X89.634 Y87.118 E1.43761
G1 X89.417 Y87.386 E1.44324
G1 X89.158 Y87.614 E1.44887
G1 X88.915 Y87.764 E1.45354
G1 F1800.000 E0.45354
G92 E0
G1 X99.638 Y86.428 F9000.000
G1 F1800.000 E1.00000
G1 X99.603 Y86.020 F720.000 E1.00668
G1 X99.638 Y85.613 E1.01336
G1 X99.742 Y85.212 E1.02011
G1 X99.923 Y84.823 E1.02713
G1 X100.138 Y84.505 E1.03339
G1 X100.421 Y84.210 E1.04007
G1 X100.750 Y83.967 E1.04675
G1 X101.115 Y83.783 E1.05343
G1 X101.506 Y83.663 E1.06011
G1 X101.912 Y83.611 E1.06679
G1 X102.320 Y83.629 E1.07347
G1 X102.720 Y83.715 E1.08015
G1 X103.099 Y83.867 E1.08683
G1 X103.448 Y84.082 E1.09351
G1 X103.758 Y84.355 E1.10026
G1 X104.024 Y84.692 E1.10727
G1 X104.211 Y85.027 E1.11354
G1 X104.347 Y85.413 E1.12022
G1 X104.416 Y85.816 E1.12690
G1 X104.416 Y86.225 E1.13358
G1 X104.347 Y86.628 E1.14026
G1 X104.211 Y87.013 E1.14694
G1 X104.011 Y87.370 E1.15361
G1 X103.755 Y87.688 E1.16029
G1 X103.448 Y87.959 E1.16697
G1 X103.095 Y88.175 E1.17373
G1 X102.695 Y88.331 E1.18074
G1 X102.320 Y88.412 E1.18701
G1 X101.912 Y88.429 E1.19369
G1 X101.825 Y88.418 E1.19511
