; generated by Slic3r 1.0.0RC3 on 2014-03-20 at 23:42:23

; layer_height = 0.25
; perimeters = 3
; top_solid_layers = 3
; bottom_solid_layers = 3
; fill_density = 0.2
; perimeter_speed = 50
; infill_speed = 70
; travel_speed = 130
; nozzle_diameter = 0.35
; filament_diameter = 3
; extrusion_multiplier = 1
; perimeters extrusion width = 0.35mm
; infill extrusion width = 0.39mm
; solid infill extrusion width = 0.39mm
; top infill extrusion width = 0.39mm
; first layer extrusion width = 0.70mm

G21 ; set units to millimeters
M107
M190 S115 ; wait for bed temperature to be reached
M104 S235 ; set temperature
G28 ; home all axes
M109 S235 ; wait for temperature to be reached
G90 ; use absolute coordinates
G92 E0
M82 ; use absolute distances for extrusion
G1 F1800.000 E-1.00000
G92 E0
G1 Z0.350 F7800.000
G1 X37.480 Y83.369 F7800.000
G1 E1.00000 F1800.000
G1 X38.730 Y82.999 E1.04034 F900.000
G1 X55.310 Y79.759 E1.56305
G1 X55.780 Y79.679 E1.57780
G1 X57.680 Y79.449 E1.63702
G1 X58.480 Y79.409 E1.66180
G1 X132.480 Y79.409 E3.95146
G1 X133.130 Y79.439 E3.97159
G1 X133.770 Y79.529 E3.99159
G1 X151.290 Y82.999 E4.54421
G1 X152.530 Y83.379 E4.58434
G1 X153.680 Y83.989 E4.62462
G1 X154.680 Y84.809 E4.66463
G1 X155.510 Y85.819 E4.70508
G1 X156.120 Y86.959 E4.74508
G1 X156.500 Y88.209 E4.78551
G1 X156.620 Y89.499 E4.82560
G1 X156.620 Y100.499 E5.16595
G1 X156.500 Y101.789 E5.20604
G1 X156.120 Y103.039 E5.24646
G1 X155.510 Y104.179 E5.28647
G1 X154.680 Y105.189 E5.32692
G1 X153.680 Y106.009 E5.36693
G1 X152.530 Y106.619 E5.40721
G1 X151.290 Y106.999 E5.44734
G1 X133.770 Y110.469 E5.99996
G1 X133.130 Y110.559 E6.01995
G1 X132.480 Y110.589 E6.04009
G1 X58.480 Y110.589 E8.32975
G1 X57.680 Y110.549 E8.35453
G1 X55.780 Y110.319 E8.41375
G1 X38.730 Y106.999 E8.95120
G1 X37.480 Y106.629 E8.99154
G1 X36.330 Y106.019 E9.03182
G1 X35.320 Y105.189 E9.07227
G1 X34.500 Y104.189 E9.11228
G1 X33.880 Y103.039 E9.15271
G1 X33.500 Y101.799 E9.19283
G1 X33.380 Y100.499 E9.23323
G1 X33.380 Y89.499 E9.57358
G1 X33.500 Y88.199 E9.61398
G1 X33.880 Y86.959 E9.65411
G1 X34.500 Y85.809 E9.69453
G1 X35.320 Y84.809 E9.73454
G1 X36.330 Y83.979 E9.77499
G1 X37.397 Y83.413 E9.81237
G1 F1800.000 E8.81237
G92 E0
G1 X129.848 Y88.964 F7800.000
G1 E1.00000 F1800.000
G1 X131.469 Y87.671 E1.06413 F540.000
G1 X133.489 Y88.133 E1.12826
G1 X134.388 Y90.000 E1.19239
G1 X133.489 Y91.867 E1.25652
G1 X131.469 Y92.329 E1.32065
G1 X129.848 Y91.036 E1.38478
G1 X129.848 Y89.057 E1.44601
G1 X129.577 Y88.401 F7800.000
G1 F1800.000 E0.44601
G92 E0
G1 X60.388 Y90.000 F7800.000
G1 E1.00000 F1800.000
G1 X59.489 Y91.867 E1.06413 F540.000
G1 X57.469 Y92.329 E1.12826
G1 X55.848 Y91.036 E1.19239
G1 X55.848 Y88.964 E1.25652
G1 X57.469 Y87.671 E1.32065
G1 X59.489 Y88.133 E1.38478
G1 X60.348 Y89.916 E1.44601
G1 X60.877 Y90.390 F7800.000
G1 F1800.000 E0.44601
G92 E0
G1 X139.650 Y91.150 F7800.000
G1 E1.00000 F1800.000
G1 X148.350 Y91.150 E1.26919 F540.000
G1 X148.350 Y98.850 E1.50744
G1 X139.650 Y98.850 E1.77663
G1 X139.650 Y91.244 E2.01197
G1 X139.650 Y90.525 F7800.000
G1 F1800.000 E1.01197
G92 E0
G1 X124.350 Y91.150 F7800.000
G1 E1.00000 F1800.000
G1 X124.350 Y98.850 E1.23825 F540.000
G1 X115.650 Y98.850 E1.50744
G1 X115.650 Y91.150 E1.74569
G1 X124.256 Y91.150 E2.01197
G1 X124.975 Y91.150 F7800.000
G1 X99.350 Y91.150 F7800.000
G1 X99.350 Y98.850 E2.25022 F540.000
G1 X90.650 Y98.850 E2.51941
G1 X90.650 Y91.150 E2.75766
G1 X99.256 Y91.150 E3.02395
G1 X99.975 Y91.150 F7800.000
G1 X74.350 Y91.150 F7800.000
G1 X74.350 Y98.850 E3.26220 F540.000
G1 X65.650 Y98.850 E3.53139
G1 X65.650 Y91.150 E3.76964
G1 X74.256 Y91.150 E4.03592
G1 X74.975 Y91.150 F7800.000
G1 F1800.000 E3.03592
G92 E0
G1 X50.350 Y91.150 F7800.000
G1 E1.00000 F1800.000
G1 X50.350 Y98.850 E1.23825 F540.000
G1 X41.650 Y98.850 E1.50744
G1 X41.650 Y91.150 E1.74569
G1 X50.256 Y91.150 E2.01197
G1 X50.975 Y91.150 F7800.000
G1 X57.307 Y97.800 F7800.000
G1 X57.469 Y97.671 E2.01836 F540.000
G1 X59.489 Y98.133 E2.08249
G1 X60.388 Y100.000 E2.14662
G1 X59.489 Y101.867 E2.21075
G1 X57.469 Y102.329 E2.27488
G1 X55.848 Y101.036 E2.33901
G1 X55.848 Y98.964 E2.40314
G1 X57.234 Y97.859 E2.45798
G1 X57.276 Y97.596 F7800.000
G1 F1800.000 E1.45798
G92 E0
G1 X129.848 Y98.964 F7800.000
G1 E1.00000 F1800.000
G1 X131.469 Y97.671 E1.06413 F540.000
G1 X133.489 Y98.133 E1.12826
G1 X134.388 Y100.000 E1.19239
G1 X133.489 Y101.867 E1.25652
G1 X131.469 Y102.329 E1.32065
G1 X129.848 Y101.036 E1.38478
G1 X129.848 Y99.057 E1.44601
G1 X129.577 Y98.401 F7800.000
G1 X114.400 Y98.900 F7800.000
G1 X100.600 Y98.900 E1.87301 F900.000
G1 X100.600 Y91.100 E2.11437
G1 X114.400 Y91.100 E2.54137
G1 X114.400 Y98.806 E2.77983
G1 X115.025 Y99.525 F7800.000
G1 X99.975 Y99.525 E3.24550 F900.000
G1 X99.975 Y90.475 E3.52553
G1 X115.025 Y90.475 E3.99120
G1 X115.025 Y99.431 E4.26833
G1 X125.600 Y98.900 F7800.000
G1 X125.600 Y91.100 E4.50968 F900.000
G1 X128.598 Y91.100 E4.60246
G1 X128.598 Y91.638 E4.61912
G1 X131.160 Y93.681 E4.72050
G1 X134.354 Y92.952 E4.82187
G1 X135.246 Y91.100 E4.88548
G1 X138.400 Y91.100 E4.98307
G1 X138.400 Y98.900 E5.22443
G1 X135.246 Y98.900 E5.32202
G1 X134.354 Y97.048 E5.38563
G1 X131.160 Y96.319 E5.48700
G1 X128.598 Y98.362 E5.58838
G1 X128.598 Y98.900 E5.60504
G1 X125.694 Y98.900 E5.69492
G1 X124.975 Y99.525 F7800.000
G1 X124.975 Y90.475 E5.97494 F900.000
G1 X129.223 Y90.475 E6.10639
G1 X129.223 Y91.337 E6.13307
G1 X131.314 Y93.005 E6.21583
G1 X133.922 Y92.410 E6.29858
G1 X134.853 Y90.475 E6.36502
G1 X139.025 Y90.475 E6.49410
G1 X139.025 Y99.525 E6.77413
G1 X134.853 Y99.525 E6.90321
G1 X133.922 Y97.590 E6.96965
G1 X131.314 Y96.995 E7.05240
G1 X129.223 Y98.663 E7.13515
G1 X129.223 Y99.525 E7.16184
G1 X125.069 Y99.525 E7.29038
G1 X89.400 Y98.900 F7800.000
G1 X75.600 Y98.900 E7.71739 F900.000
G1 X75.600 Y91.100 E7.95874
G1 X89.400 Y91.100 E8.38575
G1 X89.400 Y98.806 E8.62420
G1 X90.025 Y99.525 F7800.000
G1 X74.975 Y99.525 E9.08988 F900.000
G1 X74.975 Y90.475 E9.36990
G1 X90.025 Y90.475 E9.83558
G1 X90.025 Y99.431 E10.11270
G1 X64.400 Y98.900 F7800.000
G1 X61.246 Y98.900 E10.21030 F900.000
G1 X60.354 Y97.048 E10.27390
G1 X57.160 Y96.319 E10.37528
G1 X54.598 Y98.362 E10.47665
G1 X54.598 Y98.900 E10.49331
G1 X51.600 Y98.900 E10.58609
G1 X51.600 Y91.100 E10.82745
G1 X54.598 Y91.100 E10.92023
G1 X54.598 Y91.638 E10.93688
G1 X57.160 Y93.681 E11.03826
G1 X60.354 Y92.952 E11.13963
G1 X61.246 Y91.100 E11.20324
G1 X64.400 Y91.100 E11.30084
G1 X64.400 Y98.806 E11.53929
G1 X65.025 Y99.525 F7800.000
G1 X60.853 Y99.525 E11.66837 F900.000
G1 X59.922 Y97.590 E11.73481
G1 X57.314 Y96.995 E11.81757
G1 X55.223 Y98.663 E11.90032
G1 X55.223 Y99.525 E11.92700
G1 X50.975 Y99.525 E12.05845
G1 X50.975 Y90.475 E12.33848
G1 X55.223 Y90.475 E12.46992
G1 X55.223 Y91.337 E12.49661
G1 X57.314 Y93.005 E12.57936
G1 X59.922 Y92.410 E12.66211
G1 X60.853 Y90.475 E12.72855
G1 X65.025 Y90.475 E12.85763
G1 X65.025 Y99.431 E13.13476
G1 X61.603 Y100.150 F7800.000
G1 X61.223 Y101.691 E13.18388 F630.000
G1 X60.068 Y102.995 E13.23778
G1 X58.439 Y103.613 E13.29168
G1 X56.709 Y103.403 E13.34558
G1 X55.276 Y102.413 E13.39948
G1 X54.466 Y100.871 E13.45338
G1 X54.466 Y100.150 E13.47569
G1 X40.350 Y100.150 E13.91246
G1 X40.350 Y89.850 E14.23115
G1 X54.466 Y89.850 E14.66793
G1 X54.466 Y89.129 E14.69024
G1 X55.276 Y87.587 E14.74414
G1 X56.709 Y86.597 E14.79804
G1 X58.439 Y86.387 E14.85193
G1 X60.068 Y87.005 E14.90584
G1 X61.223 Y88.309 E14.95973
G1 X61.603 Y89.850 E15.00885
G1 X128.466 Y89.850 E17.07770
G1 X128.466 Y89.129 E17.10001
G1 X129.276 Y87.587 E17.15391
G1 X130.709 Y86.597 E17.20781
G1 X132.439 Y86.387 E17.26171
G1 X134.068 Y87.005 E17.31561
G1 X135.223 Y88.309 E17.36951
G1 X135.603 Y89.850 E17.41863
G1 X149.650 Y89.850 E17.85327
G1 X149.650 Y100.150 E18.17197
G1 X135.603 Y100.150 E18.60661
G1 X135.223 Y101.691 E18.65573
G1 X134.068 Y102.995 E18.70963
G1 X132.439 Y103.613 E18.76353
G1 X130.709 Y103.403 E18.81743
G1 X129.276 Y102.413 E18.87133
G1 X128.466 Y100.871 E18.92523
G1 X128.466 Y100.150 E18.94754
G1 X61.696 Y100.150 E21.01349
G1 X60.986 Y100.050 F7800.000
G1 X101.063 Y98.457 F7800.000
G1 X101.043 Y98.437 E21.01438 F1080.000
G1 X101.043 Y97.538 E21.04270
G1 X101.962 Y98.457 E21.08366
G1 X102.862 Y98.457 E21.11198
G1 X101.043 Y96.638 E21.19300
G1 X101.043 Y95.739 E21.22133
G1 X103.761 Y98.457 E21.34240
G1 X104.661 Y98.457 E21.37073
G1 X101.043 Y94.839 E21.53187
G1 X101.043 Y93.940 E21.56020
G1 X105.560 Y98.457 E21.76139
G1 X106.460 Y98.457 E21.78972
G1 X101.043 Y93.040 E22.03098
G1 X101.043 Y92.141 E22.05931
G1 X107.359 Y98.457 E22.34063
G1 X108.259 Y98.457 E22.36896
G1 X101.344 Y91.543 E22.67692
G1 X102.244 Y91.543 E22.70524
G1 X109.158 Y98.457 E23.01320
G1 X110.058 Y98.457 E23.04153
G1 X103.143 Y91.543 E23.34948
G1 X104.043 Y91.543 E23.37781
G1 X110.957 Y98.457 E23.68576
G1 X111.857 Y98.457 E23.71409
G1 X104.942 Y91.543 E24.02204
G1 X105.842 Y91.543 E24.05037
G1 X112.756 Y98.457 E24.35833
G1 X113.656 Y98.457 E24.38665
G1 X106.741 Y91.543 E24.69461
G1 X107.641 Y91.543 E24.72294
G1 X113.957 Y97.859 E25.00426
G1 X113.957 Y96.960 E25.03259
G1 X108.540 Y91.543 E25.27385
G1 X109.440 Y91.543 E25.30217
G1 X113.957 Y96.060 E25.50337
G1 X113.957 Y95.161 E25.53170
G1 X110.339 Y91.543 E25.69284
G1 X111.239 Y91.543 E25.72117
G1 X113.957 Y94.261 E25.84224
G1 X113.957 Y93.362 E25.87057
G1 X112.138 Y91.543 E25.95158
G1 X113.038 Y91.543 E25.97991
G1 X113.957 Y92.462 E26.02086
G1 X113.957 Y91.563 E26.04919
G1 X113.937 Y91.543 E26.05008
G1 F1800.000 E25.05008
G92 E0
G1 X126.063 Y98.457 F7800.000
G1 E1.00000 F1800.000
G1 X126.043 Y98.437 E1.00089 F1080.000
G1 X126.043 Y97.542 E1.02891
G1 X126.958 Y98.457 E1.06944
G1 X127.852 Y98.457 E1.09746
G1 X126.043 Y96.648 E1.17762
G1 X126.043 Y95.753 E1.20565
G1 X128.313 Y98.023 E1.30621
G1 X128.810 Y97.626 E1.32615
G1 X126.043 Y94.858 E1.44876
G1 X126.043 Y93.964 E1.47679
G1 X129.308 Y97.229 E1.62145
G1 X129.806 Y96.832 E1.64139
G1 X126.043 Y93.069 E1.80810
G1 X126.043 Y92.174 E1.83613
G1 X130.304 Y96.435 E2.02490
G1 X130.801 Y96.038 E2.04484
G1 X126.306 Y91.543 E2.24399
G1 X127.201 Y91.543 E2.27202
G1 X131.630 Y95.972 E2.46823
G1 X132.789 Y96.236 E2.50548
G1 X129.384 Y92.832 E2.65633
G1 X128.155 Y91.603 F7800.000
G1 X128.095 Y91.543 E2.65898 F1080.000
G1 X131.504 Y94.057 F7800.000
G1 X133.948 Y96.501 E2.76726 F1080.000
G1 X135.171 Y97.724 F7800.000
G1 X135.905 Y98.457 E2.79975 F1080.000
G1 X136.799 Y98.457 E2.82778
G1 X132.233 Y93.891 E3.03008
G1 X132.961 Y93.724 E3.05349
G1 X137.694 Y98.457 E3.26316
G1 X137.957 Y97.826 E3.28460
G1 X133.689 Y93.558 E3.47366
G1 X134.418 Y93.392 E3.49707
G1 X137.957 Y96.931 E3.65386
G1 X137.957 Y96.036 E3.68189
G1 X134.855 Y92.934 E3.81934
G1 X135.145 Y92.330 E3.84033
G1 X137.957 Y95.142 E3.96490
G1 X137.957 Y94.247 E3.99293
G1 X135.436 Y91.726 E4.10461
G1 X136.148 Y91.543 E4.12763
G1 X137.957 Y93.352 E4.20779
G1 X137.957 Y92.457 E4.23581
G1 X137.042 Y91.543 E4.27634
G1 X137.937 Y91.543 E4.30436
G1 X137.957 Y91.563 E4.30525
G1 X139.468 Y90.342 F7800.000
G1 X139.833 Y90.708 E4.31293 F360.000
G1 X139.842 Y90.292 F7800.000
G1 X139.468 Y90.342 E4.31855 F360.000
G1 X139.842 Y90.292 F7800.000
G1 X140.258 Y90.708 E4.32729 F360.000
G1 X140.267 Y90.292 E4.33346 F360.000
G1 X140.682 Y90.708 E4.34219 F360.000
G1 X140.692 Y90.292 E4.34837 F360.000
G1 X141.107 Y90.708 E4.35710 F360.000
G1 X141.117 Y90.292 E4.36327 F360.000
G1 X141.532 Y90.708 E4.37200 F360.000
G1 X141.542 Y90.292 E4.37818 F360.000
G1 X141.957 Y90.708 E4.38691 F360.000
G1 X141.966 Y90.292 E4.39309 F360.000
G1 X142.381 Y90.708 E4.40182 F360.000
G1 X142.391 Y90.292 E4.40799 F360.000
G1 X142.806 Y90.708 E4.41672 F360.000
G1 X142.816 Y90.292 E4.42290 F360.000
G1 X143.231 Y90.708 E4.43163 F360.000
G1 X143.241 Y90.292 E4.43781 F360.000
G1 X143.656 Y90.708 E4.44654 F360.000
G1 X143.665 Y90.292 E4.45271 F360.000
G1 X144.081 Y90.708 E4.46144 F360.000
G1 X144.090 Y90.292 E4.46762 F360.000
G1 X144.505 Y90.708 E4.47635 F360.000
G1 X144.515 Y90.292 E4.48253 F360.000
G1 X144.930 Y90.708 E4.49126 F360.000
G1 X144.940 Y90.292 E4.49743 F360.000
G1 X145.355 Y90.708 E4.50616 F360.000
G1 X145.365 Y90.292 E4.51234 F360.000
G1 X145.780 Y90.708 E4.52107 F360.000
G1 X145.789 Y90.292 E4.52725 F360.000
G1 X146.204 Y90.708 E4.53598 F360.000
G1 X146.214 Y90.292 E4.54215 F360.000
G1 X146.629 Y90.708 E4.55088 F360.000
G1 X146.639 Y90.292 E4.55706 F360.000
G1 X147.054 Y90.708 E4.56579 F360.000
G1 X147.064 Y90.292 E4.57197 F360.000
G1 X147.479 Y90.708 E4.58070 F360.000
G1 X147.488 Y90.292 E4.58687 F360.000
G1 X147.904 Y90.708 E4.59560 F360.000
G1 X147.913 Y90.292 E4.60178 F360.000
G1 X148.328 Y90.708 E4.61051 F360.000
G1 X148.338 Y90.292 E4.61668 F360.000
G1 X148.753 Y90.708 E4.62542 F360.000
G1 X148.792 Y90.747 E4.62624 F360.000
G1 X149.208 Y91.162 E4.63497 F360.000
G1 X148.792 Y91.172 E4.64115 F360.000
G1 X149.208 Y91.587 E4.64988 F360.000
G1 X148.792 Y91.596 E4.65606 F360.000
G1 X149.208 Y92.012 E4.66479 F360.000
G1 X148.792 Y92.021 E4.67096 F360.000
G1 X149.208 Y92.436 E4.67969 F360.000
G1 X148.792 Y92.446 E4.68587 F360.000
G1 X149.208 Y92.861 E4.69460 F360.000
G1 X148.792 Y92.871 E4.70078 F360.000
G1 X149.208 Y93.286 E4.70951 F360.000
G1 X148.792 Y93.296 E4.71568 F360.000
G1 X149.208 Y93.711 E4.72441 F360.000
G1 X148.792 Y93.720 E4.73059 F360.000
G1 X149.208 Y94.135 E4.73932 F360.000
G1 X148.792 Y94.145 E4.74550 F360.000
G1 X149.208 Y94.560 E4.75423 F360.000
G1 X148.792 Y94.570 E4.76040 F360.000
G1 X149.208 Y94.985 E4.76913 F360.000
G1 X148.792 Y94.995 E4.77531 F360.000
G1 X149.208 Y95.410 E4.78404 F360.000
G1 X148.792 Y95.419 E4.79021 F360.000
G1 X149.208 Y95.835 E4.79895 F360.000
G1 X148.792 Y95.844 E4.80512 F360.000
G1 X149.208 Y96.259 E4.81385 F360.000
G1 X148.792 Y96.269 E4.82003 F360.000
G1 X149.208 Y96.684 E4.82876 F360.000
G1 X148.792 Y96.694 E4.83493 F360.000
G1 X149.208 Y97.109 E4.84367 F360.000
G1 X148.792 Y97.119 E4.84984 F360.000
G1 X149.208 Y97.534 E4.85857 F360.000
G1 X148.792 Y97.543 E4.86475 F360.000
G1 X149.208 Y97.958 E4.87348 F360.000
G1 X148.792 Y97.968 E4.87965 F360.000
G1 X149.208 Y98.383 E4.88838 F360.000
G1 X148.792 Y98.393 E4.89456 F360.000
G1 X149.208 Y98.808 E4.90329 F360.000
G1 X148.792 Y98.818 E4.90947 F360.000
G1 X149.208 Y99.233 E4.91820 F360.000
G1 X148.792 Y99.242 E4.92437 F360.000
G1 X149.208 Y99.658 E4.93310 F360.000
G1 X148.833 Y99.708 E4.93873 F360.000
G1 X148.418 Y99.292 E4.94746 F360.000
G1 X148.408 Y99.708 E4.95363 F360.000
G1 X147.993 Y99.292 E4.96237 F360.000
G1 X147.983 Y99.708 E4.96854 F360.000
G1 X147.568 Y99.292 E4.97727 F360.000
G1 X147.558 Y99.708 E4.98345 F360.000
G1 X147.143 Y99.292 E4.99218 F360.000
G1 X147.134 Y99.708 E4.99835 F360.000
G1 X146.718 Y99.292 E5.00709 F360.000
G1 X146.709 Y99.708 E5.01326 F360.000
G1 X146.294 Y99.292 E5.02199 F360.000
G1 X146.284 Y99.708 E5.02817 F360.000
G1 X145.869 Y99.292 E5.03690 F360.000
G1 X145.859 Y99.708 E5.04307 F360.000
G1 X145.444 Y99.292 E5.05181 F360.000
G1 X145.434 Y99.708 E5.05798 F360.000
G1 X145.019 Y99.292 E5.06671 F360.000
G1 X145.010 Y99.708 E5.07289 F360.000
G1 X144.595 Y99.292 E5.08162 F360.000
G1 X144.585 Y99.708 E5.08779 F360.000
G1 X144.170 Y99.292 E5.09652 F360.000
G1 X144.160 Y99.708 E5.10270 F360.000
G1 X143.745 Y99.292 E5.11143 F360.000
G1 X143.735 Y99.708 E5.11761 F360.000
G1 X143.320 Y99.292 E5.12634 F360.000
G1 X143.311 Y99.708 E5.13251 F360.000
G1 X142.895 Y99.292 E5.14124 F360.000
G1 X142.886 Y99.708 E5.14742 F360.000
G1 X142.471 Y99.292 E5.15615 F360.000
G1 X142.461 Y99.708 E5.16233 F360.000
G1 X142.046 Y99.292 E5.17106 F360.000
G1 X142.036 Y99.708 E5.17723 F360.000
G1 X141.621 Y99.292 E5.18596 F360.000
G1 X141.611 Y99.708 E5.19214 F360.000
G1 X141.196 Y99.292 E5.20087 F360.000
G1 X141.187 Y99.708 E5.20705 F360.000
G1 X140.772 Y99.292 E5.21578 F360.000
G1 X140.762 Y99.708 E5.22195 F360.000
G1 X140.347 Y99.292 E5.23068 F360.000
G1 X140.337 Y99.708 E5.23686 F360.000
G1 X139.922 Y99.292 E5.24559 F360.000
G1 X139.912 Y99.708 E5.25177 F360.000
G1 X139.497 Y99.292 E5.26050 F360.000
G1 X139.468 Y99.688 E5.26639 F360.000
G1 X139.488 Y99.708 E5.26681 F360.000
