; generated by Slic3r 0.8.2 on 2014-05-28 at 16:46:34

; layer_height = 0.25
; perimeters = 3
; solid_layers = 3
; fill_density = 0.3
; nozzle_diameter = 0.35
; filament_diameter = 3
; extrusion_multiplier = 1
; perimeter_speed = 60
; infill_speed = 80
; travel_speed = 150
; extrusion_width_ratio = 0
; scale = 1
; single wall width = 0.39mm

M107
G28 ; home all axes
G90 ; use absolute coordinates
G21 ; set units to millimeters
G92 E0 ; reset extrusion distance
M82 ; use absolute distances for extrusion
G1 Z1.100 F9000.000
G1 X28.500 Y40.730
G1 F1800.000 E1.00000
G1 X54.450 Y37.710 F1080.000 E1.42671
G1 X54.990 Y37.690 E1.43554
G1 X135.510 Y37.710 E2.75070
G1 X162.000 Y40.810 E3.18632
G1 X162.740 Y41.010 E3.19884
G1 X163.220 Y41.200 E3.20727
G1 X163.680 Y41.430 E3.21567
G1 X164.120 Y41.690 E3.22402
G1 X164.540 Y42.000 E3.23255
G1 X165.110 Y42.510 E3.24504
G1 X165.610 Y43.100 E3.25767
G1 X165.900 Y43.520 E3.26601
G1 X166.030 Y43.740 E3.27018
G1 X166.260 Y44.200 E3.27858
G1 X166.450 Y44.680 E3.28701
G1 X166.600 Y45.170 E3.29538
G1 X166.710 Y45.670 E3.30374
G1 X166.780 Y46.180 E3.31215
G1 X166.780 Y146.810 E4.95578
G1 X166.670 Y147.560 E4.96816
G1 X166.540 Y148.060 E4.97659
G1 X166.370 Y148.540 E4.98491
G1 X166.160 Y149.000 E4.99317
G1 X166.040 Y149.230 E4.99741
G1 X165.910 Y149.450 E5.00158
G1 X165.470 Y150.070 E5.01400
G1 X165.130 Y150.450 E5.02233
G1 X164.950 Y150.630 E5.02649
G1 X164.570 Y150.970 E5.03481
G1 X163.950 Y151.410 E5.04723
G1 X163.730 Y151.540 E5.05141
G1 X163.270 Y151.770 E5.05981
G1 X162.800 Y151.960 E5.06809
G1 X162.310 Y152.110 E5.07646
G1 X162.060 Y152.170 E5.08066
G1 X161.310 Y152.280 E5.09304
G1 X160.800 Y152.300 E5.10137
G1 X28.680 Y152.280 E7.25933
G1 X27.930 Y152.170 E7.27171
G1 X27.430 Y152.040 E7.28015
G1 X26.950 Y151.870 E7.28847
G1 X26.490 Y151.660 E7.29673
G1 X26.260 Y151.540 E7.30097
G1 X26.040 Y151.410 E7.30514
G1 X25.420 Y150.970 E7.31756
G1 X25.040 Y150.630 E7.32589
G1 X24.860 Y150.450 E7.33004
G1 X24.520 Y150.070 E7.33837
G1 X24.080 Y149.450 E7.35079
G1 X23.950 Y149.230 E7.35496
G1 X23.720 Y148.770 E7.36336
G1 X23.530 Y148.300 E7.37164
G1 X23.380 Y147.810 E7.38001
G1 X23.320 Y147.560 E7.38421
G1 X23.210 Y146.810 E7.39659
G1 X23.210 Y46.180 E9.04022
G1 X23.280 Y45.670 E9.04863
G1 X23.390 Y45.170 E9.05699
G1 X23.540 Y44.680 E9.06536
G1 X23.730 Y44.200 E9.07379
G1 X23.960 Y43.740 E9.08219
G1 X24.090 Y43.520 E9.08636
G1 X24.380 Y43.100 E9.09470
G1 X24.880 Y42.510 E9.10733
G1 X25.450 Y42.000 E9.11982
G1 X25.870 Y41.690 E9.12835
G1 X26.310 Y41.430 E9.13670
G1 X26.770 Y41.200 E9.14510
G1 X27.250 Y41.010 E9.15353
G1 X27.990 Y40.810 E9.16605
G1 X28.442 Y40.739 E9.17352
G1 F1800.000 E8.17352
G92 E0
G1 X34.177 Y131.876 F9000.000
G1 F1800.000 E1.00000
G1 X43.624 Y141.323 F720.000 E1.21821
G1 X43.073 Y142.653 E1.24172
G1 X32.847 Y142.653 E1.40875
G1 X32.847 Y132.427 E1.57577
G1 X34.123 Y131.898 E1.59832
G1 X34.089 Y132.320 F9000.000
G1 X43.180 Y141.411 F720.000 E1.80830
G1 X42.822 Y142.276 E1.82359
G1 X33.224 Y142.276 E1.98034
G1 X33.224 Y132.678 E2.13709
G1 X34.034 Y132.343 E2.15141
G1 X34.000 Y132.765 F9000.000
G1 X42.735 Y141.500 F720.000 E2.35317
G1 X42.570 Y141.899 E2.36022
G1 X33.601 Y141.899 E2.50671
G1 X33.601 Y132.930 E2.65319
G1 X33.946 Y132.788 E2.65928
G1 F1800.000 E1.65928
G92 E0
G1 X33.049 Y128.066 F9000.000
G1 F1800.000 E1.00000
G1 X33.049 Y64.934 F1080.000 E2.03114
G1 X47.434 Y50.549 E2.36343
G1 X142.566 Y50.549 E3.91724
G1 X156.951 Y64.934 E4.24953
G1 X156.951 Y128.066 E5.28067
G1 X142.566 Y142.451 E5.61296
G1 X47.434 Y142.451 E7.16676
G1 X33.091 Y128.107 E7.49809
G1 X33.426 Y127.909 F9000.000
G1 X33.426 Y65.091 F1080.000 E8.52413
G1 X47.591 Y50.926 E8.85132
G1 X142.409 Y50.926 E10.40002
G1 X156.574 Y65.091 E10.72721
G1 X156.574 Y127.909 E11.75325
G1 X142.409 Y142.074 E12.08044
G1 X47.591 Y142.074 E13.62915
G1 X33.468 Y127.951 E13.95537
G1 X33.803 Y127.753 F9000.000
G1 X33.803 Y65.247 F1080.000 E14.97631
G1 X47.747 Y51.303 E15.29840
G1 X142.253 Y51.303 E16.84200
G1 X156.197 Y65.247 E17.16409
G1 X156.197 Y127.753 E18.18503
G1 X142.253 Y141.697 E18.50712
G1 X47.747 Y141.697 E20.05073
G1 X33.845 Y127.795 E20.37185
G1 F1800.000 E19.37185
G92 E0
G1 X34.177 Y61.124 F9000.000
G1 F1800.000 E1.00000
G1 X32.847 Y60.573 F720.000 E1.02351
G1 X32.847 Y50.347 E1.19053
G1 X43.073 Y50.347 E1.35756
G1 X43.624 Y51.677 E1.38107
G1 X34.219 Y61.082 E1.59832
G1 X34.089 Y60.680 F9000.000
G1 X33.224 Y60.322 F720.000 E1.61360
G1 X33.224 Y50.724 E1.77035
G1 X42.822 Y50.724 E1.92711
G1 X43.180 Y51.589 E1.94239
G1 X34.131 Y60.638 E2.15141
G1 X34.000 Y60.235 F9000.000
G1 X33.601 Y60.070 F720.000 E2.15846
G1 X33.601 Y51.101 E2.30495
G1 X42.570 Y51.101 E2.45143
G1 X42.735 Y51.500 E2.45849
G1 X34.042 Y60.193 E2.65928
G1 F1800.000 E1.65928
G92 E0
G1 X146.376 Y51.677 F9000.000
G1 F1800.000 E1.00000
G1 X146.927 Y50.347 F720.000 E1.02351
G1 X157.153 Y50.347 E1.19053
G1 X157.153 Y60.573 E1.35756
G1 X155.823 Y61.124 E1.38107
G1 X146.418 Y51.719 E1.59832
G1 X146.820 Y51.589 F9000.000
G1 X147.178 Y50.724 F720.000 E1.61360
G1 X156.776 Y50.724 E1.77035
G1 X156.776 Y60.322 E1.92711
G1 X155.911 Y60.680 E1.94239
G1 X146.862 Y51.631 E2.15141
G1 X147.265 Y51.500 F9000.000
G1 X147.430 Y51.101 F720.000 E2.15846
G1 X156.399 Y51.101 E2.30495
G1 X156.399 Y60.070 E2.45143
G1 X156.000 Y60.235 E2.45849
G1 X147.307 Y51.542 E2.65928
G1 F1800.000 E1.65928
G92 E0
G1 X155.823 Y131.876 F9000.000
G1 F1800.000 E1.00000
G1 X157.153 Y132.427 F720.000 E1.02351
G1 X157.153 Y142.653 E1.19053
G1 X146.927 Y142.653 E1.35756
G1 X146.376 Y141.323 E1.38107
G1 X155.781 Y131.918 E1.59832
G1 X155.911 Y132.320 F9000.000
G1 X156.776 Y132.678 F720.000 E1.61360
G1 X156.776 Y142.276 E1.77035
G1 X147.178 Y142.276 E1.92711
G1 X146.820 Y141.411 E1.94239
G1 X155.869 Y132.362 E2.15141
G1 X156.000 Y132.765 F9000.000
G1 X156.399 Y132.930 F720.000 E2.15846
G1 X156.399 Y141.899 E2.30495
G1 X147.430 Y141.899 E2.45143
G1 X147.265 Y141.500 E2.45849
G1 X155.958 Y132.807 E2.65928
G1 F1800.000 E1.65928
G92 E0
G1 X160.049 Y145.549 F9000.000
G1 F1800.000 E1.00000
G1 X137.950 Y145.549 F1080.000 E1.36095
G1 X137.953 Y145.500 E1.36175
G1 X137.930 Y145.130 E1.36781
G1 X137.860 Y144.766 E1.37386
G1 X137.746 Y144.413 E1.37992
G1 X137.588 Y144.077 E1.38598
G1 X137.389 Y143.764 E1.39204
G1 X137.153 Y143.478 E1.39810
G1 X136.882 Y143.225 E1.40415
G1 X136.582 Y143.007 E1.41020
G1 X136.244 Y142.821 E1.41651
G1 X135.749 Y142.643 E1.42511
G1 X135.370 Y142.570 E1.43141
G1 X135.000 Y142.547 E1.43746
G1 X134.630 Y142.570 E1.44352
G1 X134.251 Y142.643 E1.44982
G1 X133.756 Y142.821 E1.45842
G1 X133.418 Y143.007 E1.46472
G1 X133.118 Y143.225 E1.47078
G1 X132.847 Y143.478 E1.47683
G1 X132.611 Y143.764 E1.48289
G1 X132.412 Y144.077 E1.48894
G1 X132.254 Y144.413 E1.49500
G1 X132.140 Y144.766 E1.50106
G1 X132.070 Y145.130 E1.50712
G1 X132.047 Y145.500 E1.51317
G1 X132.050 Y145.549 E1.51397
G1 X97.950 Y145.549 E2.07095
G1 X97.953 Y145.500 E2.07175
G1 X97.930 Y145.130 E2.07780
G1 X97.860 Y144.766 E2.08386
G1 X97.746 Y144.413 E2.08992
G1 X97.588 Y144.077 E2.09597
G1 X97.389 Y143.764 E2.10203
G1 X97.153 Y143.479 E2.10809
G1 X96.882 Y143.225 E2.11414
G1 X96.570 Y142.998 E2.12045
G1 X96.101 Y142.759 E2.12904
G1 X95.734 Y142.640 E2.13535
G1 X95.370 Y142.570 E2.14140
G1 X95.000 Y142.547 E2.14746
G1 X94.630 Y142.570 E2.15351
G1 X94.266 Y142.640 E2.15957
G1 X93.899 Y142.759 E2.16587
G1 X93.430 Y142.998 E2.17447
G1 X93.118 Y143.225 E2.18077
G1 X92.847 Y143.479 E2.18682
G1 X92.611 Y143.764 E2.19288
G1 X92.412 Y144.077 E2.19894
G1 X92.254 Y144.413 E2.20500
G1 X92.140 Y144.766 E2.21105
G1 X92.070 Y145.130 E2.21711
G1 X92.047 Y145.500 E2.22317
G1 X92.050 Y145.549 E2.22397
G1 X57.950 Y145.549 E2.78094
G1 X57.953 Y145.500 E2.78174
G1 X57.930 Y145.130 E2.78780
G1 X57.857 Y144.751 E2.79410
G1 X57.679 Y144.256 E2.80269
G1 X57.493 Y143.918 E2.80900
G1 X57.275 Y143.618 E2.81505
G1 X57.011 Y143.337 E2.82135
G1 X56.596 Y143.014 E2.82995
G1 X56.257 Y142.828 E2.83625
G1 X55.912 Y142.692 E2.84231
G1 X55.554 Y142.599 E2.84836
G1 X55.185 Y142.553 E2.85442
G1 X54.815 Y142.553 E2.86048
G1 X54.446 Y142.599 E2.86654
G1 X54.088 Y142.692 E2.87259
G1 X53.743 Y142.828 E2.87865
G1 X53.418 Y143.007 E2.88471
G1 X53.118 Y143.225 E2.89077
G1 X52.847 Y143.478 E2.89682
G1 X52.611 Y143.764 E2.90288
G1 X52.412 Y144.077 E2.90893
G1 X52.254 Y144.413 E2.91499
G1 X52.140 Y144.766 E2.92105
G1 X52.070 Y145.130 E2.92711
G1 X52.047 Y145.500 E2.93316
G1 X52.050 Y145.549 E2.93396
G1 X29.951 Y145.549 E3.29491
G1 X29.951 Y47.451 E4.89718
G1 X54.791 Y47.451 E5.30289
G1 X54.024 Y45.879 E5.33146
G1 X53.986 Y45.761 E5.33349
G1 X53.961 Y45.631 E5.33564
G1 X53.953 Y45.500 E5.33779
G1 X53.961 Y45.369 E5.33994
G1 X53.986 Y45.240 E5.34209
G1 X54.026 Y45.115 E5.34423
G1 X54.082 Y44.996 E5.34638
G1 X54.153 Y44.885 E5.34853
G1 X54.237 Y44.783 E5.35068
G1 X54.333 Y44.693 E5.35283
G1 X54.439 Y44.616 E5.35498
G1 X54.541 Y44.560 E5.35687
G1 X54.754 Y44.483 E5.36058
G1 X54.869 Y44.461 E5.36248
G1 X55.000 Y44.453 E5.36463
G1 X55.131 Y44.461 E5.36678
G1 X55.246 Y44.483 E5.36868
G1 X55.457 Y44.559 E5.37234
G1 X55.561 Y44.616 E5.37429
G1 X55.667 Y44.693 E5.37643
G1 X55.763 Y44.783 E5.37858
G1 X55.847 Y44.885 E5.38073
G1 X55.918 Y44.996 E5.38288
G1 X55.974 Y45.115 E5.38502
G1 X56.014 Y45.240 E5.38717
G1 X56.039 Y45.369 E5.38932
G1 X56.047 Y45.500 E5.39147
G1 X56.039 Y45.631 E5.39361
G1 X56.014 Y45.761 E5.39576
G1 X55.976 Y45.879 E5.39780
G1 X55.209 Y47.451 E5.42636
G1 X94.790 Y47.451 E6.07285
G1 X94.024 Y45.879 E6.10141
G1 X93.986 Y45.760 E6.10345
G1 X93.961 Y45.631 E6.10560
G1 X93.953 Y45.500 E6.10775
G1 X93.961 Y45.369 E6.10989
G1 X93.986 Y45.240 E6.11204
G1 X94.026 Y45.115 E6.11419
G1 X94.082 Y44.996 E6.11634
G1 X94.153 Y44.885 E6.11849
G1 X94.237 Y44.783 E6.12063
G1 X94.333 Y44.693 E6.12278
G1 X94.427 Y44.625 E6.12469
G1 X94.627 Y44.523 E6.12835
G1 X94.740 Y44.486 E6.13029
G1 X94.869 Y44.461 E6.13244
G1 X95.000 Y44.453 E6.13458
G1 X95.131 Y44.461 E6.13673
G1 X95.261 Y44.486 E6.13888
G1 X95.371 Y44.522 E6.14079
G1 X95.571 Y44.623 E6.14444
G1 X95.668 Y44.694 E6.14640
G1 X95.763 Y44.783 E6.14854
G1 X95.847 Y44.885 E6.15068
G1 X95.918 Y44.996 E6.15283
G1 X95.974 Y45.115 E6.15498
G1 X96.014 Y45.240 E6.15713
G1 X96.039 Y45.369 E6.15927
G1 X96.047 Y45.500 E6.16142
G1 X96.039 Y45.631 E6.16357
G1 X96.014 Y45.760 E6.16572
G1 X95.976 Y45.879 E6.16776
G1 X95.210 Y47.451 E6.19632
G1 X134.791 Y47.451 E6.84280
G1 X134.024 Y45.879 E6.87137
G1 X133.986 Y45.761 E6.87340
G1 X133.961 Y45.631 E6.87555
G1 X133.953 Y45.500 E6.87770
G1 X133.961 Y45.369 E6.87985
G1 X133.986 Y45.240 E6.88200
G1 X134.026 Y45.115 E6.88414
G1 X134.082 Y44.996 E6.88629
G1 X134.153 Y44.885 E6.88844
G1 X134.237 Y44.783 E6.89059
G1 X134.333 Y44.693 E6.89274
G1 X134.439 Y44.616 E6.89489
G1 X134.541 Y44.560 E6.89679
G1 X134.754 Y44.483 E6.90049
G1 X134.869 Y44.461 E6.90239
G1 X135.000 Y44.453 E6.90454
G1 X135.131 Y44.461 E6.90669
G1 X135.246 Y44.483 E6.90859
G1 X135.459 Y44.560 E6.91229
G1 X135.561 Y44.616 E6.91419
G1 X135.667 Y44.693 E6.91634
G1 X135.763 Y44.783 E6.91849
G1 X135.847 Y44.885 E6.92064
G1 X135.918 Y44.996 E6.92279
G1 X135.974 Y45.115 E6.92494
G1 X136.014 Y45.240 E6.92708
G1 X136.039 Y45.369 E6.92923
G1 X136.047 Y45.500 E6.93138
G1 X136.039 Y45.631 E6.93353
G1 X136.014 Y45.761 E6.93567
G1 X135.976 Y45.879 E6.93771
G1 X135.209 Y47.451 E6.96627
G1 X160.049 Y47.451 E7.37199
G1 X160.049 Y145.490 E8.97329
G1 X160.426 Y145.926 F9000.000
G1 X137.535 Y145.926 F1080.000 E9.34717
G1 X137.555 Y145.823 E9.34888
G1 X137.575 Y145.500 E9.35416
G1 X137.555 Y145.177 E9.35945
G1 X137.494 Y144.860 E9.36473
G1 X137.394 Y144.552 E9.37001
G1 X137.257 Y144.259 E9.37529
G1 X137.083 Y143.986 E9.38058
G1 X136.877 Y143.737 E9.38586
G1 X136.642 Y143.516 E9.39114
G1 X136.380 Y143.326 E9.39642
G1 X136.089 Y143.165 E9.40185
G1 X135.649 Y143.007 E9.40948
G1 X135.323 Y142.945 E9.41491
G1 X135.000 Y142.925 E9.42019
G1 X134.677 Y142.945 E9.42547
G1 X134.351 Y143.007 E9.43090
G1 X133.911 Y143.165 E9.43853
G1 X133.620 Y143.326 E9.44396
G1 X133.358 Y143.516 E9.44924
G1 X133.123 Y143.737 E9.45452
G1 X132.917 Y143.986 E9.45980
G1 X132.743 Y144.259 E9.46508
G1 X132.606 Y144.552 E9.47037
G1 X132.506 Y144.860 E9.47565
G1 X132.445 Y145.177 E9.48093
G1 X132.425 Y145.500 E9.48621
G1 X132.445 Y145.823 E9.49150
G1 X132.465 Y145.926 E9.49321
G1 X97.535 Y145.926 E10.06373
G1 X97.555 Y145.823 E10.06544
G1 X97.575 Y145.500 E10.07072
G1 X97.555 Y145.177 E10.07600
G1 X97.494 Y144.860 E10.08129
G1 X97.394 Y144.552 E10.08657
G1 X97.257 Y144.259 E10.09185
G1 X97.083 Y143.986 E10.09713
G1 X96.877 Y143.737 E10.10242
G1 X96.642 Y143.516 E10.10770
G1 X96.373 Y143.320 E10.11313
G1 X95.957 Y143.108 E10.12075
G1 X95.640 Y143.006 E10.12618
G1 X95.323 Y142.945 E10.13147
G1 X95.000 Y142.925 E10.13675
G1 X94.677 Y142.945 E10.14203
G1 X94.360 Y143.006 E10.14731
G1 X94.043 Y143.108 E10.15274
G1 X93.627 Y143.320 E10.16037
G1 X93.358 Y143.516 E10.16580
G1 X93.123 Y143.737 E10.17108
G1 X92.917 Y143.986 E10.17636
G1 X92.743 Y144.259 E10.18164
G1 X92.606 Y144.552 E10.18693
G1 X92.506 Y144.860 E10.19221
G1 X92.445 Y145.177 E10.19749
G1 X92.425 Y145.500 E10.20277
G1 X92.445 Y145.823 E10.20806
G1 X92.465 Y145.926 E10.20977
G1 X57.535 Y145.926 E10.78028
G1 X57.555 Y145.823 E10.78200
G1 X57.575 Y145.500 E10.78728
G1 X57.555 Y145.177 E10.79256
G1 X57.493 Y144.851 E10.79799
G1 X57.335 Y144.411 E10.80562
G1 X57.174 Y144.120 E10.81105
G1 X56.984 Y143.858 E10.81633
G1 X56.757 Y143.616 E10.82176
G1 X56.388 Y143.330 E10.82938
G1 X56.096 Y143.170 E10.83482
G1 X55.796 Y143.051 E10.84010
G1 X55.483 Y142.970 E10.84538
G1 X55.162 Y142.930 E10.85066
G1 X54.838 Y142.930 E10.85595
G1 X54.517 Y142.970 E10.86123
G1 X54.204 Y143.051 E10.86651
G1 X53.904 Y143.170 E10.87179
G1 X53.620 Y143.326 E10.87708
G1 X53.358 Y143.516 E10.88236
G1 X53.123 Y143.737 E10.88764
G1 X52.917 Y143.986 E10.89292
G1 X52.743 Y144.259 E10.89820
G1 X52.606 Y144.552 E10.90349
G1 X52.506 Y144.860 E10.90877
G1 X52.445 Y145.177 E10.91405
G1 X52.425 Y145.500 E10.91933
G1 X52.445 Y145.823 E10.92461
G1 X52.465 Y145.926 E10.92633
G1 X29.574 Y145.926 E11.30021
G1 X29.574 Y47.074 E12.91479
G1 X54.188 Y47.074 E13.31681
G1 X53.674 Y46.021 E13.33595
G1 X53.620 Y45.854 E13.33880
G1 X53.587 Y45.679 E13.34173
G1 X53.575 Y45.500 E13.34465
G1 X53.587 Y45.321 E13.34757
G1 X53.620 Y45.146 E13.35050
G1 X53.675 Y44.976 E13.35342
G1 X53.751 Y44.814 E13.35634
G1 X53.847 Y44.663 E13.35926
G1 X53.961 Y44.525 E13.36218
G1 X54.092 Y44.402 E13.36511
G1 X54.237 Y44.297 E13.36803
G1 X54.385 Y44.215 E13.37080
G1 X54.654 Y44.118 E13.37547
G1 X54.821 Y44.087 E13.37825
G1 X55.000 Y44.075 E13.38117
G1 X55.179 Y44.087 E13.38410
G1 X55.346 Y44.118 E13.38687
G1 X55.612 Y44.214 E13.39150
G1 X55.764 Y44.297 E13.39432
G1 X55.908 Y44.402 E13.39724
G1 X56.039 Y44.525 E13.40016
G1 X56.153 Y44.663 E13.40308
G1 X56.249 Y44.814 E13.40601
G1 X56.325 Y44.976 E13.40893
G1 X56.380 Y45.146 E13.41185
G1 X56.413 Y45.321 E13.41477
G1 X56.425 Y45.500 E13.41770
G1 X56.413 Y45.679 E13.42062
G1 X56.380 Y45.854 E13.42354
G1 X56.326 Y46.021 E13.42640
G1 X55.812 Y47.074 E13.44554
G1 X94.187 Y47.074 E14.07233
G1 X93.674 Y46.021 E14.09147
G1 X93.620 Y45.854 E14.09433
G1 X93.586 Y45.679 E14.09725
G1 X93.575 Y45.500 E14.10017
G1 X93.586 Y45.321 E14.10309
G1 X93.620 Y45.146 E14.10602
G1 X93.675 Y44.976 E14.10894
G1 X93.752 Y44.814 E14.11186
G1 X93.847 Y44.663 E14.11478
G1 X93.961 Y44.525 E14.11770
G1 X94.092 Y44.402 E14.12063
G1 X94.229 Y44.302 E14.12341
G1 X94.482 Y44.174 E14.12803
G1 X94.646 Y44.120 E14.13085
G1 X94.821 Y44.087 E14.13377
G1 X95.000 Y44.075 E14.13669
G1 X95.179 Y44.087 E14.13962
G1 X95.354 Y44.120 E14.14254
G1 X95.516 Y44.173 E14.14531
G1 X95.768 Y44.301 E14.14994
G1 X95.908 Y44.402 E14.15276
G1 X96.039 Y44.525 E14.15568
G1 X96.153 Y44.663 E14.15860
G1 X96.248 Y44.814 E14.16153
G1 X96.325 Y44.976 E14.16445
G1 X96.380 Y45.146 E14.16737
G1 X96.414 Y45.321 E14.17029
G1 X96.425 Y45.500 E14.17322
G1 X96.414 Y45.679 E14.17614
G1 X96.380 Y45.854 E14.17906
G1 X96.326 Y46.021 E14.18192
G1 X95.813 Y47.074 E14.20106
G1 X134.188 Y47.074 E14.82785
