; generated by Slic3r 1.0.0RC3 on 2014-03-25 at 19:36:05

; layer_height = 0.25
; perimeters = 3
; top_solid_layers = 3
; bottom_solid_layers = 3
; fill_density = 0.2
; perimeter_speed = 50
; infill_speed = 70
; travel_speed = 130
; nozzle_diameter = 0.35
; filament_diameter = 3
; extrusion_multiplier = 1
; perimeters extrusion width = 0.35mm
; infill extrusion width = 0.39mm
; solid infill extrusion width = 0.39mm
; top infill extrusion width = 0.39mm
; first layer extrusion width = 0.70mm

G21 ; set units to millimeters
M107
M190 S115 ; wait for bed temperature to be reached
M104 S235 ; set temperature
G28 ; home all axes
M109 S235 ; wait for temperature to be reached
G90 ; use absolute coordinates
G92 E0
M82 ; use absolute distances for extrusion
G1 F1800.000 E-1.00000
G92 E0
G1 Z0.350 F7800.000
G1 X80.260 Y80.578 F7800.000
G1 E1.00000 F1800.000
G1 X81.540 Y79.378 E1.05429 F900.000
G1 X82.180 Y78.848 E1.08000
G1 X83.600 Y77.818 E1.13428
G1 X84.290 Y77.378 E1.15960
G1 X85.830 Y76.528 E1.21402
G1 X86.590 Y76.168 E1.24004
G1 X88.230 Y75.518 E1.29463
G1 X89.050 Y75.258 E1.32124
G1 X90.750 Y74.828 E1.37550
G1 X91.540 Y74.678 E1.40038
G1 X93.290 Y74.458 E1.45496
G1 X94.120 Y74.408 E1.48068
G1 X95.870 Y74.408 E1.53483
G1 X96.700 Y74.458 E1.56056
G1 X98.450 Y74.678 E1.61513
G1 X99.240 Y74.828 E1.64001
G1 X100.940 Y75.258 E1.69427
G1 X101.760 Y75.518 E1.72089
G1 X103.400 Y76.168 E1.77547
G1 X104.160 Y76.528 E1.80149
G1 X105.700 Y77.378 E1.85592
G1 X106.390 Y77.818 E1.88124
G1 X107.810 Y78.848 E1.93551
G1 X108.450 Y79.378 E1.96123
G1 X109.730 Y80.578 E2.01551
G1 X110.310 Y81.198 E2.04178
G1 X111.430 Y82.558 E2.09630
G1 X111.910 Y83.218 E2.12155
G1 X112.850 Y84.698 E2.17580
G1 X113.250 Y85.418 E2.20128
G1 X114.000 Y87.008 E2.25568
G1 X114.310 Y87.778 E2.28136
G1 X114.860 Y89.458 E2.33605
G1 X115.070 Y90.308 E2.36315
G1 X115.390 Y92.028 E2.41728
G1 X115.490 Y92.788 E2.44100
G1 X115.610 Y94.548 E2.49558
G1 X115.610 Y95.448 E2.52343
G1 X115.490 Y97.198 E2.57770
G1 X115.390 Y97.948 E2.60111
G1 X115.070 Y99.678 E2.65555
G1 X114.850 Y100.548 E2.68331
G1 X114.300 Y102.218 E2.73772
G1 X114.000 Y102.978 E2.76300
G1 X113.250 Y104.568 E2.81739
G1 X112.860 Y105.268 E2.84219
G1 X111.920 Y106.758 E2.89670
G1 X111.420 Y107.458 E2.92331
G1 X110.300 Y108.808 E2.97759
G1 X109.730 Y109.408 E3.00319
G1 X108.450 Y110.608 E3.05748
G1 X107.830 Y111.118 E3.08232
G1 X106.410 Y112.158 E3.13678
G1 X105.670 Y112.638 E3.16407
G1 X104.130 Y113.478 E3.21835
G1 X103.400 Y113.818 E3.24327
G1 X101.760 Y114.468 E3.29785
G1 X100.980 Y114.718 E3.32320
G1 X99.280 Y115.158 E3.37753
G1 X98.450 Y115.318 E3.40368
G1 X96.700 Y115.538 E3.45826
G1 X95.870 Y115.588 E3.48398
G1 X94.120 Y115.588 E3.53813
G1 X93.290 Y115.538 E3.56386
G1 X91.540 Y115.318 E3.61843
G1 X90.710 Y115.158 E3.64459
G1 X89.010 Y114.718 E3.69892
G1 X88.230 Y114.468 E3.72426
G1 X86.590 Y113.818 E3.77885
G1 X85.860 Y113.478 E3.80377
G1 X84.320 Y112.638 E3.85804
G1 X83.580 Y112.158 E3.88533
G1 X82.160 Y111.118 E3.93979
G1 X81.540 Y110.608 E3.96463
G1 X80.260 Y109.408 E4.01892
G1 X79.690 Y108.808 E4.04453
G1 X78.570 Y107.458 E4.09880
G1 X78.070 Y106.758 E4.12542
G1 X77.130 Y105.268 E4.17993
G1 X76.740 Y104.568 E4.20472
G1 X75.990 Y102.978 E4.25912
G1 X75.690 Y102.218 E4.28440
G1 X75.140 Y100.548 E4.33880
G1 X74.920 Y99.678 E4.36657
G1 X74.600 Y97.948 E4.42101
G1 X74.500 Y97.168 E4.44534
G1 X74.390 Y95.418 E4.49959
G1 X74.390 Y94.588 E4.52527
G1 X74.500 Y92.828 E4.57984
G1 X74.600 Y92.028 E4.60478
G1 X74.920 Y90.308 E4.65891
G1 X75.130 Y89.458 E4.68600
G1 X75.680 Y87.778 E4.74070
G1 X75.990 Y87.008 E4.76638
G1 X76.740 Y85.418 E4.82078
G1 X77.140 Y84.698 E4.84626
G1 X78.080 Y83.218 E4.90051
G1 X78.560 Y82.558 E4.92576
G1 X79.680 Y81.198 E4.98028
G1 X80.196 Y80.646 E5.00365
G1 F1800.000 E4.00365
G92 E0
G1 X86.542 Y87.057 F7800.000
G1 E1.00000 F1800.000
G1 X87.604 Y86.060 E1.04509 F900.000
G1 X88.613 Y85.327 E1.08366
G1 X88.783 Y85.203 E1.09017
G1 X90.060 Y84.501 E1.13525
G1 X91.414 Y83.965 E1.18034
G1 X92.684 Y83.639 E1.22090
G1 X92.826 Y83.603 E1.22542
G1 X94.271 Y83.420 E1.27051
G1 X95.729 Y83.420 E1.31559
G1 X97.174 Y83.603 E1.36068
G1 X98.586 Y83.965 E1.40576
G1 X99.940 Y84.501 E1.45085
G1 X101.217 Y85.203 E1.49593
G1 X102.396 Y86.060 E1.54102
G1 X103.305 Y86.913 E1.57959
G1 X103.458 Y87.057 E1.58610
G1 X104.387 Y88.180 E1.63119
G1 X105.168 Y89.410 E1.67627
G1 X105.788 Y90.729 E1.72136
G1 X106.238 Y92.114 E1.76644
G1 X106.713 Y94.600 E1.84473
G1 X98.828 Y94.600 E2.08869
G1 X98.853 Y95.000 E2.10111
G1 X98.828 Y95.400 E2.11351
G1 X106.713 Y95.400 E2.35747
G1 X106.238 Y97.886 E2.43576
G1 X105.788 Y99.271 E2.48084
G1 X105.168 Y100.590 E2.52593
G1 X104.387 Y101.820 E2.57101
G1 X103.458 Y102.943 E2.61610
G1 X102.396 Y103.940 E2.66118
G1 X101.217 Y104.797 E2.70627
G1 X99.940 Y105.499 E2.75135
G1 X98.586 Y106.035 E2.79644
G1 X97.174 Y106.397 E2.84152
G1 X95.729 Y106.580 E2.88661
G1 X94.271 Y106.580 E2.93169
G1 X92.826 Y106.397 E2.97678
G1 X91.414 Y106.035 E3.02186
G1 X90.060 Y105.499 E3.06695
G1 X88.783 Y104.797 E3.11203
G1 X87.604 Y103.940 E3.15712
G1 X86.542 Y102.943 E3.20220
G1 X85.826 Y102.077 E3.23695
G1 X85.776 Y102.077 E3.23849
G1 X84.832 Y100.590 E3.29300
G1 X84.212 Y99.271 E3.33809
G1 X83.762 Y97.886 E3.38317
G1 X83.489 Y96.454 E3.42826
G1 X83.397 Y95.000 E3.47334
G1 X83.489 Y93.546 E3.51843
G1 X83.762 Y92.114 E3.56351
G1 X84.212 Y90.729 E3.60860
G1 X84.832 Y89.410 E3.65368
G1 X85.613 Y88.180 E3.69877
G1 X86.482 Y87.129 E3.74095
G1 X86.998 Y87.486 F7800.000
G1 X88.003 Y86.542 E3.78360 F900.000
G1 X88.980 Y85.833 E3.82096
G1 X89.118 Y85.732 E3.82625
G1 X90.326 Y85.068 E3.86891
G1 X91.608 Y84.560 E3.91156
G1 X92.840 Y84.244 E3.95090
G1 X94.311 Y84.045 E3.99684
G1 X95.689 Y84.045 E4.03949
G1 X97.057 Y84.218 E4.08214
G1 X98.392 Y84.560 E4.12479
G1 X99.674 Y85.068 E4.16745
G1 X100.882 Y85.732 E4.21010
G1 X101.997 Y86.542 E4.25275
G1 X102.877 Y87.369 E4.29010
G1 X103.002 Y87.486 E4.29540
G1 X103.880 Y88.548 E4.33805
G1 X104.619 Y89.712 E4.38071
G1 X105.206 Y90.959 E4.42336
G1 X105.632 Y92.270 E4.46601
G1 X105.957 Y93.975 E4.51971
G1 X98.083 Y93.975 E4.76335
G1 X98.201 Y94.596 E4.78289
G1 X98.227 Y95.000 E4.79544
G1 X98.201 Y95.405 E4.80798
G1 X98.083 Y96.025 E4.82752
G1 X105.957 Y96.025 E5.07116
G1 X105.632 Y97.730 E5.12486
G1 X105.206 Y99.041 E5.16751
G1 X104.619 Y100.288 E5.21016
G1 X103.880 Y101.452 E5.25281
G1 X103.002 Y102.514 E5.29547
G1 X101.997 Y103.458 E5.33812
G1 X100.882 Y104.268 E5.38077
G1 X99.674 Y104.932 E5.42342
G1 X98.392 Y105.440 E5.46607
G1 X97.057 Y105.782 E5.50873
G1 X95.689 Y105.955 E5.55138
G1 X94.311 Y105.955 E5.59403
G1 X92.943 Y105.782 E5.63668
G1 X91.608 Y105.440 E5.67933
G1 X90.326 Y104.932 E5.72199
G1 X89.118 Y104.268 E5.76464
G1 X88.003 Y103.458 E5.80729
G1 X86.998 Y102.514 E5.84994
G1 X86.120 Y101.452 E5.89258
G1 X85.381 Y100.288 E5.93525
G1 X84.794 Y99.041 E5.97790
G1 X84.368 Y97.730 E6.02055
G1 X84.110 Y96.376 E6.06320
G1 X84.023 Y95.000 E6.10585
G1 X84.110 Y93.624 E6.14851
G1 X84.368 Y92.270 E6.19116
G1 X84.794 Y90.959 E6.23381
G1 X85.381 Y89.712 E6.27646
G1 X86.120 Y88.548 E6.31911
G1 X86.938 Y87.558 E6.35887
G1 F1800.000 E5.35887
G92 E0
G1 X93.104 Y93.220 F7800.000
G1 E1.00000 F1800.000
G1 X93.342 Y92.996 E1.01011 F540.000
G1 X93.606 Y92.804 E1.02021
G1 X93.893 Y92.647 E1.03032
G1 X94.171 Y92.537 E1.03959
G1 X94.513 Y92.445 E1.05052
G1 X94.837 Y92.404 E1.06063
G1 X95.163 Y92.404 E1.07073
G1 X95.487 Y92.445 E1.08084
G1 X95.804 Y92.527 E1.09094
G1 X96.107 Y92.647 E1.10105
G1 X96.394 Y92.804 E1.11115
G1 X96.658 Y92.996 E1.12126
G1 X96.896 Y93.220 E1.13136
G1 X97.104 Y93.471 E1.14147
G1 X97.279 Y93.747 E1.15157
G1 X97.418 Y94.043 E1.16168
G1 X97.519 Y94.353 E1.17178
G1 X97.580 Y94.674 E1.18189
G1 X97.601 Y95.000 E1.19200
G1 X97.580 Y95.326 E1.20210
G1 X97.519 Y95.647 E1.21221
G1 X97.418 Y95.957 E1.22231
G1 X97.279 Y96.253 E1.23242
G1 X97.104 Y96.529 E1.24252
G1 X96.896 Y96.780 E1.25263
G1 X96.658 Y97.004 E1.26273
G1 X96.394 Y97.196 E1.27284
G1 X96.107 Y97.353 E1.28294
G1 X95.804 Y97.473 E1.29305
G1 X95.487 Y97.555 E1.30315
G1 X95.163 Y97.596 E1.31326
G1 X94.837 Y97.596 E1.32337
G1 X94.513 Y97.555 E1.33347
G1 X94.196 Y97.473 E1.34358
G1 X93.893 Y97.353 E1.35368
G1 X93.606 Y97.196 E1.36379
G1 X93.342 Y97.004 E1.37389
G1 X93.104 Y96.780 E1.38400
G1 X92.926 Y96.565 E1.39266
G1 X92.721 Y96.253 E1.40420
G1 X92.574 Y95.932 E1.41513
G1 X92.481 Y95.647 E1.42440
G1 X92.420 Y95.326 E1.43451
G1 X92.399 Y95.000 E1.44461
G1 X92.418 Y94.701 E1.45389
G1 X92.481 Y94.353 E1.46482
G1 X92.582 Y94.043 E1.47492
G1 X92.721 Y93.747 E1.48503
G1 X92.896 Y93.471 E1.49513
G1 X93.044 Y93.292 E1.50234
G1 X93.016 Y92.905 F7800.000
G1 X92.340 Y92.502 F7800.000
G1 X92.048 Y92.855 E1.51652 F630.000
G1 X91.802 Y93.242 E1.53070
G1 X91.607 Y93.657 E1.54488
G1 X91.465 Y94.092 E1.55906
G1 X91.379 Y94.543 E1.57324
G1 X91.351 Y95.000 E1.58742
G1 X91.379 Y95.457 E1.60160
G1 X91.465 Y95.908 E1.61578
G1 X91.607 Y96.343 E1.62996
G1 X91.802 Y96.758 E1.64414
G1 X92.048 Y97.145 E1.65832
G1 X92.340 Y97.498 E1.67250
G1 X92.674 Y97.812 E1.68668
G1 X93.045 Y98.081 E1.70086
G1 X93.446 Y98.302 E1.71504
G1 X93.872 Y98.471 E1.72922
G1 X94.316 Y98.585 E1.74340
G1 X94.771 Y98.642 E1.75758
G1 X95.229 Y98.642 E1.77176
G1 X95.684 Y98.585 E1.78594
G1 X96.128 Y98.471 E1.80012
G1 X96.554 Y98.302 E1.81430
G1 X96.955 Y98.081 E1.82848
G1 X97.326 Y97.812 E1.84266
G1 X97.660 Y97.498 E1.85684
G1 X97.952 Y97.145 E1.87102
G1 X98.266 Y96.650 E1.88916
G1 X105.202 Y96.650 E2.10374
G1 X105.026 Y97.574 E2.13285
G1 X104.624 Y98.810 E2.17307
G1 X104.070 Y99.986 E2.21329
G1 X103.374 Y101.084 E2.25351
G1 X102.545 Y102.086 E2.29373
G1 X101.598 Y102.975 E2.33395
G1 X100.546 Y103.739 E2.37417
G1 X99.407 Y104.366 E2.41439
G1 X98.199 Y104.844 E2.45461
G1 X96.940 Y105.167 E2.49483
G1 X95.650 Y105.330 E2.53504
G1 X94.350 Y105.330 E2.57526
G1 X93.060 Y105.167 E2.61548
G1 X91.801 Y104.844 E2.65570
G1 X90.593 Y104.366 E2.69592
G1 X89.454 Y103.739 E2.73614
G1 X88.402 Y102.975 E2.77636
G1 X87.455 Y102.086 E2.81658
G1 X86.626 Y101.084 E2.85680
G1 X85.930 Y99.986 E2.89702
G1 X85.376 Y98.810 E2.93724
G1 X84.974 Y97.574 E2.97745
G1 X84.731 Y96.297 E3.01767
G1 X84.649 Y95.000 E3.05789
G1 X84.731 Y93.703 E3.09811
G1 X84.974 Y92.426 E3.13833
G1 X85.376 Y91.190 E3.17855
G1 X85.930 Y90.014 E3.21877
G1 X86.626 Y88.916 E3.25899
G1 X87.455 Y87.914 E3.29921
G1 X88.402 Y87.025 E3.33943
G1 X89.454 Y86.261 E3.37965
G1 X90.593 Y85.634 E3.41986
G1 X91.801 Y85.156 E3.46008
G1 X93.060 Y84.833 E3.50030
G1 X94.350 Y84.670 E3.54052
G1 X95.650 Y84.670 E3.58074
G1 X96.940 Y84.833 E3.62096
G1 X98.199 Y85.156 E3.66118
G1 X99.407 Y85.634 E3.70140
G1 X100.546 Y86.261 E3.74162
G1 X101.598 Y87.025 E3.78184
G1 X102.545 Y87.914 E3.82206
G1 X103.374 Y88.916 E3.86227
G1 X104.070 Y90.014 E3.90249
G1 X104.624 Y91.190 E3.94271
G1 X105.026 Y92.426 E3.98293
G1 X105.202 Y93.350 E4.01204
G1 X98.266 Y93.350 E4.22663
G1 X97.952 Y92.855 E4.24477
G1 X97.660 Y92.502 E4.25895
G1 X97.326 Y92.188 E4.27313
G1 X96.955 Y91.919 E4.28731
G1 X96.554 Y91.698 E4.30149
G1 X96.128 Y91.529 E4.31567
G1 X95.684 Y91.415 E4.32985
G1 X95.229 Y91.358 E4.34403
G1 X94.771 Y91.358 E4.35821
G1 X94.316 Y91.415 E4.37239
G1 X93.872 Y91.529 E4.38657
G1 X93.446 Y91.698 E4.40075
G1 X93.045 Y91.919 E4.41493
G1 X92.674 Y92.188 E4.42911
G1 X92.408 Y92.438 E4.44039
G1 X92.481 Y92.938 F7800.000
G1 F1800.000 E3.44039
G92 E0
G1 X84.942 Y87.758 F7800.000
G1 E1.00000 F1800.000
G1 X85.963 Y86.514 E1.04980 F900.000
G1 X87.098 Y85.448 E1.09797
G1 X88.357 Y84.533 E1.14615
G1 X89.722 Y83.783 E1.19432
G1 X91.169 Y83.210 E1.24249
G1 X92.677 Y82.823 E1.29066
G1 X94.222 Y82.627 E1.33883
G1 X95.778 Y82.627 E1.38700
G1 X97.323 Y82.823 E1.43517
G1 X98.831 Y83.210 E1.48334
G1 X100.278 Y83.783 E1.53151
G1 X101.643 Y84.533 E1.57968
G1 X102.902 Y85.448 E1.62785
G1 X104.037 Y86.514 E1.67602
G1 X105.029 Y87.713 E1.72419
G1 X105.864 Y89.028 E1.77236
G1 X106.527 Y90.436 E1.82053
G1 X107.008 Y91.917 E1.86870
G1 X107.299 Y93.446 E1.91687
G1 X107.354 Y94.310 E1.94364
G1 X107.440 Y94.321 E1.94633
G1 X107.397 Y95.000 E1.96740
G1 X107.440 Y95.679 E1.98846
G1 X107.354 Y95.690 E1.99115
G1 X107.299 Y96.554 E2.01792
G1 X107.008 Y98.083 E2.06609
G1 X106.527 Y99.564 E2.11426
G1 X105.864 Y100.972 E2.16243
G1 X105.029 Y102.287 E2.21060
G1 X104.037 Y103.486 E2.25877
G1 X102.902 Y104.552 E2.30694
G1 X101.643 Y105.467 E2.35511
G1 X100.278 Y106.217 E2.40328
G1 X98.831 Y106.790 E2.45145
G1 X97.323 Y107.177 E2.49962
G1 X95.778 Y107.373 E2.54779
G1 X94.222 Y107.373 E2.59596
G1 X92.677 Y107.177 E2.64413
G1 X91.169 Y106.790 E2.69231
G1 X89.722 Y106.217 E2.74047
G1 X88.357 Y105.467 E2.78865
G1 X87.098 Y104.552 E2.83682
G1 X85.963 Y103.486 E2.88499
G1 X84.971 Y102.287 E2.93316
G1 X84.114 Y100.924 E2.98296
G1 X83.473 Y99.564 E3.02949
G1 X82.992 Y98.083 E3.07766
G1 X82.701 Y96.554 E3.12583
G1 X82.603 Y95.000 E3.17400
G1 X82.701 Y93.446 E3.22217
G1 X82.992 Y91.917 E3.27034
G1 X83.473 Y90.436 E3.31851
G1 X84.136 Y89.028 E3.36668
G1 X84.892 Y87.837 E3.41030
G1 X84.414 Y87.423 F7800.000
G1 X85.506 Y86.085 E3.46375 F900.000
G1 X86.699 Y84.965 E3.51435
G1 X88.022 Y84.004 E3.56496
G1 X89.455 Y83.216 E3.61556
G1 X90.976 Y82.614 E3.66616
G1 X92.560 Y82.208 E3.71677
G1 X94.182 Y82.002 E3.76737
G1 X95.818 Y82.002 E3.81797
G1 X97.440 Y82.208 E3.86858
G1 X99.024 Y82.614 E3.91918
G1 X100.545 Y83.216 E3.96978
G1 X101.978 Y84.004 E4.02039
G1 X103.301 Y84.965 E4.07099
G1 X104.494 Y86.085 E4.12159
G1 X105.536 Y87.345 E4.17220
G1 X106.412 Y88.726 E4.22280
G1 X107.109 Y90.206 E4.27340
G1 X107.614 Y91.761 E4.32401
G1 X107.920 Y93.368 E4.37461
G1 X108.023 Y95.000 E4.42521
G1 X107.920 Y96.632 E4.47582
G1 X107.614 Y98.239 E4.52642
G1 X107.109 Y99.794 E4.57702
G1 X106.412 Y101.274 E4.62763
G1 X105.536 Y102.655 E4.67823
G1 X104.494 Y103.915 E4.72883
G1 X103.301 Y105.035 E4.77944
G1 X101.978 Y105.996 E4.83004
G1 X100.459 Y106.818 E4.88349
G1 X99.024 Y107.386 E4.93123
G1 X97.440 Y107.792 E4.98183
G1 X95.818 Y107.998 E5.03244
G1 X94.182 Y107.998 E5.08304
G1 X92.560 Y107.792 E5.13364
G1 X90.976 Y107.386 E5.18425
G1 X89.455 Y106.784 E5.23485
G1 X88.022 Y105.996 E5.28545
G1 X86.699 Y105.035 E5.33606
G1 X85.506 Y103.915 E5.38666
G1 X84.464 Y102.655 E5.43726
G1 X83.588 Y101.274 E5.48787
G1 X82.891 Y99.794 E5.53847
G1 X82.386 Y98.239 E5.58907
G1 X82.080 Y96.632 E5.63968
G1 X81.977 Y95.000 E5.69028
G1 X82.080 Y93.368 E5.74088
G1 X82.386 Y91.761 E5.79149
G1 X82.891 Y90.206 E5.84209
G1 X83.588 Y88.726 E5.89269
G1 X84.364 Y87.502 E5.93753
G1 X83.887 Y87.088 F7800.000
G1 X83.958 Y86.977 E5.94161 F630.000
G1 X85.050 Y85.656 E5.99465
G1 X86.300 Y84.483 E6.04769
G1 X87.686 Y83.475 E6.10072
G1 X89.188 Y82.650 E6.15376
G1 X90.782 Y82.019 E6.20679
G1 X92.442 Y81.592 E6.25983
G1 X94.143 Y81.378 E6.31287
G1 X95.857 Y81.378 E6.36590
G1 X97.558 Y81.592 E6.41894
G1 X99.218 Y82.019 E6.47198
G1 X100.689 Y82.601 E6.52093
G1 X100.812 Y82.650 E6.52501
G1 X102.314 Y83.475 E6.57805
G1 X103.700 Y84.483 E6.63109
G1 X104.950 Y85.656 E6.68412
G1 X106.042 Y86.977 E6.73716
G1 X106.961 Y88.424 E6.79019
G1 X107.691 Y89.975 E6.84323
G1 X108.221 Y91.606 E6.89627
G1 X108.542 Y93.289 E6.94930
G1 X108.649 Y95.000 E7.00234
G1 X108.542 Y96.711 E7.05538
G1 X108.221 Y98.394 E7.10841
G1 X107.691 Y100.025 E7.16145
G1 X106.961 Y101.576 E7.21449
G1 X106.042 Y103.023 E7.26752
G1 X104.950 Y104.344 E7.32056
G1 X103.700 Y105.517 E7.37359
G1 X102.314 Y106.525 E7.42663
G1 X100.812 Y107.350 E7.47967
G1 X100.689 Y107.399 E7.48375
G1 X99.218 Y107.981 E7.53270
G1 X97.558 Y108.408 E7.58574
G1 X95.857 Y108.622 E7.63878
G1 X94.143 Y108.622 E7.69181
G1 X92.442 Y108.408 E7.74485
G1 X90.782 Y107.981 E7.79789
G1 X89.188 Y107.350 E7.85092
G1 X87.686 Y106.525 E7.90396
G1 X86.300 Y105.517 E7.95699
G1 X85.050 Y104.344 E8.01003
G1 X83.958 Y103.023 E8.06307
G1 X83.039 Y101.576 E8.11610
G1 X82.983 Y101.456 E8.12018
G1 X82.309 Y100.025 E8.16914
G1 X81.779 Y98.394 E8.22218
G1 X81.458 Y96.711 E8.27521
G1 X81.351 Y95.000 E8.32825
G1 X81.458 Y93.289 E8.38129
G1 X81.779 Y91.606 E8.43432
G1 X82.309 Y89.975 E8.48736
G1 X83.039 Y88.424 E8.54039
G1 X83.837 Y87.168 E8.58645
